; generated by PrusaSlicer 2.2.0+win64 on 2020-07-31 at 21:33:21 UTC

; 

; external perimeters extrusion width = 0.45mm
; perimeters extrusion width = 0.45mm
; infill extrusion width = 0.45mm
; solid infill extrusion width = 0.45mm
; top infill extrusion width = 0.40mm
; support material extrusion width = 0.35mm
; first layer extrusion width = 0.42mm

M73 P0 R180
M73 Q0 S181
M201 X1000 Y1000 Z200 E5000 ; sets maximum accelerations, mm/sec^2
M203 X200 Y200 Z12 E120 ; sets maximum feedrates, mm/sec
M204 P1250 R1250 T1250 ; sets acceleration (P, T) and retract acceleration (R), mm/sec^2
M205 X8.00 Y8.00 Z0.40 E4.50 ; sets the jerk limits, mm/sec
M205 S0 T0 ; sets the minimum extruding and travel feed rate, mm/sec
M107
M862.3 P "MK3S" ; printer model check
M862.1 P0.4 ; nozzle diameter check
M115 U3.9.0 ; tell printer latest fw version
G90 ; use absolute coordinates
M83 ; extruder relative mode
M104 S215 ; set extruder temp
M140 S60 ; set bed temp
M190 S60 ; wait for bed temp
M109 S215 ; wait for extruder temp
G28 W ; home all without mesh bed level
G80 ; mesh bed leveling
G1 Y-3.0 F1000.0 ; go outside print area
G92 E0.0
G1 X60.0 E9.0 F1000.0 ; intro line
M73 Q0 S181
M73 P0 R180
G1 X100.0 E12.5 F1000.0 ; intro line
G92 E0.0
M221 S95
G21 ; set units to millimeters
G90 ; use absolute coordinates
M83 ; use relative distances for extrusion
M900 K0.06 ; Filament gcode LA 1.5
M900 K30 ; Filament gcode LA 1.0
;BEFORE_LAYER_CHANGE
G92 E0.0
;0.2


G1 E-0.80000 F2100.00000
G1 Z0.600 F10800.000
;AFTER_LAYER_CHANGE
;0.2
G1 X112.614 Y94.154
G1 Z0.200
G1 E0.80000 F2100.00000
M204 S1000
G1 F1200.000
G1 X112.918 Y93.566 E0.02078
G1 X113.354 Y93.066 E0.02078
G1 X113.896 Y92.686 E0.02078
G1 X114.510 Y92.447 E0.02065
G1 X125.005 Y90.969 E0.33234
G1 X135.457 Y92.438 E0.33091
G1 X136.044 Y92.654 E0.01963
G1 X136.564 Y92.995 E0.01950
G1 X136.994 Y93.444 E0.01950
G1 X137.313 Y93.978 E0.01950
G1 X137.495 Y94.526 E0.01809
G1 X137.558 Y95.104 E0.01822
G1 X137.558 Y117.383 E0.69857
G1 X137.386 Y118.322 E0.02993
G1 X137.008 Y119.015 E0.02473
G1 X136.453 Y119.569 E0.02460
G1 X135.764 Y119.944 E0.02460
G1 X134.997 Y120.110 E0.02460
G1 X115.175 Y120.117 E0.62150
G1 X114.237 Y119.945 E0.02993
G1 X113.541 Y119.564 E0.02485
G1 X112.985 Y119.005 E0.02473
G1 X112.610 Y118.311 E0.02473
G1 X112.447 Y117.536 E0.02485
G1 X112.442 Y95.093 E0.70367
G1 X112.603 Y94.213 E0.02805
G1 X112.971 Y94.282 F10800.000
G1 F1200.000
G1 X113.237 Y93.767 E0.01818
G1 X113.620 Y93.334 E0.01811
G1 X114.092 Y93.008 E0.01799
G1 X114.633 Y92.804 E0.01811
G1 X125.004 Y91.346 E0.32838
G1 X135.344 Y92.799 E0.32738
G1 X135.859 Y92.984 E0.01716
G1 X136.318 Y93.281 E0.01716
G1 X136.695 Y93.673 E0.01704
G1 X136.974 Y94.144 E0.01716
G1 X137.129 Y94.617 E0.01562
G1 X137.181 Y95.109 E0.01550
G1 X137.181 Y117.378 E0.69824
G1 X137.028 Y118.201 E0.02626
G1 X136.700 Y118.796 E0.02130
G1 X136.217 Y119.274 E0.02130
G1 X135.619 Y119.596 E0.02130
G1 X134.950 Y119.736 E0.02142
G1 X115.177 Y119.740 E0.61997
G1 X114.357 Y119.587 E0.02614
G1 X113.759 Y119.257 E0.02142
G1 X113.280 Y118.770 E0.02142
G1 X112.959 Y118.167 E0.02142
G1 X112.822 Y117.493 E0.02154
G1 X112.819 Y95.099 E0.70217
G1 X112.960 Y94.341 E0.02417
G1 F8640.000
G1 X113.237 Y93.767 E-0.14722
G1 X113.620 Y93.334 E-0.13336
G1 X114.092 Y93.008 E-0.13248
G1 X114.633 Y92.804 E-0.13336
G1 X115.549 Y92.676 E-0.21359
G1 E-0.04000 F2100.00000
G1 Z0.800 F10800.000
G1 X121.983 Y96.507
G1 Z0.200
G1 E0.80000 F2100.00000
G1 F1200.000
G1 X121.983 Y95.114 E0.04368
G1 X121.229 Y95.114 E0.02365
G1 X121.229 Y98.860 E0.11745
G1 F8640.000
G1 X121.229 Y95.568 E-0.76000
G1 E-0.04000 F2100.00000
G1 Z0.800 F10800.000
G1 X128.017 Y96.507
G1 Z0.200
G1 E0.80000 F2100.00000
G1 F1200.000
G1 X128.017 Y95.114 E0.04368
G1 X128.771 Y95.114 E0.02365
G1 X128.771 Y98.860 E0.11746
G1 X134.804 Y117.363 F10800.000
G1 F1200.000
G1 X134.804 Y95.114 E0.69760
G1 X134.050 Y95.114 E0.02365
G1 X134.050 Y117.193 E0.69228
G1 X133.296 Y117.193 E0.02365
G1 X133.296 Y95.114 E0.69228
G1 X132.542 Y95.114 E0.02365
G1 X132.542 Y117.193 E0.69228
G1 X131.787 Y117.193 E0.02365
G1 X131.787 Y95.114 E0.69228
G1 X131.033 Y95.114 E0.02365
G1 X131.033 Y117.193 E0.69228
G1 X130.279 Y117.193 E0.02365
G1 X130.279 Y95.114 E0.69228
G1 X129.525 Y95.114 E0.02365
G1 X129.525 Y117.193 E0.69228
G1 X128.771 Y117.193 E0.02365
G1 X128.771 Y111.722 E0.17154
G1 X128.290 Y113.298 E0.05165
G1 X128.017 Y113.900 E0.02074
G1 X128.017 Y117.193 E0.10325
G1 X127.262 Y117.193 E0.02365
G1 X127.262 Y114.842 E0.07373
G1 F8640.000
G1 X127.262 Y117.193 E-0.54299
G1 X128.017 Y117.193 E-0.17414
G1 X128.017 Y117.008 E-0.04288
G1 E-0.04000 F2100.00000
G1 Z0.800 F10800.000
G1 X121.229 Y111.140
G1 Z0.200
G1 E0.80000 F2100.00000
G1 F1200.000
G1 X121.229 Y117.193 E0.18980
G1 X121.983 Y117.193 E0.02365
G1 X121.983 Y113.900 E0.10325
G1 X122.075 Y114.097 E0.00682
G1 X122.738 Y115.163 E0.03935
G1 X122.738 Y117.363 E0.06897
G1 X120.475 Y117.363 F10800.000
G1 F1200.000
G1 X120.475 Y95.114 E0.69760
G1 X119.721 Y95.114 E0.02365
G1 X119.721 Y117.193 E0.69228
G1 X118.967 Y117.193 E0.02365
G1 X118.967 Y95.114 E0.69228
G1 X118.213 Y95.114 E0.02365
G1 X118.213 Y117.193 E0.69228
G1 X117.458 Y117.193 E0.02365
G1 X117.458 Y95.114 E0.69228
G1 X116.704 Y95.114 E0.02365
G1 X116.704 Y117.193 E0.69228
G1 X115.950 Y117.193 E0.02365
G1 X115.950 Y95.114 E0.69228
G1 X115.196 Y95.114 E0.02365
G1 X115.196 Y117.363 E0.69760
G1 F8640.000
G1 X115.196 Y114.071 E-0.76000
G1 E-0.04000 F2100.00000
G1 Z0.800 F10800.000
G1 X125.000 Y115.390
G1 Z0.200
G1 E0.80000 F2100.00000
G1 F1200.000
G1 X124.544 Y115.284 E0.01468
G1 X123.975 Y114.881 E0.02186
G1 X123.129 Y113.517 E0.05033
G1 X122.839 Y112.884 E0.02183
G1 X122.082 Y110.402 E0.08138
G1 X122.048 Y110.208 E0.00616
G1 X121.700 Y107.761 E0.07749
G1 X121.571 Y105.000 E0.08667
G1 X121.700 Y102.238 E0.08670
G1 X122.048 Y99.792 E0.07746
G1 X122.082 Y99.598 E0.00616
G1 X122.839 Y97.115 E0.08141
G1 X123.128 Y96.482 E0.02182
G1 X123.990 Y95.096 E0.05116
G1 X124.540 Y94.717 E0.02097
G1 X125.000 Y94.610 E0.01481
G1 X125.456 Y94.716 E0.01468
G1 X126.025 Y95.119 E0.02186
G1 X126.872 Y96.482 E0.05031
G1 X127.161 Y97.115 E0.02182
G1 X127.918 Y99.598 E0.08141
G1 X127.952 Y99.792 E0.00616
G1 X128.300 Y102.238 E0.07746
G1 X128.429 Y105.000 E0.08670
G1 X128.300 Y107.761 E0.08667
G1 X127.952 Y110.208 E0.07749
G1 X127.918 Y110.402 E0.00616
G1 X127.161 Y112.884 E0.08138
G1 X126.871 Y113.517 E0.02183
G1 X126.025 Y114.881 E0.05033
G1 X125.456 Y115.284 E0.02186
G1 X125.058 Y115.377 E0.01280
G1 X125.000 Y115.778 F10800.000
G1 F1200.000
G1 X124.386 Y115.635 E0.01976
G1 X123.695 Y115.144 E0.02657
G1 X122.796 Y113.696 E0.05346
G1 X122.486 Y113.018 E0.02337
G1 X121.714 Y110.489 E0.08289
G1 X121.675 Y110.267 E0.00708
G1 X121.324 Y107.797 E0.07825
G1 X121.194 Y105.000 E0.08778
G1 X121.324 Y102.202 E0.08781
G1 X121.675 Y99.733 E0.07822
G1 X121.714 Y99.511 E0.00708
G1 X122.486 Y96.981 E0.08292
G1 X122.796 Y96.303 E0.02336
G1 X123.704 Y94.841 E0.05399
G1 X124.385 Y94.366 E0.02602
G1 X125.000 Y94.222 E0.01980
G1 X125.614 Y94.365 E0.01976
G1 X126.305 Y94.856 E0.02657
G1 X127.204 Y96.303 E0.05345
G1 X127.514 Y96.981 E0.02336
G1 X128.286 Y99.511 E0.08292
G1 X128.325 Y99.733 E0.00708
G1 X128.676 Y102.202 E0.07822
G1 X128.806 Y105.000 E0.08781
G1 X128.676 Y107.797 E0.08778
G1 X128.325 Y110.267 E0.07824
G1 X128.286 Y110.489 E0.00708
G1 X127.514 Y113.018 E0.08289
G1 X127.204 Y113.696 E0.02337
G1 X126.305 Y115.144 E0.05346
G1 X125.614 Y115.635 E0.02657
G1 X125.058 Y115.764 E0.01788
G1 X124.801 Y115.431 F10800.000
G1 F8640.000
G1 X124.386 Y115.635 E-0.15805
G1 X123.695 Y115.144 E-0.19564
G1 X122.796 Y113.696 E-0.39372
G1 X122.773 Y113.646 E-0.01259
G1 E-0.04000 F2100.00000
G1 Z0.800 F10800.000
G1 X127.003 Y97.041
G1 Z0.200
G1 E0.80000 F2100.00000
G1 F1200.000
G1 X124.888 Y94.926 E0.09471
G1 X124.656 Y94.980 E0.00752
G1 X124.507 Y95.083 E0.00576
G1 X127.009 Y97.586 E0.11205
G1 X127.245 Y98.360 E0.02564
G1 X124.192 Y95.307 E0.13671
G1 X123.985 Y95.639 E0.01238
G1 X127.481 Y99.135 E0.15653
G1 X127.643 Y99.664 E0.01752
G1 X127.677 Y99.870 E0.00659
G1 X123.779 Y95.971 E0.17455
G1 X123.573 Y96.303 E0.01238
G1 X127.767 Y100.497 E0.18780
G1 X127.856 Y101.125 E0.02008
G1 X123.368 Y96.637 E0.20094
G1 X123.199 Y97.007 E0.01286
G1 X127.946 Y101.753 E0.21251
G1 X128.023 Y102.369 E0.01966
G1 X123.049 Y97.395 E0.22272
G1 X122.923 Y97.808 E0.01366
G1 X128.050 Y102.934 E0.22952
G1 X128.076 Y103.499 E0.01790
G1 X122.798 Y98.221 E0.23633
G1 X122.672 Y98.633 E0.01366
G1 X128.102 Y104.063 E0.24314
G1 X128.128 Y104.628 E0.01790
G1 X122.546 Y99.046 E0.24994
G1 X122.420 Y99.459 E0.01366
G1 X128.137 Y105.176 E0.25598
G1 X128.113 Y105.690 E0.01631
G1 X122.319 Y99.896 E0.25945
G1 X122.252 Y100.367 E0.01507
G1 X128.089 Y106.205 E0.26138
G1 X128.066 Y106.719 E0.01631
G1 X122.185 Y100.838 E0.26332
G1 X122.117 Y101.310 E0.01507
G1 X128.042 Y107.234 E0.26525
G1 X128.017 Y107.747 E0.01627
G1 X122.050 Y101.781 E0.26713
G1 X121.983 Y102.253 E0.01507
G1 X127.949 Y108.219 E0.26713
G1 X127.882 Y108.690 E0.01507
G1 X121.958 Y102.766 E0.26525
G1 X121.934 Y103.281 E0.01631
G1 X127.815 Y109.162 E0.26332
G1 X127.748 Y109.633 E0.01507
G1 X121.910 Y103.795 E0.26138
G1 X121.887 Y104.310 E0.01631
G1 X127.681 Y110.104 E0.25945
G1 X127.643 Y110.336 E0.00743
G1 X127.580 Y110.541 E0.00681
G1 X121.863 Y104.824 E0.25598
G1 X121.872 Y105.372 E0.01734
G1 X127.454 Y110.954 E0.24994
G1 X127.328 Y111.367 E0.01366
G1 X121.898 Y105.937 E0.24313
G1 X121.924 Y106.501 E0.01790
G1 X127.202 Y111.779 E0.23632
G1 X127.077 Y112.192 E0.01366
G1 X121.951 Y107.066 E0.22951
G1 X121.977 Y107.631 E0.01790
G1 X126.951 Y112.605 E0.22270
G1 X126.896 Y112.784 E0.00592
G1 X126.800 Y112.993 E0.00728
G1 X122.055 Y108.247 E0.21249
G1 X122.144 Y108.875 E0.02008
G1 X126.631 Y113.362 E0.20092
G1 X126.427 Y113.697 E0.01240
G1 X122.233 Y109.503 E0.18778
G1 X122.323 Y110.130 E0.02008
G1 X126.221 Y114.029 E0.17454
G1 X126.015 Y114.361 E0.01238
G1 X122.519 Y110.865 E0.15651
G1 X122.755 Y111.640 E0.02564
G1 X125.805 Y114.690 E0.13656
G1 X125.490 Y114.913 E0.01223
G1 X122.991 Y112.415 E0.11188
G1 X123.104 Y112.784 E0.01221
G1 X123.342 Y113.304 E0.01810
G1 X125.253 Y115.215 E0.08560
M106 S255
;BEFORE_LAYER_CHANGE
G92 E0.0
;0.4


G1 F8640.000
G1 X123.342 Y113.304 E-0.62427
G1 X123.104 Y112.784 E-0.13200
G1 X123.099 Y112.768 E-0.00373
G1 E-0.04000 F2100.00000
G1 Z0.800 F10800.000
;AFTER_LAYER_CHANGE
;0.4
G1 X114.237 Y119.945
G1 Z0.400
G1 E0.80000 F2100.00000
G1 F1775
G1 X113.541 Y119.564 E0.02485
G1 X112.985 Y119.005 E0.02473
G1 X112.610 Y118.311 E0.02473
G1 X112.447 Y117.536 E0.02485
G1 X112.442 Y95.093 E0.70367
G1 X112.614 Y94.154 E0.02993
G1 X112.918 Y93.566 E0.02078
G1 X113.354 Y93.066 E0.02078
G1 X113.896 Y92.686 E0.02078
G1 X114.510 Y92.447 E0.02065
G1 X125.005 Y90.969 E0.33234
G1 X135.457 Y92.438 E0.33091
G1 X136.044 Y92.654 E0.01963
G1 X136.564 Y92.995 E0.01950
G1 X136.994 Y93.444 E0.01950
G1 X137.313 Y93.978 E0.01950
G1 X137.495 Y94.526 E0.01809
G1 X137.558 Y95.104 E0.01822
G1 X137.558 Y117.383 E0.69857
G1 X137.386 Y118.322 E0.02993
G1 X137.008 Y119.015 E0.02473
G1 X136.453 Y119.569 E0.02460
G1 X135.764 Y119.944 E0.02460
G1 X134.997 Y120.110 E0.02460
G1 X115.175 Y120.117 E0.62150
M73 Q0 S180
G1 X114.296 Y119.955 E0.02805
G1 X114.364 Y119.588 F10800.000
G1 F1775
G1 X113.759 Y119.257 E0.02162
G1 X113.280 Y118.770 E0.02142
G1 X112.959 Y118.167 E0.02142
G1 X112.822 Y117.493 E0.02154
G1 X112.819 Y95.099 E0.70217
M73 P0 R179
G1 X112.972 Y94.275 E0.02626
G1 X113.237 Y93.767 E0.01799
G1 X113.620 Y93.334 E0.01811
G1 X114.092 Y93.008 E0.01799
G1 X114.633 Y92.804 E0.01811
G1 X125.004 Y91.346 E0.32838
G1 X135.344 Y92.799 E0.32738
G1 X135.859 Y92.984 E0.01716
G1 X136.318 Y93.281 E0.01716
G1 X136.695 Y93.673 E0.01704
G1 X136.974 Y94.144 E0.01716
G1 X137.129 Y94.617 E0.01562
G1 X137.181 Y95.109 E0.01550
G1 X137.181 Y117.378 E0.69824
G1 X137.028 Y118.201 E0.02626
G1 X136.700 Y118.796 E0.02130
G1 X136.217 Y119.274 E0.02130
G1 X135.619 Y119.596 E0.02130
G1 X134.950 Y119.736 E0.02142
G1 X115.177 Y119.740 E0.61997
G1 X114.423 Y119.599 E0.02405
G1 F8640.000
G1 X113.759 Y119.257 E-0.17246
G1 X113.280 Y118.770 E-0.15776
G1 X112.959 Y118.167 E-0.15776
G1 X112.822 Y117.493 E-0.15863
G1 X112.822 Y117.002 E-0.11338
G1 E-0.04000 F2100.00000
G1 Z1.000 F10800.000
G1 X125.000 Y115.589
G1 Z0.400
G1 E0.80000 F2100.00000
M204 S800
G1 F1775
G1 X124.480 Y115.468 E0.01806
G1 X123.855 Y115.032 E0.02578
G1 X123.000 Y113.655 E0.05487
G1 X122.673 Y112.940 E0.02663
G1 X121.902 Y110.386 E0.09030
G1 X121.530 Y107.776 E0.08925
G1 X121.401 Y105.000 E0.09405
G1 X121.530 Y102.223 E0.09409
G1 X121.902 Y99.614 E0.08922
G1 X122.673 Y97.059 E0.09033
G1 X123.000 Y96.345 E0.02658
G1 X123.873 Y94.950 E0.05571
G1 X124.479 Y94.532 E0.02490
G1 X125.000 Y94.411 E0.01811
G1 X125.520 Y94.532 E0.01806
G1 X126.145 Y94.968 E0.02578
G1 X127.000 Y96.344 E0.05485
G1 X127.327 Y97.059 E0.02661
G1 X128.098 Y99.614 E0.09033
G1 X128.470 Y102.223 E0.08922
G1 X128.599 Y105.000 E0.09409
G1 X128.470 Y107.776 E0.09405
G1 X128.098 Y110.386 E0.08925
G1 X127.327 Y112.940 E0.09030
G1 X127.000 Y113.655 E0.02663
G1 X126.145 Y115.032 E0.05487
G1 X125.520 Y115.468 E0.02578
G1 X125.058 Y115.575 E0.01603
M204 S1000
G1 X125.000 Y116.007 F10800.000
M204 S800
G1 F1500.000
G1 X124.312 Y115.847 E0.02391
G1 X123.554 Y115.319 E0.03127
G1 X122.641 Y113.848 E0.05858
G1 X122.291 Y113.084 E0.02844
G1 X121.503 Y110.474 E0.09229
G1 X121.125 Y107.814 E0.09095
G1 X120.994 Y105.000 E0.09535
G1 X121.125 Y102.185 E0.09538
G1 X121.503 Y99.526 E0.09092
G1 X122.291 Y96.915 E0.09232
G1 X122.641 Y96.151 E0.02841
G1 X123.573 Y94.663 E0.05945
G1 X124.311 Y94.153 E0.03036
G1 X125.000 Y93.993 E0.02393
G1 X125.688 Y94.153 E0.02392
G1 X126.446 Y94.681 E0.03127
G1 X127.359 Y96.151 E0.05856
G1 X127.709 Y96.915 E0.02843
G1 X128.497 Y99.526 E0.09232
G1 X128.875 Y102.185 E0.09092
G1 X129.006 Y105.000 E0.09538
G1 X128.875 Y107.814 E0.09535
G1 X128.497 Y110.474 E0.09095
G1 X127.709 Y113.084 E0.09229
G1 X127.359 Y113.848 E0.02844
G1 X126.446 Y115.319 E0.05858
G1 X125.688 Y115.847 E0.03127
G1 X125.058 Y115.993 E0.02188
M204 S1000
G1 X124.801 Y115.659 F10800.000
G1 F8640.000
G1 X124.312 Y115.847 E-0.17567
G1 X123.554 Y115.319 E-0.21331
G1 X122.706 Y113.954 E-0.37102
G1 E-0.04000 F2100.00000
G1 Z1.000 F10800.000
G1 X122.828 Y97.013
G1 Z0.400
G1 E0.80000 F2100.00000
G1 F1775
G1 X125.094 Y94.747 E0.10939
G1 X125.393 Y94.816 E0.01047
G1 X125.518 Y94.903 E0.00520
G1 X122.832 Y97.590 E0.12969
G1 X122.581 Y98.422 E0.02964
G1 X125.860 Y95.142 E0.15832
G1 X125.918 Y95.182 E0.00241
G1 X126.103 Y95.479 E0.01195
G1 X122.330 Y99.253 E0.18215
G1 X122.201 Y99.680 E0.01522
G1 X122.154 Y100.009 E0.01135
G1 X126.326 Y95.838 E0.20137
G1 X126.548 Y96.196 E0.01439
G1 X122.058 Y100.686 E0.21676
G1 X121.961 Y101.363 E0.02334
G1 X126.763 Y96.561 E0.23179
G1 X126.946 Y96.959 E0.01495
G1 X121.865 Y102.040 E0.24524
G1 X121.835 Y102.252 E0.00732
G1 X121.815 Y102.670 E0.01428
G1 X127.105 Y97.380 E0.25534
G1 X127.240 Y97.826 E0.01590
G1 X121.787 Y103.279 E0.26320
G1 X121.759 Y103.888 E0.02080
G1 X127.374 Y98.272 E0.27106
G1 X127.509 Y98.718 E0.01590
G1 X121.730 Y104.496 E0.27892
G1 X121.712 Y105.096 E0.02047
G1 X127.643 Y99.164 E0.28633
G1 X127.778 Y99.610 E0.01590
G1 X121.737 Y105.651 E0.29158
G1 X121.763 Y106.205 E0.01895
G1 X127.860 Y100.108 E0.29430
G1 X127.932 Y100.616 E0.01752
G1 X121.789 Y106.760 E0.29655
G1 X121.815 Y107.315 E0.01895
G1 X128.005 Y101.125 E0.29880
G1 X128.077 Y101.633 E0.01752
G1 X121.851 Y107.859 E0.30055
G1 X121.923 Y108.367 E0.01752
G1 X128.149 Y102.141 E0.30055
G1 X128.165 Y102.252 E0.00383
G1 X128.185 Y102.686 E0.01482
G1 X121.995 Y108.876 E0.29879
G1 X122.068 Y109.384 E0.01752
G1 X128.211 Y103.240 E0.29655
G1 X128.237 Y103.795 E0.01896
G1 X122.140 Y109.892 E0.29430
G1 X122.222 Y110.390 E0.01724
G1 X128.263 Y104.350 E0.29158
G1 X128.288 Y104.905 E0.01896
G1 X122.357 Y110.836 E0.28633
G1 X122.491 Y111.282 E0.01590
G1 X128.269 Y105.504 E0.27891
G1 X128.241 Y106.113 E0.02080
G1 X122.626 Y111.728 E0.27105
G1 X122.761 Y112.174 E0.01590
