; generated by PrusaSlicer 2.2.0+win64 on 2020-07-25 at 21:17:07 UTC

; 

; external perimeters extrusion width = 0.45mm
; perimeters extrusion width = 0.45mm
; infill extrusion width = 0.45mm
; solid infill extrusion width = 0.45mm
; top infill extrusion width = 0.40mm
; support material extrusion width = 0.35mm
; first layer extrusion width = 0.42mm

M73 P0 R414
M73 Q0 S418
M201 X1000 Y1000 Z200 E5000 ; sets maximum accelerations, mm/sec^2
M203 X200 Y200 Z12 E120 ; sets maximum feedrates, mm/sec
M204 P1250 R1250 T1250 ; sets acceleration (P, T) and retract acceleration (R), mm/sec^2
M205 X8.00 Y8.00 Z0.40 E4.50 ; sets the jerk limits, mm/sec
M205 S0 T0 ; sets the minimum extruding and travel feed rate, mm/sec
M107
M862.3 P "MK3S" ; printer model check
M862.1 P0.4 ; nozzle diameter check
M115 U3.9.0 ; tell printer latest fw version
G90 ; use absolute coordinates
M83 ; extruder relative mode
M104 S215 ; set extruder temp
M140 S60 ; set bed temp
M190 S60 ; wait for bed temp
M109 S215 ; wait for extruder temp
G28 W ; home all without mesh bed level
G80 ; mesh bed leveling
G1 Y-3.0 F1000.0 ; go outside print area
G92 E0.0
G1 X60.0 E9.0 F1000.0 ; intro line
M73 Q0 S418
M73 P0 R414
G1 X100.0 E12.5 F1000.0 ; intro line
G92 E0.0
M221 S95
G21 ; set units to millimeters
G90 ; use absolute coordinates
M83 ; use relative distances for extrusion
M900 K0.06 ; Filament gcode LA 1.5
M900 K30 ; Filament gcode LA 1.0
;BEFORE_LAYER_CHANGE
G92 E0.0
;0.2


G1 E-0.80000 F2100.00000
G1 Z0.600 F10800.000
;AFTER_LAYER_CHANGE
;0.2
G1 X45.191 Y28.427
G1 Z0.200
G1 E0.80000 F2100.00000
M204 S1000
G1 F1200.000
G1 X45.708 Y27.666 E0.02884
G1 X46.478 Y27.157 E0.02896
G1 X47.381 Y26.980 E0.02883
G1 X208.778 Y27.150 E5.06051
G1 X209.623 Y27.309 E0.02696
G1 X210.356 Y27.758 E0.02696
G1 X210.690 Y28.128 E0.01562
G1 X210.938 Y28.556 E0.01550
G1 X211.092 Y29.029 E0.01562
G1 X211.145 Y29.524 E0.01562
G1 X211.145 Y171.755 E4.45955
G1 X210.987 Y172.597 E0.02684
G1 X210.538 Y173.330 E0.02696
G1 X210.030 Y173.758 E0.02083
G1 X209.423 Y174.029 E0.02083
G1 X200.291 Y176.358 E0.29552
G1 X199.718 Y176.428 E0.01808
G1 X68.491 Y176.428 E4.11455
G1 X56.379 Y176.258 E0.37978
G1 X55.856 Y176.188 E0.01657
G1 X46.747 Y173.866 E0.29474
G1 X46.236 Y173.659 E0.01728
G1 X45.789 Y173.342 E0.01716
G1 X45.458 Y172.976 E0.01550
G1 X45.210 Y172.548 E0.01550
G1 X45.055 Y172.079 E0.01550
G1 X45.001 Y171.588 E0.01550
G1 X45.001 Y29.330 E4.46038
G1 X45.178 Y28.485 E0.02707
G1 F8640.000
G1 X45.708 Y27.666 E-0.22525
G1 X46.478 Y27.157 E-0.21324
G1 X47.381 Y26.980 E-0.21232
G1 X47.853 Y26.980 E-0.10919
G1 E-0.04000 F2100.00000
G1 Z0.800 F10800.000
G1 X47.378 Y29.357
G1 Z0.200
G1 E0.80000 F2100.00000
G1 F1200.000
G1 X47.378 Y171.574 E4.45912
G1 X48.132 Y171.574 E0.02365
G1 X48.132 Y29.527 E4.45380
G1 X48.886 Y29.527 E0.02365
G1 X48.886 Y171.744 E4.45912
G1 F8640.000
G1 X48.886 Y168.452 E-0.76000
G1 E-0.04000 F2100.00000
G1 Z0.800 F10800.000
G1 X54.920 Y166.130
G1 Z0.200
G1 E0.80000 F2100.00000
G1 F1200.000
G1 X54.920 Y29.527 E4.28309
M73 Q0 S416
M73 P0 R413
G1 X54.165 Y29.527 E0.02365
G1 X54.165 Y165.960 E4.27777
G1 X53.411 Y165.960 E0.02365
G1 X53.411 Y29.527 E4.27777
G1 X52.657 Y29.527 E0.02365
G1 X52.657 Y165.960 E4.27777
G1 X51.903 Y165.960 E0.02365
G1 X51.903 Y29.527 E4.27777
G1 X51.149 Y29.527 E0.02365
G1 X51.149 Y165.960 E4.27777
G1 X50.395 Y165.960 E0.02365
G1 X50.395 Y29.527 E4.27777
G1 X49.641 Y29.527 E0.02365
G1 X49.641 Y165.960 E4.27777
G1 X49.290 Y165.960 E0.01098
G1 X49.290 Y168.951 E0.09379
G1 X49.641 Y168.951 E0.01098
G1 X49.641 Y171.574 E0.08224
G1 X50.395 Y171.574 E0.02365
G1 X50.395 Y168.951 E0.08224
G1 X51.149 Y168.951 E0.02365
G1 X51.149 Y171.574 E0.08224
G1 X51.903 Y171.574 E0.02365
G1 X51.903 Y169.148 E0.07608
G1 F8640.000
G1 X51.903 Y171.574 E-0.56026
G1 X51.149 Y171.574 E-0.17414
G1 X51.149 Y171.463 E-0.02561
G1 E-0.04000 F2100.00000
G1 Z0.800 F10800.000
G1 X49.983 Y166.164
G1 Z0.200
G1 E0.80000 F2100.00000
G1 F1200.000
G1 X49.983 Y168.609 E0.06244
G1 X50.490 Y168.609 E0.01295
G1 X50.490 Y166.302 E0.05891
G1 X50.997 Y166.302 E0.01295
G1 X50.997 Y168.609 E0.05891
G1 X51.195 Y168.609 E0.00504
G1 X51.195 Y168.447 E0.00414
G1 X51.416 Y168.225 E0.00801
G1 X51.504 Y168.225 E0.00224
G1 X51.504 Y166.302 E0.04911
G1 X52.011 Y166.302 E0.01295
G1 X52.011 Y168.225 E0.04911
G1 X52.518 Y168.225 E0.01295
G1 X52.518 Y166.302 E0.04911
G1 X53.025 Y166.302 E0.01295
G1 X53.025 Y168.225 E0.04911
G1 X53.532 Y168.225 E0.01295
G1 X53.532 Y166.302 E0.04911
G1 X54.040 Y166.302 E0.01295
G1 X54.040 Y168.225 E0.04911
G1 X54.547 Y168.225 E0.01295
G1 X54.547 Y166.302 E0.04911
G1 X55.054 Y166.302 E0.01295
G1 X55.054 Y168.364 E0.05264
G1 F8640.000
G1 X55.054 Y166.302 E-0.47600
G1 X54.547 Y166.302 E-0.11709
G1 X54.547 Y167.025 E-0.16691
G1 E-0.04000 F2100.00000
G1 Z0.800 F10800.000
G1 X56.428 Y169.148
G1 Z0.200
G1 E0.80000 F2100.00000
G1 F1200.000
G1 X56.428 Y173.881 E0.14841
G1 X57.182 Y173.881 E0.02365
G1 X57.182 Y169.318 E0.14309
G1 X57.936 Y169.318 E0.02365
G1 X57.936 Y173.881 E0.14309
G1 X58.690 Y173.881 E0.02365
G1 X58.690 Y169.318 E0.14309
G1 X59.445 Y169.318 E0.02365
G1 X59.445 Y173.881 E0.14309
G1 X60.199 Y173.881 E0.02365
G1 X60.199 Y169.318 E0.14309
G1 X60.294 Y169.318 E0.00300
G1 X60.537 Y169.075 E0.01074
G1 X60.537 Y163.337 E0.17991
G1 X60.953 Y163.337 E0.01305
G1 X60.953 Y173.881 E0.33060
G1 X61.707 Y173.881 E0.02365
G1 X61.707 Y163.337 E0.33060
G1 X62.461 Y163.337 E0.02365
G1 X62.461 Y173.881 E0.33060
G1 X63.215 Y173.881 E0.02365
G1 X63.215 Y169.181 E0.14737
G1 X63.352 Y169.318 E0.00605
G1 X63.970 Y169.318 E0.01937
G1 X63.970 Y173.881 E0.14309
G1 X64.724 Y173.881 E0.02365
G1 X64.724 Y169.318 E0.14309
G1 X65.478 Y169.318 E0.02365
G1 X65.478 Y173.881 E0.14309
G1 X66.232 Y173.881 E0.02365
G1 X66.232 Y169.318 E0.14309
G1 X66.986 Y169.318 E0.02365
G1 X66.986 Y173.881 E0.14309
G1 X67.740 Y173.881 E0.02365
G1 X67.740 Y169.318 E0.14309
G1 X68.495 Y169.318 E0.02365
G1 X68.495 Y174.051 E0.14841
G1 F8640.000
G1 X68.495 Y170.760 E-0.76000
G1 E-0.04000 F2100.00000
G1 Z0.800 F10800.000
G1 X56.428 Y68.748
G1 Z0.200
G1 E0.80000 F2100.00000
G1 F1200.000
G1 X56.428 Y69.090 E0.01074
G1 X55.674 Y69.090 E0.02365
G1 X55.674 Y68.918 E0.00542
G1 X55.402 Y68.918 E0.00853
G1 X55.160 Y68.675 E0.01074
G1 X55.160 Y47.333 E0.66918
M73 Q0 S415
G1 X55.402 Y47.090 E0.01074
G1 X55.674 Y47.090 E0.00853
G1 X55.674 Y29.527 E0.55070
M73 P0 R412
G1 X56.428 Y29.527 E0.02365
G1 X56.428 Y47.090 E0.55070
G1 X57.182 Y47.090 E0.02365
G1 X57.182 Y29.527 E0.55070
G1 X57.936 Y29.527 E0.02365
G1 X57.936 Y47.090 E0.55070
G1 X58.690 Y47.090 E0.02365
G1 X58.690 Y29.527 E0.55070
G1 X59.445 Y29.527 E0.02365
G1 X59.445 Y47.090 E0.55070
G1 X60.199 Y47.090 E0.02365
G1 X60.199 Y29.527 E0.55070
G1 X60.953 Y29.527 E0.02365
G1 X60.953 Y47.090 E0.55070
G1 X61.707 Y47.090 E0.02365
G1 X61.707 Y29.527 E0.55070
G1 X62.461 Y29.527 E0.02365
G1 X62.461 Y47.090 E0.55070
G1 X63.215 Y47.090 E0.02365
G1 X63.215 Y29.527 E0.55070
G1 X63.970 Y29.527 E0.02365
G1 X63.970 Y51.290 E0.68239
G1 X64.724 Y51.290 E0.02365
G1 X64.724 Y29.527 E0.68239
G1 X65.478 Y29.527 E0.02365
G1 X65.478 Y51.290 E0.68239
G1 X66.232 Y51.290 E0.02365
G1 X66.232 Y29.527 E0.68239
G1 X66.440 Y29.527 E0.00651
G1 X66.440 Y47.983 E0.57869
G1 X66.986 Y47.983 E0.01713
G1 X66.986 Y51.290 E0.10369
G1 X67.740 Y51.290 E0.02365
G1 X67.740 Y47.983 E0.10369
G1 X68.495 Y47.983 E0.02365
G1 X68.495 Y51.460 E0.10901
G1 F8640.000
G1 X68.495 Y48.169 E-0.76000
G1 E-0.04000 F2100.00000
G1 Z0.800 F10800.000
G1 X63.215 Y58.697
G1 Z0.200
G1 E0.80000 F2100.00000
G1 F1200.000
G1 X63.215 Y49.918 E0.27527
G1 X62.461 Y49.918 E0.02365
G1 X62.461 Y58.527 E0.26995
G1 X61.707 Y58.527 E0.02365
G1 X61.707 Y49.918 E0.26995
G1 X60.953 Y49.918 E0.02365
G1 X60.953 Y58.697 E0.27527
G1 F8640.000
G1 X60.953 Y55.406 E-0.76000
G1 E-0.04000 F2100.00000
G1 Z0.800 F10800.000
G1 X200.472 Y69.260
G1 Z0.200
G1 E0.80000 F2100.00000
G1 F1200.000
G1 X200.472 Y68.918 E0.01074
G1 X199.718 Y68.918 E0.02365
G1 X199.718 Y69.260 E0.01074
G1 F8640.000
G1 X199.718 Y68.918 E-0.07911
G1 X200.472 Y68.918 E-0.17414
G1 X200.472 Y69.260 E-0.07911
G1 E-0.46764 F2100.00000
G1 Z0.800 F10800.000
G1 X195.193 Y58.697
G1 Z0.200
G1 E0.80000 F2100.00000
G1 F1200.000
G1 X195.193 Y49.918 E0.27527
G1 X194.439 Y49.918 E0.02365
G1 X194.439 Y58.527 E0.26995
G1 X193.685 Y58.527 E0.02365
G1 X193.685 Y49.748 E0.27527
G1 F8640.000
G1 X193.685 Y53.039 E-0.76000
G1 E-0.04000 F2100.00000
G1 Z0.800 F10800.000
G1 X187.652 Y47.814
G1 Z0.200
G1 E0.80000 F2100.00000
G1 F1200.000
G1 X187.652 Y51.290 E0.10901
G1 X188.406 Y51.290 E0.02365
G1 X188.406 Y47.983 E0.10369
G1 X189.160 Y47.983 E0.02365
G1 X189.160 Y51.290 E0.10369
G1 X189.914 Y51.290 E0.02365
G1 X189.914 Y29.527 E0.68239
G1 X190.668 Y29.527 E0.02365
G1 X190.668 Y51.290 E0.68239
G1 X191.422 Y51.290 E0.02365
G1 X191.422 Y29.527 E0.68239
G1 X192.177 Y29.527 E0.02365
G1 X192.177 Y51.290 E0.68239
G1 X192.794 Y51.290 E0.01937
G1 X192.931 Y51.427 E0.00605
G1 X192.931 Y49.918 E0.04732
G1 X192.652 Y49.918 E0.00875
G1 X192.410 Y49.675 E0.01074
G1 X192.410 Y47.333 E0.07345
G1 X192.652 Y47.090 E0.01074
G1 X192.931 Y47.090 E0.00875
G1 X192.931 Y29.527 E0.55070
G1 X193.685 Y29.527 E0.02365
G1 X193.685 Y47.090 E0.55070
G1 X194.439 Y47.090 E0.02365
G1 X194.439 Y29.527 E0.55070
G1 X195.193 Y29.527 E0.02365
G1 X195.193 Y47.090 E0.55070
G1 X195.947 Y47.090 E0.02365
G1 X195.947 Y29.527 E0.55070
G1 X196.702 Y29.527 E0.02365
G1 X196.702 Y47.090 E0.55070
G1 X197.456 Y47.090 E0.02365
G1 X197.456 Y29.527 E0.55070
G1 X198.210 Y29.527 E0.02365
G1 X198.210 Y47.090 E0.55070
G1 X198.964 Y47.090 E0.02365
G1 X198.964 Y29.527 E0.55070
G1 X199.718 Y29.527 E0.02365
G1 X199.718 Y47.090 E0.55070
G1 X200.472 Y47.090 E0.02365
G1 X200.472 Y29.527 E0.55070
G1 X201.226 Y29.527 E0.02365
G1 X201.226 Y165.960 E4.27777
G1 X201.981 Y165.960 E0.02365
G1 X201.981 Y29.527 E4.27777
G1 X202.735 Y29.527 E0.02365
G1 X202.735 Y165.960 E4.27777
G1 X203.489 Y165.960 E0.02365
G1 X203.489 Y29.527 E4.27777
M73 Q0 S414
M73 P0 R411
G1 X204.243 Y29.527 E0.02365
G1 X204.243 Y165.960 E4.27777
G1 X204.997 Y165.960 E0.02365
G1 X204.997 Y29.527 E4.27777
G1 X205.751 Y29.527 E0.02365
G1 X205.751 Y165.960 E4.27777
G1 X206.506 Y165.960 E0.02365
G1 X206.506 Y29.527 E4.27777
G1 X207.260 Y29.527 E0.02365
G1 X207.260 Y171.574 E4.45380
G1 X208.014 Y171.574 E0.02365
G1 X208.014 Y29.527 E4.45380
G1 X208.768 Y29.527 E0.02365
G1 X208.768 Y171.744 E4.45912
G1 X206.506 Y171.744 F10800.000
G1 F1200.000
G1 X206.506 Y168.951 E0.08756
G1 X205.751 Y168.951 E0.02365
G1 X205.751 Y171.574 E0.08224
G1 X204.997 Y171.574 E0.02365
G1 X204.987 Y168.951 E0.08224
G1 X204.987 Y169.075 E0.00388
G1 X204.744 Y169.318 E0.01074
G1 X204.243 Y169.318 E0.01572
G1 X204.243 Y171.744 E0.07608
G1 F8640.000
G1 X204.243 Y169.318 E-0.56026
G1 X204.744 Y169.318 E-0.11574
G1 X204.987 Y169.075 E-0.07910
G1 X204.987 Y169.054 E-0.00490
G1 E-0.04000 F2100.00000
G1 Z0.800 F10800.000
G1 X206.163 Y168.747
G1 Z0.200
G1 E0.80000 F2100.00000
G1 F1200.000
G1 X206.163 Y166.302 E0.06244
G1 X205.656 Y166.302 E0.01295
G1 X205.656 Y168.609 E0.05891
G1 X205.149 Y168.609 E0.01295
G1 X205.149 Y166.302 E0.05891
G1 X204.642 Y166.302 E0.01295
G1 X204.642 Y168.225 E0.04911
G1 X204.135 Y168.225 E0.01295
G1 X204.135 Y166.302 E0.04911
G1 X203.628 Y166.302 E0.01295
G1 X203.628 Y168.225 E0.04911
G1 X203.121 Y168.225 E0.01295
G1 X203.121 Y166.302 E0.04911
G1 X202.614 Y166.302 E0.01295
G1 X202.614 Y168.225 E0.04911
G1 X202.107 Y168.225 E0.01295
G1 X202.107 Y166.302 E0.04911
G1 X201.600 Y166.302 E0.01295
G1 X201.600 Y168.225 E0.04911
G1 X201.092 Y168.225 E0.01295
G1 X201.092 Y166.164 E0.05264
G1 F8640.000
G1 X201.092 Y168.225 E-0.47600
G1 X201.600 Y168.225 E-0.11709
G1 X201.600 Y167.503 E-0.16691
G1 E-0.04000 F2100.00000
G1 Z0.800 F10800.000
G1 X199.718 Y174.051
G1 Z0.200
G1 E0.80000 F2100.00000
G1 F1200.000
G1 X199.718 Y169.318 E0.14841
G1 X198.964 Y169.318 E0.02365
G1 X198.964 Y173.881 E0.14309
G1 X198.210 Y173.881 E0.02365
G1 X198.210 Y169.318 E0.14309
G1 X197.456 Y169.318 E0.02365
G1 X197.456 Y173.881 E0.14309
G1 X196.702 Y173.881 E0.02365
G1 X196.702 Y169.318 E0.14309
G1 X195.947 Y169.318 E0.02365
G1 X195.947 Y173.881 E0.14309
G1 X195.193 Y173.881 E0.02365
G1 X195.193 Y163.337 E0.33060
G1 X194.439 Y163.337 E0.02365
G1 X194.439 Y173.881 E0.33060
G1 X193.685 Y173.881 E0.02365
G1 X193.685 Y163.337 E0.33060
G1 X193.037 Y163.337 E0.02033
G1 X193.037 Y169.075 E0.17991
G1 X192.931 Y169.181 E0.00469
G1 X192.931 Y173.881 E0.14737
G1 X192.177 Y173.881 E0.02365
G1 X192.177 Y169.318 E0.14309
G1 X191.422 Y169.318 E0.02365
G1 X191.422 Y173.881 E0.14309
G1 X190.668 Y173.881 E0.02365
G1 X190.668 Y169.318 E0.14309
G1 X189.914 Y169.318 E0.02365
G1 X189.914 Y173.881 E0.14309
G1 X189.160 Y173.881 E0.02365
G1 X189.160 Y169.318 E0.14309
G1 X188.406 Y169.318 E0.02365
G1 X188.406 Y173.881 E0.14309
G1 X187.652 Y173.881 E0.02365
G1 X187.652 Y169.148 E0.14841
G1 F8640.000
G1 X187.652 Y172.439 E-0.76000
G1 E-0.04000 F2100.00000
G1 Z0.800 F10800.000
G1 X59.336 Y168.119
G1 Z0.200
G1 E0.80000 F2100.00000
G1 F1200.000
G1 X57.238 Y168.128 E0.06579
M73 Q1 S413
G1 X56.684 Y168.193 E0.01749
G1 X56.298 Y168.301 E0.01257
G1 X56.349 Y167.839 E0.01459
G1 X56.360 Y70.291 E3.05853
M73 P1 R410
G1 X58.360 Y70.291 E0.06271
G1 X58.360 Y67.717 E0.08071
G1 X56.360 Y67.717 E0.06271
G1 X56.360 Y48.291 E0.60908
G1 X62.536 Y48.291 E0.19364
G1 X62.536 Y48.717 E0.01335
G1 X59.336 Y48.717 E0.10033
G1 X59.336 Y168.059 E3.74190
G1 F8640.000
G1 X57.238 Y168.128 E-0.48477
G1 X56.684 Y168.193 E-0.12877
G1 X56.298 Y168.301 E-0.09257
G1 X56.324 Y168.069 E-0.05389
G1 E-0.04000 F2100.00000
G1 Z0.800 F10800.000
G1 X59.713 Y49.094
G1 Z0.200
G1 E0.80000 F2100.00000
G1 F1200.000
G1 X59.713 Y168.495 E3.74373
G1 X57.260 Y168.505 E0.07690
G1 X56.757 Y168.564 E0.01589
G1 X56.294 Y168.694 E0.01508
G1 X55.820 Y168.694 E0.01487
G1 X55.914 Y168.344 E0.01136
G1 X55.972 Y167.818 E0.01660
G1 X55.983 Y69.914 E3.06970
G1 X57.983 Y69.914 E0.06271
G1 X57.983 Y68.094 E0.05706
G1 X55.983 Y68.094 E0.06271
G1 X55.983 Y47.914 E0.63273
G1 X62.913 Y47.914 E0.21729
G1 X62.913 Y49.094 E0.03700
G1 X59.773 Y49.094 E0.09845
G1 X59.316 Y49.141 F10800.000
G1 X59.223 Y49.182
G1 F1200.000
G1 X58.615 Y48.574 E0.02708
G1 X58.079 Y48.574 E0.01685
G1 X59.053 Y49.548 E0.04336
G1 X59.053 Y50.083 E0.01685
G1 X57.544 Y48.574 E0.06720
G1 X57.008 Y48.574 E0.01685
G1 X59.053 Y50.619 E0.09104
G1 X59.053 Y51.154 E0.01685
G1 X56.643 Y48.744 E0.10730
G1 X56.643 Y49.279 E0.01685
G1 X59.053 Y51.690 E0.10730
G1 X59.053 Y52.225 E0.01685
G1 X56.643 Y49.815 E0.10730
G1 X56.643 Y50.350 E0.01685
G1 X59.053 Y52.760 E0.10730
G1 X59.053 Y53.296 E0.01685
G1 X56.643 Y50.886 E0.10730
G1 X56.643 Y51.421 E0.01685
G1 X59.053 Y53.831 E0.10730
G1 X59.053 Y54.367 E0.01685
G1 X56.643 Y51.956 E0.10730
G1 X56.643 Y52.492 E0.01685
G1 X59.053 Y54.902 E0.10730
G1 X59.053 Y55.437 E0.01685
G1 X56.643 Y53.027 E0.10730
G1 X56.643 Y53.563 E0.01685
G1 X59.053 Y55.973 E0.10730
G1 X59.053 Y56.508 E0.01685
G1 X56.643 Y54.098 E0.10730
G1 X56.643 Y54.633 E0.01685
G1 X59.053 Y57.044 E0.10730
G1 X59.053 Y57.579 E0.01685
G1 X56.643 Y55.169 E0.10730
G1 X56.643 Y55.704 E0.01685
G1 X59.053 Y58.114 E0.10730
G1 X59.053 Y58.650 E0.01685
G1 X56.643 Y56.240 E0.10730
G1 X56.643 Y56.775 E0.01685
G1 X59.053 Y59.185 E0.10730
G1 X59.053 Y59.721 E0.01685
G1 X56.643 Y57.310 E0.10730
G1 X56.643 Y57.846 E0.01685
G1 X59.053 Y60.256 E0.10730
G1 X59.053 Y60.792 E0.01685
G1 X56.643 Y58.381 E0.10730
G1 X56.643 Y58.917 E0.01685
G1 X59.053 Y61.327 E0.10730
G1 X59.053 Y61.862 E0.01685
G1 X56.643 Y59.452 E0.10730
G1 X56.643 Y59.988 E0.01685
G1 X59.053 Y62.398 E0.10730
G1 X59.053 Y62.933 E0.01685
G1 X56.643 Y60.523 E0.10730
G1 X56.643 Y61.058 E0.01685
G1 X59.053 Y63.469 E0.10730
G1 X59.053 Y64.004 E0.01685
G1 X56.643 Y61.594 E0.10730
G1 X56.643 Y62.129 E0.01685
G1 X59.053 Y64.539 E0.10730
G1 X59.053 Y65.075 E0.01685
G1 X56.643 Y62.665 E0.10730
G1 X56.643 Y63.200 E0.01685
G1 X59.053 Y65.610 E0.10730
G1 X59.053 Y66.146 E0.01685
G1 X56.643 Y63.735 E0.10730
G1 X56.643 Y64.271 E0.01685
G1 X59.053 Y66.681 E0.10730
