; generated by PrusaSlicer 2.2.0+win64 on 2020-07-24 at 07:23:26 UTC

; 

; external perimeters extrusion width = 0.45mm
; perimeters extrusion width = 0.45mm
; infill extrusion width = 0.45mm
; solid infill extrusion width = 0.45mm
; top infill extrusion width = 0.40mm
; support material extrusion width = 0.35mm
; first layer extrusion width = 0.42mm

M73 P0 R27
M73 Q0 S27
M201 X1000 Y1000 Z200 E5000 ; sets maximum accelerations, mm/sec^2
M203 X200 Y200 Z12 E120 ; sets maximum feedrates, mm/sec
M204 P1250 R1250 T1250 ; sets acceleration (P, T) and retract acceleration (R), mm/sec^2
M205 X8.00 Y8.00 Z0.40 E4.50 ; sets the jerk limits, mm/sec
M205 S0 T0 ; sets the minimum extruding and travel feed rate, mm/sec
M107
M862.3 P "MK3S" ; printer model check
M862.1 P0.4 ; nozzle diameter check
M115 U3.9.0 ; tell printer latest fw version
G90 ; use absolute coordinates
M83 ; extruder relative mode
M104 S215 ; set extruder temp
M140 S60 ; set bed temp
M190 S60 ; wait for bed temp
M109 S215 ; wait for extruder temp
G28 W ; home all without mesh bed level
G80 ; mesh bed leveling
G1 Y-3.0 F1000.0 ; go outside print area
G92 E0.0
G1 X60.0 E9.0 F1000.0 ; intro line
M73 Q0 S27
M73 P0 R27
G1 X100.0 E12.5 F1000.0 ; intro line
G92 E0.0
M221 S95
G21 ; set units to millimeters
G90 ; use absolute coordinates
M83 ; use relative distances for extrusion
M900 K0.06 ; Filament gcode LA 1.5
M900 K30 ; Filament gcode LA 1.0
;BEFORE_LAYER_CHANGE
G92 E0.0
;0.2


G1 E-0.80000 F2100.00000
G1 Z0.600 F10800.000
;AFTER_LAYER_CHANGE
;0.2
G1 X101.870 Y87.468
G1 Z0.200
G1 E0.80000 F2100.00000
M204 S1000
G1 F1200.000
G1 X102.519 Y86.785 E0.02954
G1 X103.155 Y86.469 E0.02225
G1 X103.859 Y86.355 E0.02237
G1 X146.422 Y86.355 E1.33452
G1 X147.217 Y86.492 E0.02532
G1 X147.921 Y86.888 E0.02532
G1 X148.452 Y87.496 E0.02532
G1 X148.749 Y88.247 E0.02532
G1 X150.755 Y107.117 E0.59498
G1 X150.756 Y117.914 E0.33854
G1 X150.701 Y118.413 E0.01574
G1 X150.494 Y118.988 E0.01917
G1 X150.144 Y119.494 E0.01929
G1 X147.480 Y121.987 E0.11437
G1 X146.985 Y122.253 E0.01763
G1 X146.441 Y122.395 E0.01763
G1 X143.123 Y122.586 E0.10420
G1 X109.151 Y122.586 E1.06516
G1 X103.434 Y122.413 E0.17933
G1 X102.673 Y122.238 E0.02449
G1 X102.007 Y121.823 E0.02461
G1 X99.673 Y119.096 E0.11254
G1 X99.366 Y118.485 E0.02142
G1 X99.245 Y117.813 E0.02142
G1 X99.253 Y106.810 E0.34499
G1 X101.537 Y88.350 E0.58322
G1 X101.849 Y87.524 E0.02766
G1 F8640.000
G1 X102.519 Y86.785 E-0.23038
G1 X103.155 Y86.469 E-0.16385
G1 X103.859 Y86.355 E-0.16472
G1 X104.730 Y86.355 E-0.20105
G1 E-0.04000 F2100.00000
G1 Z0.800 F10800.000
G1 X101.621 Y107.019
G1 Z0.200
G1 E0.80000 F2100.00000
G1 F1200.000
G1 X101.621 Y117.733 E0.33592
G1 X102.375 Y117.733 E0.02365
G1 X102.375 Y107.189 E0.33060
G1 X103.129 Y107.189 E0.02365
G1 X103.129 Y117.733 E0.33060
G1 X103.578 Y117.733 E0.01408
G1 X103.578 Y120.040 E0.07235
G1 X103.884 Y120.040 E0.00957
G1 X103.884 Y88.732 E0.98164
G1 X104.638 Y88.732 E0.02365
G1 X104.638 Y120.040 E0.98164
G1 X105.392 Y120.040 E0.02365
G1 X105.392 Y88.732 E0.98163
G1 X106.146 Y88.732 E0.02365
G1 X106.146 Y120.040 E0.98163
G1 X106.900 Y120.040 E0.02365
G1 X106.900 Y117.532 E0.07862
G1 X107.654 Y117.532 E0.02365
G1 X107.654 Y120.040 E0.07862
G1 X108.409 Y120.040 E0.02365
G1 X108.409 Y117.532 E0.07862
G1 X109.163 Y117.532 E0.02365
G1 X109.163 Y120.209 E0.08394
G1 F8640.000
G1 X109.163 Y117.532 E-0.61813
G1 X108.548 Y117.532 E-0.14187
G1 E-0.04000 F2100.00000
G1 Z0.800 F10800.000
G1 X109.917 Y117.362
G1 Z0.200
G1 E0.80000 F2100.00000
G1 F1200.000
G1 X109.917 Y120.040 E0.08395
G1 X110.671 Y120.040 E0.02365
G1 X110.671 Y117.532 E0.07863
G1 X111.425 Y117.532 E0.02365
G1 X111.425 Y120.040 E0.07863
G1 X112.179 Y120.040 E0.02365
G1 X112.179 Y117.532 E0.07863
G1 X112.471 Y117.532 E0.00916
G1 X112.586 Y117.417 E0.00511
G1 X112.933 Y117.417 E0.01088
G1 X112.933 Y120.209 E0.08756
G1 F8640.000
G1 X112.933 Y117.417 E-0.64480
G1 X112.586 Y117.417 E-0.08012
G1 X112.479 Y117.524 E-0.03508
G1 E-0.04000 F2100.00000
G1 Z0.800 F10800.000
G1 X118.213 Y117.902
G1 Z0.200
G1 E0.80000 F2100.00000
G1 F1200.000
G1 X118.213 Y107.189 E0.33592
G1 X117.458 Y107.189 E0.02365
G1 X117.458 Y117.733 E0.33060
G1 X116.704 Y117.733 E0.02365
G1 X116.704 Y107.019 E0.33592
G1 F8640.000
G1 X116.704 Y110.310 E-0.76000
G1 E-0.04000 F2100.00000
G1 Z0.800 F10800.000
G1 X106.900 Y116.168
G1 Z0.200
G1 E0.80000 F2100.00000
G1 F1200.000
G1 X106.900 Y113.636 E0.07938
G1 X107.654 Y113.636 E0.02365
G1 X107.654 Y115.998 E0.07406
G1 X108.409 Y115.998 E0.02365
G1 X108.409 Y113.636 E0.07406
G1 X109.163 Y113.636 E0.02365
G1 X109.163 Y116.168 E0.07938
G1 X109.917 Y116.168 F10800.000
G1 F1200.000
G1 X109.917 Y114.417 E0.05490
G1 X110.671 Y114.417 E0.02365
G1 X110.671 Y115.998 E0.04958
G1 X111.425 Y115.998 E0.02365
G1 X111.425 Y113.636 E0.07406
G1 X112.179 Y113.645 E0.02365
G1 X112.179 Y116.168 E0.07911
G1 F8640.000
G1 X112.179 Y113.645 E-0.58261
G1 X111.425 Y113.636 E-0.17415
G1 X111.425 Y113.650 E-0.00324
G1 E-0.04000 F2100.00000
G1 Z0.800 F10800.000
G1 X113.337 Y117.213
G1 Z0.200
G1 E0.80000 F2100.00000
G1 F1200.000
G1 X113.337 Y110.154 E0.18025
G1 X112.830 Y110.154 E0.01295
G1 X112.830 Y117.075 E0.17673
G1 X112.679 Y117.075 E0.00387
G1 X112.679 Y114.871 E0.05628
G1 X112.648 Y114.840 E0.00109
G1 X112.648 Y113.630 E0.03090
G1 X112.323 Y113.305 E0.01175
G1 X112.323 Y110.154 E0.08046
G1 X111.816 Y110.154 E0.01295
G1 X111.816 Y113.294 E0.08020
G1 X111.309 Y113.294 E0.01295
G1 X111.309 Y110.154 E0.08020
G1 X110.802 Y110.154 E0.01295
G1 X110.802 Y113.294 E0.08020
G1 X110.295 Y113.294 E0.01295
G1 X110.295 Y110.154 E0.08020
G1 X109.788 Y110.154 E0.01295
G1 X109.788 Y113.294 E0.08020
G1 X109.281 Y113.294 E0.01295
G1 X109.281 Y110.154 E0.08020
G1 X108.773 Y110.154 E0.01295
G1 X108.773 Y113.294 E0.08020
G1 X108.266 Y113.294 E0.01295
G1 X108.266 Y110.154 E0.08020
G1 X107.759 Y110.154 E0.01295
G1 X107.759 Y113.294 E0.08020
G1 X107.252 Y113.294 E0.01295
G1 X107.252 Y110.154 E0.08020
G1 X106.745 Y110.154 E0.01295
G1 X106.745 Y113.437 E0.08383
G1 X106.900 Y109.981 F10800.000
G1 F1200.000
G1 X106.900 Y88.732 E0.66625
G1 X107.654 Y88.732 E0.02365
G1 X107.654 Y109.811 E0.66093
G1 X108.409 Y109.811 E0.02365
G1 X108.409 Y88.732 E0.66093
G1 X109.163 Y88.732 E0.02365
G1 X109.163 Y109.811 E0.66093
G1 X109.917 Y109.811 E0.02365
G1 X109.917 Y88.732 E0.66093
G1 X110.671 Y88.732 E0.02365
G1 X110.671 Y109.811 E0.66093
G1 X111.425 Y109.811 E0.02365
G1 X111.425 Y88.732 E0.66093
G1 X112.179 Y88.732 E0.02365
G1 X112.179 Y109.811 E0.66093
G1 X112.933 Y109.811 E0.02365
G1 X112.933 Y88.732 E0.66093
G1 X113.688 Y88.732 E0.02365
G1 X113.688 Y120.040 E0.98163
G1 X114.442 Y120.040 E0.02365
G1 X114.442 Y88.732 E0.98163
G1 X115.196 Y88.732 E0.02365
G1 X115.196 Y120.040 E0.98163
G1 X115.950 Y120.040 E0.02365
G1 X115.950 Y88.732 E0.98163
G1 X116.704 Y88.732 E0.02365
G1 X116.704 Y101.583 E0.40294
G1 X117.458 Y101.583 E0.02365
G1 X117.458 Y88.732 E0.40294
G1 X118.213 Y88.732 E0.02365
G1 X118.213 Y101.583 E0.40294
G1 X118.967 Y101.583 E0.02365
G1 X118.967 Y88.732 E0.40294
G1 X119.721 Y88.732 E0.02365
G1 X119.721 Y95.015 E0.19699
G1 X120.475 Y95.015 E0.02365
G1 X120.475 Y88.732 E0.19699
G1 X121.229 Y88.732 E0.02365
G1 X121.229 Y95.015 E0.19699
G1 X121.983 Y95.015 E0.02365
G1 X121.983 Y88.732 E0.19699
G1 X122.738 Y88.732 E0.02365
G1 X122.738 Y95.015 E0.19699
G1 X123.492 Y95.015 E0.02365
G1 X123.492 Y88.732 E0.19699
G1 X124.246 Y88.732 E0.02365
G1 X124.246 Y95.015 E0.19699
G1 X125.000 Y95.015 E0.02365
G1 X125.000 Y88.732 E0.19699
G1 X125.754 Y88.732 E0.02365
G1 X125.754 Y95.015 E0.19699
G1 X126.508 Y95.015 E0.02365
G1 X126.508 Y88.732 E0.19699
G1 X127.262 Y88.732 E0.02365
G1 X127.262 Y95.015 E0.19699
G1 X128.017 Y95.015 E0.02365
G1 X128.017 Y88.732 E0.19699
G1 X128.771 Y88.732 E0.02365
G1 X128.771 Y95.015 E0.19699
G1 X129.525 Y95.015 E0.02365
G1 X129.525 Y88.732 E0.19699
G1 X130.279 Y88.732 E0.02365
G1 X130.279 Y95.184 E0.20231
G1 F8640.000
G1 X130.279 Y91.893 E-0.76000
G1 E-0.04000 F2100.00000
G1 Z0.800 F10800.000
G1 X119.721 Y96.360
G1 Z0.200
G1 E0.80000 F2100.00000
G1 F1200.000
G1 X119.721 Y101.583 E0.16376
G1 X120.475 Y101.583 E0.02365
G1 X120.475 Y96.531 E0.15840
G1 X121.229 Y96.533 E0.02365
G1 X121.229 Y101.583 E0.15836
G1 X121.983 Y101.583 E0.02365
G1 X121.983 Y96.534 E0.15831
G1 X122.738 Y96.535 E0.02365
G1 X122.738 Y101.583 E0.15827
G1 X123.492 Y101.583 E0.02365
G1 X123.492 Y96.537 E0.15823
G1 X124.246 Y96.538 E0.02365
G1 X124.246 Y101.583 E0.15819
G1 X125.000 Y101.583 E0.02365
G1 X125.000 Y96.539 E0.15815
G1 X125.754 Y96.541 E0.02365
G1 X125.754 Y101.583 E0.15810
G1 X126.508 Y101.583 E0.02365
G1 X126.508 Y96.542 E0.15806
G1 X127.262 Y96.543 E0.02365
G1 X127.262 Y101.583 E0.15802
G1 X128.017 Y101.583 E0.02365
G1 X128.017 Y96.545 E0.15798
G1 X128.771 Y96.546 E0.02365
G1 X128.771 Y101.583 E0.15794
G1 X129.525 Y101.583 E0.02365
M73 Q3 S26
G1 X129.525 Y96.547 E0.15790
G1 X130.279 Y96.546 E0.02365
G1 X130.279 Y101.583 E0.15794
M73 P3 R26
G1 X131.033 Y101.583 E0.02365
G1 X131.033 Y88.732 E0.40294
G1 X131.787 Y88.732 E0.02365
G1 X131.787 Y101.583 E0.40294
G1 X132.542 Y101.583 E0.02365
G1 X132.542 Y88.732 E0.40294
G1 X133.296 Y88.732 E0.02365
G1 X133.296 Y101.753 E0.40826
G1 F8640.000
G1 X133.296 Y98.461 E-0.76000
G1 E-0.04000 F2100.00000
G1 Z0.800 F10800.000
G1 X131.787 Y107.019
G1 Z0.200
G1 E0.80000 F2100.00000
G1 F1200.000
G1 X131.787 Y117.733 E0.33592
G1 X132.542 Y117.733 E0.02365
G1 X132.542 Y107.189 E0.33060
G1 X133.296 Y107.189 E0.02365
G1 X133.296 Y117.733 E0.33060
G1 X133.570 Y117.733 E0.00861
G1 X133.570 Y120.040 E0.07234
G1 X134.050 Y120.040 E0.01503
G1 X134.050 Y88.732 E0.98163
G1 X134.804 Y88.732 E0.02365
G1 X134.804 Y120.040 E0.98163
G1 X135.558 Y120.040 E0.02365
G1 X135.558 Y88.732 E0.98163
G1 X136.312 Y88.732 E0.02365
G1 X136.312 Y120.209 E0.98695
G1 F8640.000
G1 X136.312 Y116.918 E-0.76000
G1 E-0.04000 F2100.00000
G1 Z0.800 F10800.000
G1 X137.821 Y116.168
G1 Z0.200
G1 E0.80000 F2100.00000
G1 F1200.000
G1 X137.821 Y113.745 E0.07598
G1 X137.929 Y113.636 E0.00481
G1 X138.575 Y113.636 E0.02025
G1 X138.575 Y115.998 E0.07406
G1 X139.329 Y115.998 E0.02365
G1 X139.329 Y114.417 E0.04958
G1 X140.083 Y114.417 E0.02365
G1 X140.083 Y115.998 E0.04958
G1 X140.837 Y115.998 E0.02365
G1 X140.837 Y113.636 E0.07406
G1 X141.591 Y113.636 E0.02365
G1 X141.591 Y115.998 E0.07406
G1 X142.346 Y115.998 E0.02365
G1 X142.346 Y113.636 E0.07406
G1 X143.071 Y113.636 E0.02274
G1 X143.100 Y113.665 E0.00128
G1 X143.100 Y116.168 E0.07847
G1 F8640.000
G1 X143.100 Y113.665 E-0.57787
G1 X143.071 Y113.636 E-0.00946
G1 X142.346 Y113.636 E-0.16745
G1 X142.346 Y113.659 E-0.00522
G1 E-0.04000 F2100.00000
G1 Z0.800 F10800.000
G1 X143.255 Y113.532
G1 Z0.200
G1 E0.80000 F2100.00000
G1 F1200.000
G1 X143.255 Y110.154 E0.08627
G1 X142.748 Y110.154 E0.01295
G1 X142.748 Y113.294 E0.08020
G1 X142.241 Y113.294 E0.01295
G1 X142.241 Y110.154 E0.08020
G1 X141.734 Y110.154 E0.01295
G1 X141.734 Y113.294 E0.08020
G1 X141.227 Y113.294 E0.01295
G1 X141.227 Y110.154 E0.08020
G1 X140.719 Y110.154 E0.01295
G1 X140.719 Y113.294 E0.08020
G1 X140.212 Y113.294 E0.01295
G1 X140.212 Y110.154 E0.08020
G1 X139.705 Y110.154 E0.01295
G1 X139.705 Y113.294 E0.08020
G1 X139.382 Y113.294 E0.00826
G1 X139.198 Y113.294 E0.00469
G1 X139.198 Y110.154 E0.08020
G1 X138.691 Y110.154 E0.01295
G1 X138.691 Y113.294 E0.08020
G1 X138.184 Y113.294 E0.01295
G1 X138.184 Y110.154 E0.08020
G1 X137.677 Y110.154 E0.01295
G1 X137.677 Y113.405 E0.08302
G1 X137.452 Y113.630 E0.00814
G1 X137.452 Y114.840 E0.03090
G1 X137.421 Y114.871 E0.00109
G1 X137.421 Y117.075 E0.05628
G1 X137.170 Y117.075 E0.00642
G1 X137.170 Y110.154 E0.17673
G1 X136.663 Y110.154 E0.01295
G1 X136.663 Y117.213 E0.18025
G1 X137.067 Y117.247 F10800.000
G1 F1200.000
G1 X137.067 Y120.040 E0.08756
G1 X137.821 Y120.040 E0.02365
G1 X137.821 Y117.532 E0.07863
G1 X138.575 Y117.532 E0.02365
G1 X138.575 Y120.040 E0.07863
G1 X139.329 Y120.040 E0.02365
G1 X139.329 Y117.532 E0.07863
G1 X140.083 Y117.532 E0.02365
G1 X140.083 Y120.040 E0.07863
G1 X140.837 Y120.040 E0.02365
G1 X140.837 Y117.532 E0.07863
G1 X141.591 Y117.532 E0.02365
G1 X141.591 Y120.040 E0.07863
G1 X142.346 Y120.040 E0.02365
G1 X142.346 Y117.532 E0.07863
G1 X143.100 Y117.532 E0.02365
G1 X143.100 Y120.209 E0.08395
G1 F8640.000
G1 X143.100 Y117.532 E-0.61820
G1 X142.486 Y117.532 E-0.14180
G1 E-0.04000 F2100.00000
G1 Z0.800 F10800.000
G1 X148.379 Y117.902
G1 Z0.200
G1 E0.80000 F2100.00000
G1 F1200.000
G1 X148.379 Y107.189 E0.33592
G1 X147.625 Y107.189 E0.02365
G1 X147.625 Y117.733 E0.33060
G1 X146.871 Y117.733 E0.02365
G1 X146.871 Y107.189 E0.33060
G1 X146.422 Y107.189 E0.01408
G1 X146.422 Y88.732 E0.57869
G1 X146.116 Y88.732 E0.00957
G1 X146.116 Y120.040 E0.98163
G1 X145.362 Y120.040 E0.02365
G1 X145.362 Y88.732 E0.98163
G1 X144.608 Y88.732 E0.02365
G1 X144.608 Y120.040 E0.98163
G1 X143.854 Y120.040 E0.02365
G1 X143.854 Y88.732 E0.98163
G1 X143.100 Y88.732 E0.02365
G1 X143.100 Y109.811 E0.66093
G1 X142.346 Y109.811 E0.02365
G1 X142.346 Y88.732 E0.66093
G1 X141.591 Y88.732 E0.02365
G1 X141.591 Y109.811 E0.66093
G1 X140.837 Y109.811 E0.02365
G1 X140.837 Y88.732 E0.66093
G1 X140.083 Y88.732 E0.02365
G1 X140.083 Y109.811 E0.66093
G1 X139.329 Y109.811 E0.02365
G1 X139.329 Y88.732 E0.66093
G1 X138.575 Y88.732 E0.02365
G1 X138.575 Y109.811 E0.66093
G1 X137.821 Y109.811 E0.02365
G1 X137.821 Y88.732 E0.66093
G1 X137.067 Y88.732 E0.02365
G1 X137.067 Y109.981 E0.66625
G1 F8640.000
G1 X137.067 Y106.690 E-0.76000
G1 E-0.04000 F2100.00000
G1 Z0.800 F10800.000
G1 X112.090 Y116.622
G1 Z0.200
G1 E0.80000 F2100.00000
G1 F1200.000
G1 X112.090 Y116.909 E0.00899
G1 X106.916 Y116.909 E0.16222
G1 X106.916 Y116.622 E0.00899
G1 X112.030 Y116.622 E0.16035
G1 X111.951 Y116.873 F10800.000
G1 F8640.000
G1 X112.090 Y116.909 E-0.06764
G1 X109.091 Y116.909 E-0.69236
G1 E-0.04000 F2100.00000
G1 Z0.800 F10800.000
G1 X138.010 Y116.622
G1 Z0.200
G1 E0.80000 F2100.00000
G1 F1200.000
G1 X142.990 Y116.622 E0.15614
G1 X142.990 Y116.909 E0.00899
G1 X138.010 Y116.909 E0.15614
G1 X138.010 Y116.682 E0.00711
G1 X138.410 Y116.630 F10800.000
G1 F8640.000
G1 X141.301 Y116.642 E-0.76000
G1 E-0.04000 F2100.00000
G1 Z0.800 F10800.000
G1 X130.339 Y95.873
G1 Z0.200
G1 E0.80000 F2100.00000
G1 F1200.000
G1 X130.206 Y95.925 E0.00448
G1 X119.701 Y95.906 E0.32935
G1 X119.572 Y95.864 E0.00426
G1 X119.518 Y95.820 E0.00220
G1 X119.449 Y95.706 E0.00417
G1 X119.435 Y95.639 E0.00215
G1 X130.462 Y95.638 E0.34576
G1 X130.433 Y95.763 E0.00402
G1 X130.383 Y95.833 E0.00268
G1 X130.209 Y95.813 F10800.000
M106 S255
;BEFORE_LAYER_CHANGE
G92 E0.0
;0.3


G1 F8640.000
G1 X130.206 Y95.925 E-0.04616
G1 X127.114 Y95.919 E-0.71384
G1 E-0.04000 F2100.00000
G1 Z0.800 F10800.000
;AFTER_LAYER_CHANGE
;0.3
G1 X136.397 Y105.539
G1 Z0.300
G1 E0.80000 F2100.00000
G1 F1392
G1 X143.457 Y105.539 E0.09643
G1 X143.457 Y103.232 E0.03151
G1 X136.535 Y103.232 E0.09454
G1 X136.535 Y100.925 E0.03151
G1 X143.457 Y100.925 E0.09454
G1 X143.457 Y98.618 E0.03151
G1 X106.543 Y98.618 E0.50420
G1 X106.543 Y96.311 E0.03151
G1 X119.153 Y96.311 E0.17223
G1 X119.280 Y96.406 E0.00216
G1 X119.426 Y96.474 E0.00220
G1 X119.660 Y96.524 E0.00328
G1 X130.254 Y96.542 E0.14471
G1 X130.511 Y96.478 E0.00361
G1 X130.661 Y96.397 E0.00234
G1 X130.763 Y96.311 E0.00182
G1 X143.457 Y96.311 E0.17338
G1 X143.457 Y94.004 E0.03151
G1 X106.543 Y94.004 E0.50420
G1 X106.543 Y91.697 E0.03151
G1 X143.595 Y91.697 E0.50609
G1 F8640.000
G1 X140.303 Y91.697 E-0.76000
G1 E-0.04000 F2100.00000
G1 Z0.900 F10800.000
G1 X145.902 Y110.154
G1 Z0.300
G1 E0.80000 F2100.00000
G1 F1392
G1 X143.764 Y110.154 E0.02921
G1 X143.764 Y112.461 E0.03151
G1 X145.764 Y112.461 E0.02732
G1 X145.764 Y114.768 E0.03151
G1 X143.626 Y114.768 E0.02921
G1 F8640.000
G1 X145.764 Y114.768 E-0.49372
G1 X145.764 Y113.615 E-0.26628
G1 E-0.04000 F2100.00000
G1 Z0.900 F10800.000
G1 X143.255 Y113.532
G1 Z0.300
G1 E0.80000 F2100.00000
G1 F1392
G1 X143.255 Y107.846 E0.07766
G1 X142.748 Y107.846 E0.00693
G1 X142.748 Y113.294 E0.07441
G1 X142.241 Y113.294 E0.00693
G1 X142.241 Y107.846 E0.07441
G1 X141.734 Y107.846 E0.00693
