; generated by PrusaSlicer 2.2.0+win64 on 2020-07-25 at 21:15:13 UTC

; 

; external perimeters extrusion width = 0.45mm
; perimeters extrusion width = 0.45mm
; infill extrusion width = 0.45mm
; solid infill extrusion width = 0.45mm
; top infill extrusion width = 0.40mm
; support material extrusion width = 0.35mm
; first layer extrusion width = 0.42mm

M73 P0 R18
M73 Q0 S18
M201 X1000 Y1000 Z200 E5000 ; sets maximum accelerations, mm/sec^2
M203 X200 Y200 Z12 E120 ; sets maximum feedrates, mm/sec
M204 P1250 R1250 T1250 ; sets acceleration (P, T) and retract acceleration (R), mm/sec^2
M205 X8.00 Y8.00 Z0.40 E4.50 ; sets the jerk limits, mm/sec
M205 S0 T0 ; sets the minimum extruding and travel feed rate, mm/sec
M107
M862.3 P "MK3S" ; printer model check
M862.1 P0.4 ; nozzle diameter check
M115 U3.9.0 ; tell printer latest fw version
G90 ; use absolute coordinates
M83 ; extruder relative mode
M104 S215 ; set extruder temp
M140 S60 ; set bed temp
M190 S60 ; wait for bed temp
M109 S215 ; wait for extruder temp
G28 W ; home all without mesh bed level
G80 ; mesh bed leveling
G1 Y-3.0 F1000.0 ; go outside print area
G92 E0.0
G1 X60.0 E9.0 F1000.0 ; intro line
M73 Q0 S18
M73 P0 R18
G1 X100.0 E12.5 F1000.0 ; intro line
G92 E0.0
M221 S95
G21 ; set units to millimeters
G90 ; use absolute coordinates
M83 ; use relative distances for extrusion
M900 K0.06 ; Filament gcode LA 1.5
M900 K30 ; Filament gcode LA 1.0
;BEFORE_LAYER_CHANGE
G92 E0.0
;0.2


G1 E-0.80000 F2100.00000
G1 Z0.600 F10800.000
;AFTER_LAYER_CHANGE
;0.2
G1 X105.876 Y92.322
G1 Z0.200
G1 E0.80000 F2100.00000
M204 S1000
G1 F1200.000
G1 X106.449 Y91.796 E0.02437
G1 X107.057 Y91.512 E0.02107
G1 X107.725 Y91.410 E0.02119
G1 X143.691 Y91.418 E1.12769
G1 X144.628 Y91.448 E0.02940
G1 X145.339 Y91.680 E0.02343
G1 X145.976 Y92.158 E0.02496
G1 X146.421 Y92.822 E0.02508
G1 X151.780 Y109.458 E0.54802
G1 X151.808 Y118.241 E0.27537
G1 X151.734 Y118.821 E0.01835
G1 X151.519 Y119.365 E0.01835
G1 X151.179 Y119.841 E0.01835
G1 X148.470 Y122.356 E0.11590
G1 X147.901 Y122.628 E0.01977
G1 X147.281 Y122.741 E0.01977
G1 X136.630 Y122.913 E0.33400
G1 X116.991 Y122.913 E0.61576
G1 X104.796 Y122.740 E0.38241
G1 X104.095 Y122.590 E0.02249
G1 X103.473 Y122.240 E0.02237
G1 X101.016 Y119.934 E0.10566
G1 X100.683 Y119.529 E0.01645
G1 X100.407 Y118.945 E0.02024
G1 X100.298 Y118.309 E0.02024
G1 X100.346 Y109.339 E0.28126
G1 X105.504 Y93.004 E0.53707
G1 X105.847 Y92.375 E0.02249
G1 F8640.000
G1 X106.449 Y91.796 E-0.19266
G1 X107.057 Y91.512 E-0.15515
G1 X107.725 Y91.410 E-0.15602
G1 X108.835 Y91.410 E-0.25617
G1 E-0.04000 F2100.00000
G1 Z0.800 F10800.000
G1 X113.986 Y111.960
G1 Z0.200
G1 E0.80000 F2100.00000
G1 F1200.000
G1 X113.986 Y114.922 E0.09288
G1 F8640.000
G1 X113.986 Y111.960 E-0.68398
G1 E-0.11602 F2100.00000
G1 Z0.800 F10800.000
G1 X113.232 Y116.380
G1 Z0.200
G1 E0.80000 F2100.00000
G1 F1200.000
G1 X113.232 Y116.159 E0.00692
G1 X112.478 Y116.163 E0.02365
G1 X112.478 Y116.214 E0.00160
G1 X111.723 Y116.218 E0.02365
G1 X111.723 Y116.167 E0.00160
G1 X110.969 Y116.169 E0.02365
G1 X110.969 Y116.222 E0.00167
G1 X110.215 Y116.226 E0.02365
G1 X110.215 Y116.169 E0.00179
G1 X109.461 Y116.169 E0.02365
G1 X109.461 Y116.230 E0.00192
G1 X108.945 Y116.233 E0.01617
G1 X108.707 Y116.232 E0.00748
G1 X108.707 Y116.169 E0.00198
G1 X107.953 Y116.169 E0.02365
G1 X107.953 Y116.399 E0.00722
G1 F8640.000
G1 X107.953 Y116.169 E-0.05319
G1 X108.707 Y116.169 E-0.17414
G1 X108.707 Y116.232 E-0.01455
G1 X108.945 Y116.233 E-0.05508
G1 X109.461 Y116.230 E-0.11906
G1 X109.461 Y116.169 E-0.01410
G1 X110.215 Y116.169 E-0.17414
G1 X110.215 Y116.226 E-0.01320
G1 X110.832 Y116.223 E-0.14255
G1 E-0.04000 F2100.00000
G1 Z0.800 F10800.000
G1 X107.798 Y117.540
G1 Z0.200
G1 E0.80000 F2100.00000
G1 F1200.000
G1 X107.798 Y116.571 E0.02474
G1 X108.305 Y116.573 E0.01295
G1 X108.305 Y117.402 E0.02117
G1 X108.812 Y117.402 E0.01295
G1 X108.812 Y116.574 E0.02113
G1 X109.319 Y116.573 E0.01295
G1 X109.319 Y117.402 E0.02117
G1 X109.826 Y117.402 E0.01295
G1 X109.826 Y116.570 E0.02124
G1 X110.333 Y116.567 E0.01295
G1 X110.333 Y117.402 E0.02130
G1 X110.840 Y117.402 E0.01295
G1 X110.840 Y116.565 E0.02137
G1 X111.347 Y116.562 E0.01295
G1 X111.347 Y117.402 E0.02144
G1 X111.854 Y117.402 E0.01295
G1 X111.854 Y116.560 E0.02151
G1 X112.361 Y116.557 E0.01295
G1 X112.361 Y117.402 E0.02157
G1 X112.868 Y117.402 E0.01295
G1 X112.868 Y116.554 E0.02164
G1 X113.375 Y116.552 E0.01295
G1 X113.375 Y117.402 E0.02171
G1 X113.882 Y117.402 E0.01295
G1 X113.882 Y115.095 E0.05891
G1 X114.390 Y115.095 E0.01295
G1 X114.390 Y117.540 E0.06244
G1 X117.002 Y120.536 F10800.000
G1 F1200.000
G1 X117.002 Y112.130 E0.26358
G1 X116.248 Y112.130 E0.02365
G1 X116.248 Y120.367 E0.25826
G1 X115.494 Y120.367 E0.02365
G1 X115.494 Y112.130 E0.25826
G1 X114.740 Y112.130 E0.02365
G1 X114.740 Y120.367 E0.25826
G1 X113.986 Y120.367 E0.02365
G1 X113.986 Y117.744 E0.08224
G1 X113.232 Y117.744 E0.02365
G1 X113.232 Y120.367 E0.08224
G1 X112.478 Y120.367 E0.02365
G1 X112.478 Y117.744 E0.08224
G1 X111.723 Y117.744 E0.02365
G1 X111.723 Y120.367 E0.08224
G1 X110.969 Y120.367 E0.02365
G1 X110.969 Y117.744 E0.08224
G1 X110.215 Y117.744 E0.02365
G1 X110.215 Y120.367 E0.08224
G1 X109.461 Y120.367 E0.02365
G1 X109.461 Y117.744 E0.08224
G1 X108.707 Y117.744 E0.02365
G1 X108.707 Y120.367 E0.08224
G1 X107.953 Y120.367 E0.02365
G1 X107.953 Y117.744 E0.08224
G1 X107.254 Y117.744 E0.02191
G1 X107.254 Y114.753 E0.09379
G1 X107.344 Y114.753 E0.00282
G1 X107.342 Y109.823 E0.15457
G1 X107.198 Y109.823 E0.00449
G1 X107.198 Y120.367 E0.33060
G1 X106.444 Y120.367 E0.02365
G1 X106.444 Y109.823 E0.33060
G1 X105.690 Y109.823 E0.02365
G1 X105.690 Y120.367 E0.33060
G1 X104.936 Y120.367 E0.02365
G1 X104.936 Y109.823 E0.33060
G1 X104.182 Y109.823 E0.02365
G1 X104.182 Y118.060 E0.25826
G1 X103.428 Y118.060 E0.02365
G1 X103.428 Y109.823 E0.25826
G1 X102.673 Y109.823 E0.02365
G1 X102.673 Y118.229 E0.26358
G1 F8640.000
G1 X102.673 Y114.938 E-0.76000
G1 E-0.04000 F2100.00000
G1 Z0.800 F10800.000
G1 X132.840 Y118.229
G1 Z0.200
G1 E0.80000 F2100.00000
G1 F1200.000
G1 X132.840 Y109.823 E0.26358
G1 X133.594 Y109.823 E0.02365
G1 X133.594 Y118.060 E0.25826
G1 X134.348 Y118.060 E0.02365
G1 X134.348 Y109.823 E0.25826
G1 X135.102 Y109.823 E0.02365
G1 X135.102 Y120.367 E0.33060
G1 X135.856 Y120.367 E0.02365
G1 X135.856 Y109.823 E0.33060
G1 X136.611 Y109.823 E0.02365
G1 X136.611 Y120.536 E0.33592
G1 F8640.000
G1 X136.611 Y117.245 E-0.76000
G1 E-0.04000 F2100.00000
G1 Z0.800 F10800.000
G1 X137.715 Y117.540
G1 Z0.200
G1 E0.80000 F2100.00000
G1 F1200.000
G1 X137.715 Y115.095 E0.06244
G1 X138.222 Y115.095 E0.01295
G1 X138.222 Y117.402 E0.05891
G1 X138.729 Y117.402 E0.01295
G1 X138.729 Y116.571 E0.02122
G1 X139.236 Y116.572 E0.01295
G1 X139.236 Y117.402 E0.02118
G1 X139.744 Y117.402 E0.01295
G1 X139.744 Y116.574 E0.02114
G1 X140.251 Y116.573 E0.01295
G1 X140.251 Y117.402 E0.02115
G1 X140.758 Y117.402 E0.01295
G1 X140.758 Y116.571 E0.02122
G1 X141.265 Y116.568 E0.01295
G1 X141.265 Y117.402 E0.02129
G1 X141.772 Y117.402 E0.01295
G1 X141.772 Y116.565 E0.02136
G1 X142.279 Y116.562 E0.01295
G1 X142.279 Y117.402 E0.02143
G1 X142.786 Y117.402 E0.01295
G1 X142.786 Y116.560 E0.02150
G1 X143.293 Y116.557 E0.01295
G1 X143.293 Y117.402 E0.02157
G1 X143.800 Y117.402 E0.01295
G1 X143.800 Y116.554 E0.02164
G1 X144.307 Y116.551 E0.01295
G1 X144.307 Y117.540 E0.02524
G1 X144.152 Y116.380 F10800.000
G1 F1200.000
G1 X144.152 Y116.159 E0.00692
G1 X143.398 Y116.163 E0.02365
G1 X143.398 Y116.214 E0.00160
G1 X142.644 Y116.218 E0.02365
G1 X142.644 Y116.167 E0.00160
G1 X141.890 Y116.169 E0.02365
G1 X141.890 Y116.222 E0.00168
G1 X141.136 Y116.226 E0.02365
G1 X141.136 Y116.169 E0.00181
G1 X140.381 Y116.169 E0.02365
G1 X140.381 Y116.231 E0.00193
G1 X139.999 Y116.233 E0.01200
G1 X139.627 Y116.231 E0.01165
G1 X139.627 Y116.169 E0.00196
G1 X138.873 Y116.169 E0.02365
G1 X138.873 Y116.399 E0.00721
G1 X138.119 Y114.922 F10800.000
G1 F1200.000
G1 X138.119 Y109.823 E0.15989
G1 X137.365 Y109.823 E0.02365
G1 X137.365 Y120.367 E0.33060
G1 X138.119 Y120.367 E0.02365
G1 X138.119 Y117.744 E0.08224
G1 X138.873 Y117.744 E0.02365
G1 X138.873 Y120.367 E0.08224
G1 X139.627 Y120.367 E0.02365
G1 X139.627 Y117.744 E0.08224
G1 X140.381 Y117.744 E0.02365
G1 X140.381 Y120.367 E0.08224
G1 X141.136 Y120.367 E0.02365
G1 X141.136 Y117.744 E0.08224
G1 X141.890 Y117.744 E0.02365
G1 X141.890 Y120.367 E0.08224
G1 X142.644 Y120.367 E0.02365
G1 X142.644 Y117.744 E0.08224
G1 X143.398 Y117.744 E0.02365
G1 X143.398 Y120.367 E0.08224
G1 X144.152 Y120.367 E0.02365
G1 X144.152 Y117.744 E0.08224
G1 X144.851 Y117.744 E0.02191
G1 X144.851 Y114.753 E0.09379
G1 X144.666 Y114.753 E0.00581
G1 X144.666 Y109.823 E0.15457
G1 X144.906 Y109.823 E0.00754
G1 X144.906 Y120.367 E0.33060
G1 X145.661 Y120.367 E0.02365
G1 X145.661 Y109.823 E0.33060
G1 X146.415 Y109.823 E0.02365
G1 X146.415 Y120.367 E0.33060
G1 X147.169 Y120.367 E0.02365
G1 X147.169 Y109.823 E0.33060
G1 X147.923 Y109.823 E0.02365
G1 X147.923 Y118.060 E0.25826
G1 X148.677 Y118.060 E0.02365
G1 X148.677 Y109.823 E0.25826
G1 X149.431 Y109.823 E0.02365
G1 X149.431 Y118.229 E0.26358
G1 F8640.000
G1 X149.431 Y114.938 E-0.76000
G1 E-0.04000 F2100.00000
G1 Z0.800 F10800.000
G1 X112.401 Y96.273
G1 Z0.200
G1 E0.80000 F2100.00000
G1 F1200.000
G1 X112.323 Y96.319 E0.00283
G1 X111.934 Y96.072 E0.01444
G1 X112.023 Y95.611 E0.01474
G1 X112.049 Y95.609 E0.00082
G1 X111.812 Y94.856 E0.02475
G1 X111.650 Y94.520 E0.01168
G1 X111.373 Y94.204 E0.01319
G1 X111.123 Y93.997 E0.01016
G1 X112.561 Y93.998 E0.04509
G1 X112.463 Y94.085 E0.00414
G1 X112.260 Y94.353 E0.01055
G1 X112.113 Y94.693 E0.01161
G1 X112.062 Y95.087 E0.01245
G1 X112.092 Y95.410 E0.01018
G1 X112.179 Y95.723 E0.01018
G1 X112.325 Y96.035 E0.01077
G1 X112.384 Y96.216 E0.00600
G1 X112.310 Y96.270 F10800.000
G1 F8640.000
G1 X112.323 Y96.319 E-0.02758
G1 X111.934 Y96.072 E-0.10632
G1 X112.023 Y95.611 E-0.10852
G1 X112.049 Y95.609 E-0.00603
G1 X111.812 Y94.856 E-0.18228
G1 X111.650 Y94.520 E-0.08603
G1 X111.373 Y94.204 E-0.09716
G1 X111.123 Y93.997 E-0.07481
G1 X111.432 Y93.997 E-0.07128
G1 E-0.04000 F2100.00000
G1 Z0.800 F10800.000
G1 X110.107 Y95.793
G1 Z0.200
G1 E0.80000 F2100.00000
G1 F1200.000
G1 X110.041 Y95.787 E0.00208
G1 X110.034 Y95.770 E0.00058
G1 X110.031 Y95.629 E0.00442
G1 X110.074 Y95.562 E0.00251
G1 X110.126 Y95.688 E0.00429
G1 X110.118 Y95.734 E0.00147
G1 X110.489 Y95.801 F10800.000
G1 F1200.000
G1 X110.466 Y95.925 E0.00397
G1 X110.368 Y96.119 E0.00682
G1 X110.186 Y96.175 E0.00597
G1 X109.915 Y96.146 E0.00854
G1 X109.826 Y96.101 E0.00314
G1 X109.702 Y95.960 E0.00588
G1 X109.664 Y95.859 E0.00340
G1 X109.646 Y95.696 E0.00513
G1 X109.660 Y95.550 E0.00461
G1 X109.702 Y95.426 E0.00409
G1 X109.757 Y95.339 E0.00324
G1 X109.873 Y95.236 E0.00484
G1 X110.039 Y95.172 E0.00559
G1 X110.130 Y95.164 E0.00286
G1 X110.300 Y95.190 E0.00541
G1 X110.360 Y95.263 E0.00295
G1 X110.516 Y95.647 E0.01301
G1 X110.499 Y95.742 E0.00302
G1 X110.377 Y95.860 F10800.000
G1 F8640.000
G1 X110.466 Y95.925 E-0.04307
G1 X110.368 Y96.119 E-0.05019
G1 X110.186 Y96.175 E-0.04398
G1 X109.915 Y96.146 E-0.06289
G1 X109.826 Y96.101 E-0.02310
G1 X109.702 Y95.960 E-0.04331
G1 X109.664 Y95.859 E-0.02502
G1 X109.646 Y95.696 E-0.03777
G1 X109.660 Y95.550 E-0.03394
G1 X109.702 Y95.426 E-0.03015
G1 X109.757 Y95.339 E-0.02389
G1 X109.873 Y95.236 E-0.03567
G1 X110.039 Y95.172 E-0.04117
G1 X110.130 Y95.164 E-0.02104
G1 X110.300 Y95.190 E-0.03982
G1 X110.360 Y95.263 E-0.02169
G1 X110.516 Y95.647 E-0.09583
G1 X110.499 Y95.742 E-0.02221
G1 E-0.10525 F2100.00000
G1 Z0.800 F10800.000
G1 X116.659 Y95.790
G1 Z0.200
G1 E0.80000 F2100.00000
G1 F1200.000
G1 X116.660 Y95.669 E0.00380
G1 X117.504 Y95.598 E0.02656
G1 X117.242 Y94.393 E0.03867
G1 X117.630 Y94.481 E0.01245
G1 X118.187 Y94.552 E0.01763
G1 X119.223 Y94.576 E0.03249
G1 X143.465 Y94.582 E0.76010
G1 X143.465 Y114.960 E0.63895
G1 X139.639 Y114.967 E0.11996
G1 X139.639 Y97.208 E0.55683
G1 X118.742 Y97.208 E0.65523
G1 X117.232 Y97.232 E0.04734
G1 X116.681 Y97.304 E0.01743
G1 X116.500 Y97.346 E0.00584
G1 X116.589 Y97.015 E0.01075
G1 X116.654 Y96.447 E0.01790
G1 X116.658 Y95.850 E0.01873
G1 F8640.000
G1 X116.660 Y95.669 E-0.04181
G1 X117.504 Y95.598 E-0.19561
G1 X117.242 Y94.393 E-0.28478
G1 X117.630 Y94.481 E-0.09170
G1 X118.187 Y94.552 E-0.12983
G1 X118.258 Y94.554 E-0.01627
G1 E-0.04000 F2100.00000
G1 Z0.800 F10800.000
G1 X114.224 Y97.211
G1 Z0.200
G1 E0.80000 F2100.00000
G1 F1200.000
G1 X114.263 Y97.404 E0.00617
G1 X114.102 Y97.398 E0.00505
G1 X114.194 Y97.263 E0.00512
G1 F8640.000
G1 X114.263 Y97.404 E-0.03628
G1 X114.102 Y97.398 E-0.03720
G1 X114.194 Y97.263 E-0.03773
G1 E-0.68879 F2100.00000
G1 Z0.800 F10800.000
G1 X112.717 Y98.126
G1 Z0.200
G1 E0.80000 F2100.00000
G1 F1200.000
G1 X112.656 Y98.383 E0.00826
G1 X112.586 Y98.934 E0.01743
G1 X112.568 Y99.464 E0.01662
G1 X112.565 Y114.960 E0.48588
G1 X108.544 Y114.967 E0.12608
G1 X108.537 Y98.775 E0.50769
G1 X108.530 Y98.254 E0.01635
G1 X108.493 Y97.769 E0.01523
G1 X108.535 Y97.819 E0.00204
G1 X109.125 Y98.152 E0.02125
G1 X109.505 Y98.249 E0.01231
G1 X109.992 Y98.294 E0.01531
G1 X110.670 Y98.209 E0.02143
G1 X111.224 Y97.952 E0.01916
G1 X111.497 Y97.705 E0.01154
G1 X111.968 Y98.095 E0.01917
G1 X112.621 Y98.156 E0.02055
G1 X112.660 Y98.144 E0.00128
G1 F8640.000
G1 X112.656 Y98.383 E-0.05510
G1 X112.586 Y98.934 E-0.12834
G1 X112.568 Y99.464 E-0.12239
G1 X112.568 Y101.431 E-0.45416
G1 E-0.04000 F2100.00000
G1 Z0.800 F10800.000
G1 X111.821 Y97.484
G1 Z0.200
G1 E0.80000 F2100.00000
G1 F1200.000
G1 X112.119 Y97.730 E0.01213
G1 X112.582 Y97.773 E0.01458
G1 X113.073 Y97.624 E0.01610
G1 X113.271 Y97.530 E0.00687
G1 X113.608 Y97.312 E0.01257
G1 X113.837 Y97.127 E0.00923
G1 X114.054 Y96.757 E0.01346
G1 X114.110 Y96.543 E0.00694
G1 X114.124 Y96.256 E0.00899
G1 X114.069 Y95.944 E0.00996
G1 X113.930 Y95.647 E0.01026
G1 X113.747 Y95.421 E0.00912
G1 X113.681 Y95.304 E0.00422
G1 X113.629 Y95.190 E0.00391
G1 X113.628 Y95.100 E0.00282
G1 X114.065 Y95.244 E0.01443
G1 X114.065 Y95.146 E0.00307
G1 X114.447 Y95.146 E0.01198
G1 X114.540 Y95.166 E0.00300
G1 X114.514 Y95.417 E0.00791
G1 X114.511 Y96.420 E0.03148
G1 X114.554 Y96.933 E0.01614
G1 X114.687 Y97.606 E0.02151
G1 X116.038 Y97.606 E0.04237
G1 X116.218 Y96.944 E0.02153
G1 X116.277 Y96.425 E0.01638
G1 X116.285 Y95.322 E0.03457
G1 X117.044 Y95.258 E0.02388
G1 X116.865 Y94.432 E0.02652
G1 X116.865 Y93.999 E0.01358
G1 X117.210 Y93.999 E0.01081
G1 X117.696 Y94.109 E0.01563
G1 X118.216 Y94.176 E0.01644
G1 X119.227 Y94.199 E0.03173
G1 X143.842 Y94.205 E0.77178
G1 X143.842 Y115.337 E0.66257
G1 X139.262 Y115.345 E0.14360
G1 X139.262 Y97.585 E0.55685
G1 X118.745 Y97.585 E0.64331
G1 X117.260 Y97.608 E0.04656
G1 X116.748 Y97.676 E0.01620
G1 X116.271 Y97.785 E0.01534
G1 X114.338 Y97.785 E0.06062
G1 X113.843 Y97.764 E0.01553
G1 X113.185 Y97.792 E0.02064
G1 X113.027 Y98.450 E0.02124
G1 X112.963 Y98.964 E0.01624
G1 X112.945 Y99.470 E0.01588
G1 X112.942 Y115.337 E0.49747
G1 X108.167 Y115.345 E0.14972
G1 X108.160 Y98.778 E0.51945
G1 X108.153 Y98.271 E0.01591
G1 X108.113 Y97.754 E0.01625
G1 X108.021 Y97.249 E0.01608
G1 X107.960 Y96.769 E0.01519
G1 X107.959 Y94.788 E0.06210
G1 X107.999 Y94.029 E0.02383
G1 X108.260 Y93.997 E0.00826
G1 X108.869 Y93.997 E0.01907
G1 X108.561 Y94.247 E0.01243
G1 X108.285 Y94.593 E0.01387
G1 X108.109 Y94.954 E0.01262
G1 X108.010 Y95.311 E0.01160
G1 X107.977 Y95.699 E0.01221
G1 X108.030 Y96.184 E0.01529
G1 X108.177 Y96.598 E0.01378
G1 X108.371 Y96.928 E0.01199
G1 X108.466 Y97.151 E0.00763
G1 X108.779 Y97.524 E0.01527
G1 X109.266 Y97.799 E0.01754
G1 X109.569 Y97.876 E0.00980
G1 X109.986 Y97.914 E0.01310
G1 X110.565 Y97.842 E0.01830
G1 X111.014 Y97.634 E0.01551
G1 X111.279 Y97.394 E0.01121
G1 X111.630 Y96.860 E0.02005
G1 X111.821 Y96.479 E0.01336
G1 X111.864 Y96.342 E0.00452
G1 X111.864 Y96.882 E0.01692
G1 X111.825 Y97.424 E0.01705
G1 X111.645 Y97.828 F10800.000
G1 F8640.000
G1 X112.119 Y97.730 E-0.09799
G1 X112.582 Y97.773 E-0.10738
G1 X113.073 Y97.624 E-0.11858
G1 X113.271 Y97.530 E-0.05060
