; generated by PrusaSlicer 2.2.0+win64 on 2020-07-22 at 16:52:30 UTC

; 

; external perimeters extrusion width = 0.60mm
; perimeters extrusion width = 0.50mm
; infill extrusion width = 0.50mm
; solid infill extrusion width = 0.50mm
; top infill extrusion width = 0.45mm
; first layer extrusion width = 0.42mm

M73 P0 R270
M73 Q0 S271
M201 X1000 Y1000 Z200 E5000 ; sets maximum accelerations, mm/sec^2
M203 X200 Y200 Z12 E120 ; sets maximum feedrates, mm/sec
M204 P1250 R1250 T1250 ; sets acceleration (P, T) and retract acceleration (R), mm/sec^2
M205 X8.00 Y8.00 Z0.40 E4.50 ; sets the jerk limits, mm/sec
M205 S0 T0 ; sets the minimum extruding and travel feed rate, mm/sec
M107
M862.3 P "MK3S" ; printer model check
M862.1 P0.4 ; nozzle diameter check
M115 U3.9.0 ; tell printer latest fw version
G90 ; use absolute coordinates
M83 ; extruder relative mode
M104 S215 ; set extruder temp
M140 S60 ; set bed temp
M190 S60 ; wait for bed temp
M109 S215 ; wait for extruder temp
G28 W ; home all without mesh bed level
G80 ; mesh bed leveling
G1 Y-3.0 F1000.0 ; go outside print area
G92 E0.0
G1 X60.0 E9.0 F1000.0 ; intro line
M73 Q0 S271
M73 P0 R270
G1 X100.0 E12.5 F1000.0 ; intro line
G92 E0.0
M221 S95
G21 ; set units to millimeters
G90 ; use absolute coordinates
M83 ; use relative distances for extrusion
M900 K0.06 ; Filament gcode LA 1.5
M900 K30 ; Filament gcode LA 1.0
;BEFORE_LAYER_CHANGE
G92 E0.0
;0.2


G1 E-0.80000 F2100.00000
G1 Z0.600 F10800.000
;AFTER_LAYER_CHANGE
;0.2
G1 X46.051 Y22.171
G1 Z0.200
G1 E0.80000 F2100.00000
M204 S1000
G1 F1200.000
G1 X46.987 Y21.973 E0.03001
G1 X203.004 Y21.973 E4.89178
G1 X203.906 Y22.152 E0.02884
G1 X204.670 Y22.658 E0.02872
G1 X205.185 Y23.415 E0.02872
G1 X205.377 Y24.315 E0.02884
G1 X205.377 Y175.665 E4.74549
G1 X205.309 Y176.216 E0.01740
G1 X204.630 Y178.704 E0.08088
G1 X203.611 Y180.893 E0.07569
G1 X202.060 Y183.087 E0.08426
G1 X200.322 Y184.812 E0.07676
G1 X198.182 Y186.295 E0.08165
G1 X195.840 Y187.363 E0.08070
G1 X193.545 Y187.964 E0.07438
G1 X193.024 Y188.027 E0.01645
G1 X56.943 Y188.026 E4.26674
G1 X56.423 Y187.956 E0.01645
G1 X53.942 Y187.278 E0.08064
G1 X51.757 Y186.261 E0.07557
G1 X49.563 Y184.710 E0.08426
G1 X47.838 Y182.972 E0.07677
G1 X46.357 Y180.835 E0.08153
G1 X45.289 Y178.497 E0.08058
G1 X44.688 Y176.202 E0.07438
G1 X44.624 Y175.712 E0.01550
G1 X44.623 Y24.339 E4.74622
G1 X44.792 Y23.469 E0.02778
G1 X45.271 Y22.719 E0.02790
G1 X46.002 Y22.205 E0.02801
G1 F8640.000
G1 X46.987 Y21.973 E-0.23379
G1 X49.266 Y21.973 E-0.52621
G1 E-0.04000 F2100.00000
G1 Z0.800 F10800.000
G1 X143.163 Y103.748
G1 Z0.200
G1 E0.80000 F2100.00000
G1 F1200.000
G1 X143.530 Y103.334 E0.01733
G1 X143.990 Y103.016 E0.01752
G1 X144.546 Y102.818 E0.01851
G1 X145.050 Y102.757 E0.01592
G1 X145.599 Y102.824 E0.01733
G1 X146.116 Y103.020 E0.01733
G1 X146.576 Y103.337 E0.01752
G1 X146.958 Y103.787 E0.01851
G1 X147.194 Y104.237 E0.01592
G1 X147.326 Y104.774 E0.01733
G1 X147.326 Y105.326 E0.01733
G1 X147.194 Y105.863 E0.01733
G1 X146.937 Y106.352 E0.01733
G1 X146.570 Y106.766 E0.01733
G1 X146.116 Y107.080 E0.01733
G1 X145.599 Y107.276 E0.01733
G1 X145.050 Y107.343 E0.01733
G1 X144.501 Y107.276 E0.01733
G1 X143.984 Y107.080 E0.01733
G1 X143.530 Y106.766 E0.01733
G1 X143.163 Y106.352 E0.01733
G1 X142.906 Y105.863 E0.01733
G1 X142.774 Y105.326 E0.01733
G1 X142.774 Y104.774 E0.01733
G1 X142.906 Y104.237 E0.01733
G1 X143.135 Y103.801 E0.01545
G1 X143.469 Y103.976 F10800.000
G1 F1200.000
G1 X143.781 Y103.618 E0.01489
G1 X144.163 Y103.355 E0.01453
G1 X144.633 Y103.188 E0.01564
G1 X145.050 Y103.137 E0.01318
G1 X145.508 Y103.193 E0.01446
G1 X145.939 Y103.356 E0.01446
G1 X146.320 Y103.619 E0.01453
G1 X146.643 Y104.000 E0.01564
G1 X146.839 Y104.372 E0.01318
G1 X146.949 Y104.819 E0.01446
G1 X146.949 Y105.281 E0.01446
G1 X146.839 Y105.728 E0.01446
G1 X146.624 Y106.137 E0.01446
G1 X146.319 Y106.482 E0.01446
G1 X145.939 Y106.744 E0.01446
G1 X145.508 Y106.907 E0.01446
G1 X145.050 Y106.963 E0.01446
G1 X144.592 Y106.907 E0.01446
G1 X144.161 Y106.744 E0.01446
G1 X143.781 Y106.482 E0.01446
G1 X143.476 Y106.137 E0.01446
G1 X143.261 Y105.728 E0.01446
G1 X143.151 Y105.281 E0.01446
G1 X143.151 Y104.819 E0.01446
G1 X143.261 Y104.372 E0.01446
G1 X143.441 Y104.029 E0.01213
G1 X143.296 Y103.615 F10800.000
G1 F8640.000
G1 X143.781 Y103.618 E-0.12319
G1 X144.163 Y103.355 E-0.10700
G1 X144.633 Y103.188 E-0.11520
G1 X145.050 Y103.137 E-0.09703
G1 X145.508 Y103.193 E-0.10648
G1 X145.939 Y103.356 E-0.10649
G1 X146.312 Y103.614 E-0.10461
G1 E-0.04000 F2100.00000
G1 Z0.800 F10800.000
G1 X148.433 Y99.837
G1 Z0.200
G1 E0.80000 F2100.00000
G1 F1200.000
G1 X148.433 Y93.263 E0.20613
G1 X153.007 Y93.263 E0.14342
G1 X153.007 Y99.837 E0.20613
G1 X148.493 Y99.837 E0.14154
G1 X148.810 Y99.460 F10800.000
G1 F1200.000
G1 X148.810 Y93.640 E0.18248
G1 X152.630 Y93.640 E0.11977
G1 X152.630 Y99.460 E0.18248
G1 X148.870 Y99.460 E0.11789
G1 X148.432 Y99.590 F10800.000
G1 F8640.000
G1 X148.836 Y96.169 E-0.76000
G1 E-0.04000 F2100.00000
G1 Z0.800 F10800.000
G1 X145.599 Y90.276
G1 Z0.200
G1 E0.80000 F2100.00000
G1 F1200.000
G1 X145.050 Y90.343 E0.01733
G1 X144.501 Y90.276 E0.01733
G1 X143.984 Y90.080 E0.01733
G1 X143.530 Y89.766 E0.01733
G1 X143.163 Y89.352 E0.01733
G1 X142.906 Y88.863 E0.01733
G1 X142.774 Y88.326 E0.01733
G1 X142.774 Y87.774 E0.01733
G1 X142.906 Y87.237 E0.01733
G1 X143.163 Y86.748 E0.01733
G1 X143.530 Y86.334 E0.01733
G1 X143.990 Y86.016 E0.01752
G1 X144.546 Y85.818 E0.01851
G1 X145.050 Y85.757 E0.01592
G1 X145.599 Y85.824 E0.01733
G1 X146.116 Y86.020 E0.01733
G1 X146.570 Y86.334 E0.01733
G1 X146.937 Y86.748 E0.01733
G1 X147.194 Y87.237 E0.01733
G1 X147.326 Y87.774 E0.01733
G1 X147.326 Y88.326 E0.01733
G1 X147.194 Y88.863 E0.01733
G1 X146.937 Y89.352 E0.01733
G1 X146.570 Y89.766 E0.01733
G1 X146.116 Y90.080 E0.01733
G1 X145.655 Y90.255 E0.01545
G1 X145.521 Y89.902 F10800.000
G1 F1200.000
G1 X145.050 Y89.963 E0.01489
G1 X144.592 Y89.907 E0.01446
G1 X144.161 Y89.744 E0.01446
G1 X143.781 Y89.482 E0.01446
G1 X143.476 Y89.137 E0.01446
G1 X143.261 Y88.728 E0.01446
G1 X143.151 Y88.281 E0.01446
G1 X143.151 Y87.819 E0.01446
G1 X143.261 Y87.372 E0.01446
G1 X143.476 Y86.963 E0.01446
G1 X143.781 Y86.618 E0.01446
G1 X144.163 Y86.355 E0.01453
G1 X144.633 Y86.188 E0.01564
G1 X145.050 Y86.137 E0.01318
G1 X145.508 Y86.193 E0.01446
G1 X145.939 Y86.356 E0.01446
G1 X146.319 Y86.618 E0.01446
G1 X146.624 Y86.963 E0.01446
G1 X146.839 Y87.372 E0.01446
G1 X146.949 Y87.819 E0.01446
G1 X146.949 Y88.281 E0.01446
G1 X146.839 Y88.728 E0.01446
G1 X146.624 Y89.137 E0.01446
G1 X146.319 Y89.482 E0.01446
G1 X145.939 Y89.744 E0.01446
G1 X145.577 Y89.881 E0.01213
G1 X145.412 Y90.287 F10800.000
G1 F8640.000
G1 X145.050 Y89.963 E-0.12319
G1 X144.592 Y89.907 E-0.10649
G1 X144.161 Y89.744 E-0.10649
G1 X143.781 Y89.482 E-0.10649
G1 X143.476 Y89.137 E-0.10649
G1 X143.261 Y88.728 E-0.10649
G1 X143.153 Y88.289 E-0.10438
G1 E-0.04000 F2100.00000
G1 Z0.800 F10800.000
G1 X173.163 Y68.902
G1 Z0.200
G1 E0.80000 F2100.00000
G1 F1200.000
G1 X172.906 Y68.413 E0.01733
G1 X172.774 Y67.876 E0.01733
G1 X172.774 Y67.324 E0.01733
G1 X172.906 Y66.787 E0.01733
G1 X173.163 Y66.298 E0.01733
G1 X173.530 Y65.884 E0.01733
G1 X173.990 Y65.566 E0.01752
G1 X174.546 Y65.368 E0.01851
G1 X175.050 Y65.307 E0.01592
G1 X175.599 Y65.374 E0.01733
G1 X176.116 Y65.570 E0.01733
G1 X176.570 Y65.884 E0.01733
G1 X176.937 Y66.298 E0.01733
G1 X177.194 Y66.787 E0.01733
G1 X177.326 Y67.324 E0.01733
G1 X177.326 Y67.876 E0.01733
G1 X177.194 Y68.413 E0.01733
G1 X176.937 Y68.902 E0.01733
G1 X176.570 Y69.316 E0.01733
G1 X176.116 Y69.630 E0.01733
G1 X175.599 Y69.826 E0.01733
G1 X175.050 Y69.893 E0.01733
G1 X174.501 Y69.826 E0.01733
G1 X173.984 Y69.630 E0.01733
G1 X173.530 Y69.316 E0.01733
G1 X173.203 Y68.947 E0.01545
G1 X173.485 Y68.697 F10800.000
G1 F1200.000
G1 X173.261 Y68.278 E0.01489
G1 X173.151 Y67.831 E0.01446
G1 X173.151 Y67.369 E0.01446
G1 X173.261 Y66.922 E0.01446
G1 X173.476 Y66.513 E0.01446
G1 X173.781 Y66.168 E0.01446
G1 X174.163 Y65.905 E0.01453
G1 X174.633 Y65.738 E0.01564
G1 X175.050 Y65.687 E0.01318
G1 X175.508 Y65.743 E0.01446
G1 X175.939 Y65.906 E0.01446
G1 X176.319 Y66.168 E0.01446
G1 X176.624 Y66.513 E0.01446
G1 X176.839 Y66.922 E0.01446
G1 X176.949 Y67.369 E0.01446
G1 X176.949 Y67.831 E0.01446
G1 X176.839 Y68.278 E0.01446
G1 X176.624 Y68.687 E0.01446
G1 X176.319 Y69.032 E0.01446
G1 X175.939 Y69.294 E0.01446
G1 X175.508 Y69.457 E0.01446
G1 X175.050 Y69.513 E0.01446
G1 X174.592 Y69.457 E0.01446
G1 X174.161 Y69.294 E0.01446
G1 X173.781 Y69.032 E0.01446
G1 X173.525 Y68.742 E0.01213
G1 X173.087 Y68.732 F10800.000
G1 F8640.000
G1 X173.261 Y68.278 E-0.12319
G1 X173.151 Y67.831 E-0.10649
G1 X173.151 Y67.369 E-0.10649
G1 X173.261 Y66.922 E-0.10648
G1 X173.476 Y66.513 E-0.10649
G1 X173.781 Y66.168 E-0.10649
G1 X174.153 Y65.911 E-0.10438
G1 E-0.04000 F2100.00000
G1 Z0.800 F10800.000
G1 X192.038 Y40.869
G1 Z0.200
G1 E0.80000 F2100.00000
G1 F1200.000
G1 X191.563 Y40.541 E0.01809
G1 X191.181 Y40.109 E0.01809
G1 X190.913 Y39.599 E0.01809
G1 X190.775 Y39.038 E0.01809
G1 X190.775 Y38.462 E0.01809
G1 X190.913 Y37.901 E0.01809
G1 X191.181 Y37.391 E0.01809
G1 X191.563 Y36.959 E0.01809
G1 X192.043 Y36.628 E0.01827
G1 X192.622 Y36.421 E0.01928
G1 X193.150 Y36.357 E0.01668
G1 X193.723 Y36.427 E0.01809
G1 X194.262 Y36.631 E0.01809
G1 X194.737 Y36.959 E0.01809
G1 X195.119 Y37.391 E0.01809
G1 X195.387 Y37.902 E0.01809
G1 X195.525 Y38.462 E0.01809
G1 X195.525 Y39.038 E0.01809
G1 X195.387 Y39.599 E0.01809
G1 X195.119 Y40.109 E0.01809
G1 X194.737 Y40.541 E0.01809
G1 X194.262 Y40.869 E0.01809
G1 X193.723 Y41.073 E0.01809
G1 X193.150 Y41.143 E0.01809
G1 X192.577 Y41.073 E0.01809
G1 X192.094 Y40.890 E0.01620
G1 X192.228 Y40.537 F10800.000
G1 F1200.000
G1 X191.815 Y40.257 E0.01565
G1 X191.493 Y39.894 E0.01522
G1 X191.268 Y39.464 E0.01522
G1 X191.152 Y38.993 E0.01522
G1 X191.152 Y38.507 E0.01522
G1 X191.268 Y38.036 E0.01522
G1 X191.493 Y37.606 E0.01522
G1 X191.815 Y37.243 E0.01522
G1 X192.216 Y36.966 E0.01528
G1 X192.709 Y36.791 E0.01641
G1 X193.150 Y36.737 E0.01392
G1 X193.632 Y36.796 E0.01522
G1 X194.085 Y36.968 E0.01522
G1 X194.485 Y37.243 E0.01522
G1 X194.807 Y37.606 E0.01522
G1 X195.032 Y38.036 E0.01522
G1 X195.148 Y38.507 E0.01521
G1 X195.148 Y38.993 E0.01522
G1 X195.032 Y39.464 E0.01522
G1 X194.807 Y39.894 E0.01522
G1 X194.485 Y40.257 E0.01522
G1 X194.085 Y40.532 E0.01522
G1 X193.632 Y40.704 E0.01522
G1 X193.150 Y40.763 E0.01522
G1 X192.668 Y40.704 E0.01522
G1 X192.284 Y40.559 E0.01289
G1 X191.891 Y40.753 F10800.000
G1 F8640.000
G1 X191.815 Y40.257 E-0.12876
G1 X191.493 Y39.894 E-0.11206
G1 X191.268 Y39.464 E-0.11205
G1 X191.152 Y38.993 E-0.11205
G1 X191.152 Y38.507 E-0.11206
G1 X191.268 Y38.036 E-0.11205
G1 X191.411 Y37.764 E-0.07098
G1 E-0.04000 F2100.00000
G1 Z0.800 F10800.000
G1 X175.599 Y123.274
G1 Z0.200
G1 E0.80000 F2100.00000
G1 F1200.000
G1 X176.116 Y123.470 E0.01733
G1 X176.570 Y123.784 E0.01733
G1 X176.937 Y124.198 E0.01733
G1 X177.194 Y124.687 E0.01733
G1 X177.326 Y125.224 E0.01733
G1 X177.326 Y125.776 E0.01733
G1 X177.194 Y126.313 E0.01733
G1 X176.937 Y126.802 E0.01733
G1 X176.570 Y127.216 E0.01733
G1 X176.116 Y127.530 E0.01733
G1 X175.599 Y127.726 E0.01733
G1 X175.050 Y127.793 E0.01733
G1 X174.501 Y127.726 E0.01733
G1 X173.984 Y127.530 E0.01733
G1 X173.530 Y127.216 E0.01733
G1 X173.163 Y126.802 E0.01733
G1 X172.906 Y126.313 E0.01733
G1 X172.774 Y125.776 E0.01733
G1 X172.774 Y125.224 E0.01733
G1 X172.906 Y124.687 E0.01733
G1 X173.163 Y124.198 E0.01733
G1 X173.530 Y123.784 E0.01733
G1 X173.990 Y123.466 E0.01752
G1 X174.546 Y123.268 E0.01851
G1 X175.050 Y123.207 E0.01592
G1 X175.539 Y123.267 E0.01545
G1 X175.494 Y123.641 F10800.000
G1 F1200.000
G1 X175.939 Y123.806 E0.01489
G1 X176.319 Y124.068 E0.01446
G1 X176.624 Y124.413 E0.01446
G1 X176.839 Y124.822 E0.01446
G1 X176.949 Y125.269 E0.01446
G1 X176.949 Y125.731 E0.01446
G1 X176.839 Y126.178 E0.01446
G1 X176.624 Y126.587 E0.01446
G1 X176.319 Y126.932 E0.01446
G1 X175.939 Y127.194 E0.01446
G1 X175.508 Y127.357 E0.01446
G1 X175.050 Y127.413 E0.01446
G1 X174.592 Y127.357 E0.01446
G1 X174.161 Y127.194 E0.01446
G1 X173.781 Y126.932 E0.01446
G1 X173.476 Y126.587 E0.01446
G1 X173.261 Y126.178 E0.01446
G1 X173.151 Y125.731 E0.01446
G1 X173.151 Y125.269 E0.01446
G1 X173.261 Y124.822 E0.01446
G1 X173.476 Y124.413 E0.01446
G1 X173.781 Y124.068 E0.01446
G1 X174.163 Y123.805 E0.01453
G1 X174.633 Y123.638 E0.01564
G1 X175.050 Y123.587 E0.01318
G1 X175.434 Y123.634 E0.01213
G1 X175.770 Y123.351 F10800.000
G1 F8640.000
G1 X175.939 Y123.806 E-0.12319
G1 X176.319 Y124.068 E-0.10648
G1 X176.624 Y124.413 E-0.10648
G1 X176.839 Y124.822 E-0.10649
G1 X176.949 Y125.269 E-0.10649
G1 X176.949 Y125.731 E-0.10648
G1 X176.841 Y126.169 E-0.10438
G1 E-0.04000 F2100.00000
G1 Z0.800 F10800.000
G1 X192.043 Y167.628
G1 Z0.200
G1 E0.80000 F2100.00000
G1 F1200.000
G1 X192.622 Y167.421 E0.01928
G1 X193.150 Y167.357 E0.01668
G1 X193.723 Y167.427 E0.01809
G1 X194.262 Y167.631 E0.01809
G1 X194.737 Y167.959 E0.01809
G1 X195.119 Y168.391 E0.01809
G1 X195.387 Y168.902 E0.01809
G1 X195.525 Y169.462 E0.01809
G1 X195.525 Y170.038 E0.01809
G1 X195.387 Y170.598 E0.01809
G1 X195.119 Y171.109 E0.01809
G1 X194.737 Y171.541 E0.01809
G1 X194.262 Y171.869 E0.01809
G1 X193.723 Y172.073 E0.01809
G1 X193.150 Y172.143 E0.01809
G1 X192.577 Y172.073 E0.01809
G1 X192.038 Y171.869 E0.01809
G1 X191.563 Y171.541 E0.01809
G1 X191.181 Y171.109 E0.01809
G1 X190.913 Y170.599 E0.01809
G1 X190.775 Y170.038 E0.01809
G1 X190.775 Y169.462 E0.01809
G1 X190.913 Y168.901 E0.01809
G1 X191.181 Y168.391 E0.01809
G1 X191.563 Y167.959 E0.01809
G1 X191.993 Y167.662 E0.01639
G1 X192.208 Y167.972 F10800.000
G1 F1200.000
G1 X192.709 Y167.791 E0.01672
G1 X193.150 Y167.737 E0.01392
G1 X193.632 Y167.796 E0.01522
G1 X194.085 Y167.968 E0.01522
G1 X194.485 Y168.243 E0.01522
G1 X194.807 Y168.606 E0.01522
G1 X195.032 Y169.036 E0.01522
G1 X195.148 Y169.507 E0.01522
G1 X195.148 Y169.993 E0.01522
G1 X195.032 Y170.464 E0.01522
G1 X194.807 Y170.894 E0.01522
G1 X194.485 Y171.257 E0.01522
G1 X194.085 Y171.532 E0.01522
G1 X193.632 Y171.705 E0.01522
G1 X193.150 Y171.763 E0.01522
G1 X192.668 Y171.705 E0.01522
G1 X192.215 Y171.532 E0.01522
G1 X191.815 Y171.257 E0.01522
G1 X191.493 Y170.894 E0.01522
G1 X191.268 Y170.464 E0.01522
G1 X191.152 Y169.993 E0.01522
G1 X191.152 Y169.507 E0.01522
G1 X191.268 Y169.036 E0.01522
G1 X191.493 Y168.606 E0.01522
G1 X191.815 Y168.243 E0.01522
G1 X192.158 Y168.006 E0.01307
G1 X192.228 Y167.573 F10800.000
G1 F8640.000
G1 X192.709 Y167.791 E-0.13661
G1 X193.150 Y167.737 E-0.10253
G1 X193.632 Y167.796 E-0.11205
G1 X194.085 Y167.968 E-0.11205
G1 X194.485 Y168.243 E-0.11205
G1 X194.807 Y168.606 E-0.11206
G1 X194.953 Y168.885 E-0.07264
G1 E-0.04000 F2100.00000
G1 Z0.800 F10800.000
G1 X59.225 Y169.456
G1 Z0.200
G1 E0.80000 F2100.00000
G1 F1200.000
G1 X59.225 Y170.038 E0.01827
G1 X59.087 Y170.599 E0.01809
G1 X58.819 Y171.109 E0.01809
G1 X58.437 Y171.541 E0.01809
G1 X57.962 Y171.869 E0.01809
G1 X57.423 Y172.073 E0.01809
G1 X56.850 Y172.143 E0.01809
G1 X56.277 Y172.073 E0.01809
G1 X55.738 Y171.869 E0.01809
G1 X55.263 Y171.541 E0.01809
G1 X54.881 Y171.109 E0.01809
G1 X54.613 Y170.599 E0.01809
G1 X54.473 Y170.033 E0.01827
G1 X54.485 Y169.418 E0.01928
G1 X54.613 Y168.901 E0.01668
G1 X54.881 Y168.391 E0.01809
G1 X55.263 Y167.959 E0.01809
G1 X55.743 Y167.628 E0.01827
G1 X56.322 Y167.421 E0.01928
G1 X56.850 Y167.357 E0.01668
G1 X57.423 Y167.427 E0.01809
G1 X57.962 Y167.631 E0.01809
G1 X58.437 Y167.959 E0.01809
G1 X58.819 Y168.391 E0.01809
G1 X59.066 Y168.862 E0.01668
G1 X59.210 Y169.398 E0.01740
G1 X58.846 Y169.495 F10800.000
G1 F1200.000
G1 X58.848 Y169.993 E0.01560
G1 X58.732 Y170.464 E0.01522
G1 X58.507 Y170.894 E0.01522
G1 X58.185 Y171.257 E0.01522
G1 X57.785 Y171.532 E0.01522
G1 X57.332 Y171.705 E0.01522
G1 X56.850 Y171.763 E0.01522
G1 X56.368 Y171.705 E0.01522
G1 X55.915 Y171.532 E0.01522
G1 X55.515 Y171.257 E0.01522
G1 X55.193 Y170.894 E0.01522
G1 X54.968 Y170.464 E0.01522
G1 X54.851 Y169.991 E0.01528
G1 X54.862 Y169.467 E0.01641
