; generated by PrusaSlicer 2.2.0+win64 on 2020-07-25 at 20:50:17 UTC

; 

; external perimeters extrusion width = 0.45mm
; perimeters extrusion width = 0.45mm
; infill extrusion width = 0.45mm
; solid infill extrusion width = 0.45mm
; top infill extrusion width = 0.40mm
; support material extrusion width = 0.35mm
; first layer extrusion width = 0.42mm

M73 P0 R207
M73 Q0 S209
M201 X1000 Y1000 Z200 E5000 ; sets maximum accelerations, mm/sec^2
M203 X200 Y200 Z12 E120 ; sets maximum feedrates, mm/sec
M204 P1250 R1250 T1250 ; sets acceleration (P, T) and retract acceleration (R), mm/sec^2
M205 X8.00 Y8.00 Z0.40 E4.50 ; sets the jerk limits, mm/sec
M205 S0 T0 ; sets the minimum extruding and travel feed rate, mm/sec
M107
M862.3 P "MK3S" ; printer model check
M862.1 P0.4 ; nozzle diameter check
M115 U3.9.0 ; tell printer latest fw version
G90 ; use absolute coordinates
M83 ; extruder relative mode
M104 S215 ; set extruder temp
M140 S60 ; set bed temp
M190 S60 ; wait for bed temp
M109 S215 ; wait for extruder temp
G28 W ; home all without mesh bed level
G80 ; mesh bed leveling
G1 Y-3.0 F1000.0 ; go outside print area
G92 E0.0
G1 X60.0 E9.0 F1000.0 ; intro line
M73 Q0 S209
M73 P0 R207
G1 X100.0 E12.5 F1000.0 ; intro line
G92 E0.0
M221 S95
G21 ; set units to millimeters
G90 ; use absolute coordinates
M83 ; use relative distances for extrusion
M900 K0.06 ; Filament gcode LA 1.5
M900 K30 ; Filament gcode LA 1.0
;BEFORE_LAYER_CHANGE
G92 E0.0
;0.2


G1 E-0.80000 F2100.00000
G1 Z0.600 F10800.000
;AFTER_LAYER_CHANGE
;0.2
G1 X63.538 Y149.360
G1 Z0.200
G1 E0.80000 F2100.00000
M204 S1000
G1 F1200.000
G1 X62.838 Y148.729 E0.02954
G1 X62.493 Y148.066 E0.02343
G1 X62.371 Y147.325 E0.02355
G1 X62.371 Y63.558 E2.62646
G1 X62.437 Y63.015 E0.01716
G1 X62.626 Y62.498 E0.01728
G1 X62.930 Y62.038 E0.01728
G1 X63.332 Y61.661 E0.01728
G1 X65.769 Y59.973 E0.09296
G1 X66.311 Y59.752 E0.01835
G1 X66.891 Y59.670 E0.01835
G1 X183.070 Y59.670 E3.64273
G1 X183.673 Y59.748 E0.01906
G1 X184.233 Y59.974 E0.01894
G1 X186.771 Y61.744 E0.09701
G1 X187.115 Y62.099 E0.01550
G1 X187.381 Y62.520 E0.01562
G1 X187.552 Y62.984 E0.01550
G1 X187.623 Y63.473 E0.01550
G1 X187.625 Y147.341 E2.62961
G1 X187.556 Y147.883 E0.01716
G1 X187.364 Y148.396 E0.01716
G1 X187.063 Y148.849 E0.01704
G1 X186.664 Y149.223 E0.01716
G1 X186.137 Y149.518 E0.01894
G1 X185.553 Y149.671 E0.01894
G1 X146.107 Y154.475 E1.24594
G1 X103.718 Y154.300 E1.32909
G1 X64.428 Y149.669 E1.24043
G1 X63.595 Y149.380 E0.02766
G1 F8640.000
G1 X62.838 Y148.729 E-0.23038
G1 X62.493 Y148.066 E-0.17254
G1 X62.371 Y147.325 E-0.17341
G1 X62.371 Y146.530 E-0.18366
G1 E-0.04000 F2100.00000
G1 Z0.800 F10800.000
G1 X103.884 Y147.558
G1 Z0.200
G1 E0.80000 F2100.00000
G1 F1200.000
G1 X103.884 Y151.929 E0.13705
G1 X104.638 Y151.929 E0.02365
G1 X104.638 Y147.727 E0.13173
G1 X105.392 Y147.727 E0.02365
G1 X105.392 Y151.929 E0.13173
G1 X106.146 Y151.929 E0.02365
G1 X106.146 Y147.727 E0.13173
G1 X106.900 Y147.727 E0.02365
G1 X106.900 Y151.929 E0.13173
G1 X107.654 Y151.929 E0.02365
G1 X107.654 Y147.727 E0.13173
G1 X107.912 Y147.485 E0.01108
G1 X107.912 Y140.709 E0.21245
G1 X108.408 Y140.709 E0.01558
G1 X108.408 Y151.929 E0.35177
G1 X109.163 Y151.929 E0.02365
G1 X109.163 Y140.709 E0.35177
G1 X109.917 Y140.709 E0.02365
G1 X109.917 Y151.929 E0.35177
G1 X110.671 Y151.929 E0.02365
G1 X110.671 Y140.709 E0.35177
G1 X111.425 Y140.709 E0.02365
G1 X111.425 Y151.929 E0.35177
G1 X112.179 Y151.929 E0.02365
G1 X112.179 Y140.709 E0.35177
G1 X112.933 Y140.709 E0.02365
G1 X112.933 Y151.929 E0.35177
G1 X113.688 Y151.929 E0.02365
G1 X113.688 Y140.709 E0.35177
G1 X114.442 Y140.709 E0.02365
G1 X114.442 Y151.929 E0.35177
G1 X115.196 Y151.929 E0.02365
G1 X115.196 Y140.709 E0.35177
G1 X115.950 Y140.709 E0.02365
G1 X115.950 Y151.929 E0.35177
G1 X116.704 Y151.929 E0.02365
G1 X116.704 Y140.709 E0.35177
G1 X117.458 Y140.709 E0.02365
G1 X117.458 Y151.929 E0.35177
G1 X118.213 Y151.929 E0.02365
G1 X118.213 Y140.709 E0.35177
G1 X118.967 Y140.709 E0.02365
G1 X118.967 Y151.929 E0.35177
G1 X119.721 Y151.929 E0.02365
G1 X119.721 Y140.709 E0.35177
G1 X120.475 Y140.709 E0.02365
G1 X120.475 Y151.929 E0.35177
G1 X121.229 Y151.929 E0.02365
G1 X121.229 Y140.709 E0.35177
G1 X121.983 Y140.709 E0.02365
G1 X121.983 Y151.929 E0.35177
G1 X122.738 Y151.929 E0.02365
G1 X122.738 Y140.709 E0.35177
G1 X123.492 Y140.709 E0.02365
G1 X123.492 Y151.929 E0.35177
G1 X124.246 Y151.929 E0.02365
G1 X124.246 Y140.709 E0.35177
G1 X125.000 Y140.709 E0.02365
G1 X125.000 Y151.929 E0.35177
G1 X125.754 Y151.929 E0.02365
G1 X125.754 Y140.709 E0.35177
G1 X126.508 Y140.709 E0.02365
G1 X126.508 Y151.929 E0.35177
G1 X127.262 Y151.929 E0.02365
G1 X127.262 Y140.709 E0.35177
G1 X128.017 Y140.709 E0.02365
G1 X128.017 Y151.929 E0.35177
G1 X128.771 Y151.929 E0.02365
G1 X128.771 Y140.709 E0.35177
G1 X129.525 Y140.709 E0.02365
G1 X129.525 Y151.929 E0.35177
G1 X130.279 Y151.929 E0.02365
G1 X130.279 Y140.709 E0.35177
G1 X131.033 Y140.709 E0.02365
G1 X131.033 Y151.929 E0.35177
G1 X131.787 Y151.929 E0.02365
G1 X131.787 Y140.709 E0.35177
G1 X132.542 Y140.709 E0.02365
G1 X132.542 Y151.929 E0.35177
G1 X133.296 Y151.929 E0.02365
G1 X133.296 Y140.709 E0.35177
G1 X134.050 Y140.709 E0.02365
G1 X134.050 Y151.929 E0.35177
G1 X134.804 Y151.929 E0.02365
G1 X134.804 Y140.709 E0.35177
G1 X135.558 Y140.709 E0.02365
G1 X135.558 Y151.929 E0.35177
G1 X136.312 Y151.929 E0.02365
G1 X136.312 Y140.709 E0.35177
G1 X137.067 Y140.709 E0.02365
G1 X137.067 Y151.929 E0.35177
G1 X137.821 Y151.929 E0.02365
G1 X137.821 Y140.709 E0.35177
G1 X138.575 Y140.709 E0.02365
G1 X138.575 Y151.929 E0.35177
G1 X139.329 Y151.929 E0.02365
G1 X139.329 Y140.709 E0.35177
G1 X140.083 Y140.709 E0.02365
G1 X140.083 Y151.929 E0.35177
G1 X140.837 Y151.929 E0.02365
G1 X140.837 Y140.709 E0.35177
G1 X141.591 Y140.709 E0.02365
G1 X141.591 Y151.929 E0.35177
G1 X142.346 Y151.929 E0.02365
G1 X142.346 Y147.727 E0.13173
G1 X143.100 Y147.727 E0.02365
G1 X143.100 Y151.929 E0.13173
G1 X143.854 Y151.929 E0.02365
G1 X143.854 Y147.727 E0.13173
G1 X144.608 Y147.727 E0.02365
G1 X144.608 Y151.929 E0.13173
G1 X145.362 Y151.929 E0.02365
G1 X145.362 Y147.727 E0.13173
G1 X146.116 Y147.727 E0.02365
G1 X146.116 Y152.098 E0.13705
G1 F8640.000
G1 X146.116 Y148.807 E-0.76000
G1 E-0.04000 F2100.00000
G1 Z0.800 F10800.000
G1 X139.329 Y139.390
G1 Z0.200
G1 E0.80000 F2100.00000
G1 F1200.000
G1 X139.329 Y137.710 E0.05268
G1 X138.575 Y137.710 E0.02365
G1 X138.575 Y139.220 E0.04736
G1 X137.821 Y139.220 E0.02365
G1 X137.821 Y137.710 E0.04736
G1 X137.067 Y137.710 E0.02365
G1 X137.067 Y139.220 E0.04736
G1 X136.312 Y139.220 E0.02365
G1 X136.312 Y137.710 E0.04736
G1 X135.558 Y137.710 E0.02365
G1 X135.558 Y139.220 E0.04736
G1 X134.804 Y139.220 E0.02365
G1 X134.804 Y137.710 E0.04736
G1 X134.050 Y137.710 E0.02365
G1 X134.050 Y139.220 E0.04736
G1 X133.296 Y139.220 E0.02365
G1 X133.296 Y137.710 E0.04736
G1 X132.542 Y137.710 E0.02365
G1 X132.542 Y139.220 E0.04736
G1 X131.787 Y139.220 E0.02365
G1 X131.787 Y137.710 E0.04736
G1 X131.033 Y137.710 E0.02365
G1 X131.033 Y139.220 E0.04736
G1 X130.279 Y139.220 E0.02365
G1 X130.279 Y137.710 E0.04736
G1 X129.525 Y137.710 E0.02365
G1 X129.525 Y139.220 E0.04736
G1 X128.771 Y139.220 E0.02365
G1 X128.771 Y137.710 E0.04736
G1 X128.017 Y137.710 E0.02365
G1 X128.017 Y139.220 E0.04736
M73 Q0 S208
G1 X127.262 Y139.220 E0.02365
G1 X127.262 Y137.710 E0.04736
G1 X126.508 Y137.710 E0.02365
G1 X126.508 Y139.220 E0.04736
G1 X125.754 Y139.220 E0.02365
G1 X125.754 Y137.710 E0.04736
G1 X125.000 Y137.710 E0.02365
G1 X125.000 Y139.220 E0.04736
G1 X124.246 Y139.220 E0.02365
G1 X124.246 Y137.710 E0.04736
G1 X123.492 Y137.710 E0.02365
G1 X123.492 Y139.220 E0.04736
M73 P0 R206
G1 X122.738 Y139.220 E0.02365
G1 X122.738 Y137.710 E0.04736
G1 X121.983 Y137.710 E0.02365
G1 X121.983 Y139.220 E0.04736
G1 X121.229 Y139.220 E0.02365
G1 X121.229 Y137.710 E0.04736
G1 X120.475 Y137.710 E0.02365
G1 X120.475 Y139.220 E0.04736
G1 X119.721 Y139.220 E0.02365
G1 X119.721 Y137.710 E0.04736
G1 X118.967 Y137.710 E0.02365
G1 X118.967 Y139.220 E0.04736
G1 X118.213 Y139.220 E0.02365
G1 X118.213 Y137.710 E0.04736
G1 X117.458 Y137.710 E0.02365
G1 X117.458 Y139.220 E0.04736
G1 X116.704 Y139.220 E0.02365
G1 X116.704 Y137.710 E0.04736
G1 X115.950 Y137.710 E0.02365
G1 X115.950 Y139.220 E0.04736
G1 X115.196 Y139.220 E0.02365
G1 X115.196 Y137.710 E0.04736
G1 X114.442 Y137.710 E0.02365
G1 X114.442 Y139.220 E0.04736
G1 X113.688 Y139.220 E0.02365
G1 X113.688 Y137.710 E0.04736
G1 X112.933 Y137.710 E0.02365
G1 X112.933 Y139.220 E0.04736
G1 X112.179 Y139.220 E0.02365
G1 X112.179 Y137.710 E0.04736
G1 X111.425 Y137.710 E0.02365
G1 X111.425 Y139.220 E0.04736
G1 X110.671 Y139.220 E0.02365
G1 X110.671 Y137.540 E0.05268
G1 F8640.000
G1 X110.671 Y139.220 E-0.38793
G1 X111.425 Y139.220 E-0.17414
G1 X111.425 Y138.363 E-0.19793
G1 E-0.04000 F2100.00000
G1 Z0.800 F10800.000
G1 X76.734 Y63.355
G1 Z0.200
G1 E0.80000 F2100.00000
G1 F1200.000
G1 X76.734 Y62.047 E0.04100
G1 X75.980 Y62.047 E0.02365
G1 X75.980 Y63.185 E0.03568
G1 X75.226 Y63.185 E0.02365
G1 X75.226 Y62.047 E0.03568
G1 X74.471 Y62.047 E0.02365
G1 X74.471 Y63.185 E0.03568
G1 X73.717 Y63.185 E0.02365
G1 X73.717 Y62.047 E0.03568
G1 X72.963 Y62.047 E0.02365
G1 X72.963 Y63.185 E0.03568
G1 X72.209 Y63.185 E0.02365
G1 X72.209 Y62.047 E0.03568
G1 X71.455 Y62.047 E0.02365
G1 X71.455 Y63.185 E0.03568
G1 X70.701 Y63.185 E0.02365
G1 X70.701 Y62.047 E0.03568
G1 X69.946 Y62.047 E0.02365
G1 X69.946 Y63.185 E0.03568
G1 X69.192 Y63.185 E0.02365
G1 X69.192 Y62.047 E0.03568
G1 X68.438 Y62.047 E0.02365
G1 X68.438 Y63.185 E0.03568
G1 X67.684 Y63.185 E0.02365
G1 X67.684 Y62.047 E0.03568
G1 X66.930 Y62.047 E0.02365
G1 X66.930 Y63.355 E0.04100
G1 F8640.000
G1 X66.930 Y62.047 E-0.30195
G1 X67.684 Y62.047 E-0.17414
G1 X67.684 Y63.185 E-0.26277
G1 X67.775 Y63.185 E-0.02113
G1 E-0.04000 F2100.00000
G1 Z0.800 F10800.000
G1 X67.684 Y64.877
G1 Z0.200
G1 E0.80000 F2100.00000
G1 F1200.000
G1 X67.684 Y94.252 E0.92102
G1 X68.438 Y94.252 E0.02365
G1 X68.438 Y65.047 E0.91570
G1 X69.192 Y65.047 E0.02365
G1 X69.192 Y94.252 E0.91570
G1 X69.946 Y94.252 E0.02365
G1 X69.946 Y65.047 E0.91570
G1 X70.701 Y65.047 E0.02365
G1 X70.701 Y94.252 E0.91570
G1 X71.455 Y94.252 E0.02365
G1 X71.455 Y65.047 E0.91570
G1 X72.209 Y65.047 E0.02365
G1 X72.209 Y94.252 E0.91570
G1 X72.963 Y94.252 E0.02365
G1 X72.963 Y65.047 E0.91570
G1 X73.717 Y65.047 E0.02365
G1 X73.717 Y94.252 E0.91570
G1 X74.471 Y94.252 E0.02365
G1 X74.471 Y65.047 E0.91570
G1 X75.226 Y65.047 E0.02365
G1 X75.226 Y94.252 E0.91570
G1 X75.980 Y94.252 E0.02365
G1 X75.980 Y65.047 E0.91570
G1 X76.734 Y65.047 E0.02365
G1 X76.734 Y94.252 E0.91570
G1 X77.488 Y94.252 E0.02365
G1 X77.488 Y83.708 E0.33060
G1 X78.242 Y83.708 E0.02365
G1 X78.242 Y94.252 E0.33060
G1 X78.996 Y94.252 E0.02365
G1 X78.996 Y83.708 E0.33060
G1 X79.750 Y83.708 E0.02365
G1 X79.750 Y94.252 E0.33060
G1 X80.505 Y94.252 E0.02365
G1 X80.505 Y83.708 E0.33060
G1 X81.259 Y83.708 E0.02365
G1 X81.259 Y94.252 E0.33060
G1 X82.013 Y94.252 E0.02365
G1 X82.013 Y83.708 E0.33060
G1 X82.767 Y83.708 E0.02365
G1 X82.767 Y94.252 E0.33060
G1 X83.521 Y94.252 E0.02365
G1 X83.521 Y83.708 E0.33060
G1 X84.275 Y83.708 E0.02365
G1 X84.275 Y94.252 E0.33060
G1 X85.030 Y94.252 E0.02365
G1 X85.030 Y83.708 E0.33060
G1 X85.784 Y83.708 E0.02365
G1 X85.784 Y94.252 E0.33060
G1 X86.538 Y94.252 E0.02365
G1 X86.538 Y83.708 E0.33060
G1 X87.292 Y83.708 E0.02365
G1 X87.292 Y94.252 E0.33060
G1 X88.046 Y94.252 E0.02365
G1 X88.046 Y83.708 E0.33060
G1 X88.800 Y83.708 E0.02365
G1 X88.800 Y94.252 E0.33060
G1 X89.555 Y94.252 E0.02365
G1 X89.555 Y83.708 E0.33060
G1 X90.309 Y83.708 E0.02365
G1 X90.309 Y94.252 E0.33060
G1 X91.063 Y94.252 E0.02365
G1 X91.063 Y83.708 E0.33060
G1 X91.817 Y83.708 E0.02365
G1 X91.817 Y94.252 E0.33060
G1 X92.571 Y94.252 E0.02365
G1 X92.571 Y83.708 E0.33060
G1 X93.325 Y83.708 E0.02365
G1 X93.325 Y94.252 E0.33060
G1 X94.079 Y94.252 E0.02365
G1 X94.079 Y83.708 E0.33060
G1 X94.834 Y83.708 E0.02365
G1 X94.834 Y94.252 E0.33060
G1 X95.588 Y94.252 E0.02365
G1 X95.588 Y83.708 E0.33060
G1 X96.342 Y83.708 E0.02365
G1 X96.342 Y94.252 E0.33060
G1 X97.096 Y94.252 E0.02365
G1 X97.096 Y83.708 E0.33060
G1 X97.850 Y83.708 E0.02365
G1 X97.850 Y94.252 E0.33060
G1 X98.604 Y94.252 E0.02365
G1 X98.604 Y83.708 E0.33060
G1 X99.359 Y83.708 E0.02365
G1 X99.359 Y94.252 E0.33060
G1 X100.113 Y94.252 E0.02365
G1 X100.113 Y83.708 E0.33060
G1 X100.867 Y83.708 E0.02365
G1 X100.867 Y94.252 E0.33060
G1 X101.621 Y94.252 E0.02365
G1 X101.621 Y83.708 E0.33060
G1 X102.375 Y83.708 E0.02365
G1 X102.375 Y94.252 E0.33060
G1 X103.129 Y94.252 E0.02365
G1 X103.129 Y83.708 E0.33060
G1 X103.884 Y83.708 E0.02365
G1 X103.884 Y94.252 E0.33060
G1 X104.335 Y94.252 E0.01414
G1 X104.335 Y88.462 E0.18153
G1 X104.577 Y88.220 E0.01074
G1 X104.638 Y88.220 E0.00191
G1 X104.638 Y83.708 E0.14148
G1 X105.392 Y83.708 E0.02365
G1 X105.392 Y88.220 E0.14148
G1 X106.146 Y88.220 E0.02365
G1 X106.146 Y83.708 E0.14148
G1 X106.900 Y83.708 E0.02365
G1 X106.900 Y88.220 E0.14148
G1 X107.654 Y88.220 E0.02365
G1 X107.654 Y83.708 E0.14148
G1 X108.409 Y83.708 E0.02365
G1 X108.409 Y88.220 E0.14148
G1 X109.163 Y88.220 E0.02365
G1 X109.163 Y83.708 E0.14148
G1 X109.917 Y83.708 E0.02365
G1 X109.917 Y88.220 E0.14148
G1 X110.162 Y88.462 E0.01080
G1 X110.162 Y91.945 E0.10919
G1 X110.671 Y91.945 E0.01597
G1 X110.671 Y83.708 E0.25826
G1 X111.425 Y83.708 E0.02365
G1 X111.425 Y91.945 E0.25826
G1 X112.179 Y91.945 E0.02365
G1 X112.179 Y83.708 E0.25826
G1 X112.933 Y83.708 E0.02365
G1 X112.933 Y91.945 E0.25826
G1 X113.688 Y91.945 E0.02365
G1 X113.688 Y83.708 E0.25826
G1 X114.442 Y83.708 E0.02365
G1 X114.442 Y91.945 E0.25826
G1 X115.196 Y91.945 E0.02365
G1 X115.196 Y83.708 E0.25826
G1 X115.950 Y83.708 E0.02365
G1 X115.950 Y91.945 E0.25826
G1 X116.704 Y91.945 E0.02365
G1 X116.704 Y83.708 E0.25826
G1 X117.458 Y83.708 E0.02365
G1 X117.458 Y91.945 E0.25826
G1 X118.213 Y91.945 E0.02365
G1 X118.213 Y83.708 E0.25826
G1 X118.967 Y83.708 E0.02365
G1 X118.967 Y91.945 E0.25826
G1 X119.721 Y91.945 E0.02365
G1 X119.721 Y83.708 E0.25826
G1 X120.475 Y83.708 E0.02365
G1 X120.475 Y91.945 E0.25826
G1 X121.229 Y91.945 E0.02365
G1 X121.229 Y83.708 E0.25826
G1 X121.983 Y83.708 E0.02365
G1 X121.983 Y91.945 E0.25826
G1 X122.738 Y91.945 E0.02365
G1 X122.738 Y83.708 E0.25826
G1 X123.492 Y83.708 E0.02365
G1 X123.492 Y91.945 E0.25826
G1 X124.246 Y91.945 E0.02365
G1 X124.246 Y83.708 E0.25826
G1 X125.000 Y83.708 E0.02365
G1 X125.000 Y91.945 E0.25826
G1 X125.754 Y91.945 E0.02365
G1 X125.754 Y83.708 E0.25826
G1 X126.508 Y83.708 E0.02365
G1 X126.508 Y91.945 E0.25826
G1 X127.262 Y91.945 E0.02365
G1 X127.262 Y83.708 E0.25826
M73 Q0 S207
G1 X128.017 Y83.708 E0.02365
G1 X128.017 Y91.945 E0.25826
G1 X128.771 Y91.945 E0.02365
G1 X128.771 Y83.708 E0.25826
G1 X129.525 Y83.708 E0.02365
M73 P0 R205
G1 X129.525 Y91.945 E0.25826
G1 X130.279 Y91.945 E0.02365
G1 X130.279 Y83.708 E0.25826
G1 X131.033 Y83.708 E0.02365
G1 X131.033 Y91.945 E0.25826
G1 X131.787 Y91.945 E0.02365
G1 X131.787 Y83.708 E0.25826
G1 X132.542 Y83.708 E0.02365
G1 X132.542 Y91.945 E0.25826
G1 X133.296 Y91.945 E0.02365
G1 X133.296 Y83.708 E0.25826
G1 X134.050 Y83.708 E0.02365
G1 X134.050 Y91.945 E0.25826
G1 X134.804 Y91.945 E0.02365
G1 X134.804 Y83.708 E0.25826
G1 X135.558 Y83.708 E0.02365
G1 X135.558 Y91.945 E0.25826
G1 X136.312 Y91.945 E0.02365
G1 X136.312 Y83.708 E0.25826
G1 X137.067 Y83.708 E0.02365
G1 X137.067 Y91.945 E0.25826
G1 X137.821 Y91.945 E0.02365
G1 X137.821 Y83.708 E0.25826
G1 X138.575 Y83.708 E0.02365
G1 X138.575 Y91.945 E0.25826
G1 X139.329 Y91.945 E0.02365
G1 X139.329 Y83.708 E0.25826
G1 X140.083 Y83.708 E0.02365
G1 X140.083 Y88.220 E0.14148
G1 X140.837 Y88.220 E0.02365
G1 X140.837 Y83.708 E0.14148
G1 X141.591 Y83.708 E0.02365
G1 X141.591 Y88.220 E0.14148
G1 X142.346 Y88.220 E0.02365
G1 X142.346 Y83.708 E0.14148
G1 X143.100 Y83.708 E0.02365
G1 X143.100 Y88.220 E0.14148
G1 X143.854 Y88.220 E0.02365
G1 X143.854 Y83.708 E0.14148
G1 X144.608 Y83.708 E0.02365
G1 X144.608 Y88.220 E0.14148
G1 X144.919 Y88.220 E0.00976
G1 X145.162 Y88.462 E0.01074
