; generated by PrusaSlicer 2.2.0+win64 on 2020-07-26 at 15:52:04 UTC

; 

; external perimeters extrusion width = 0.45mm
; perimeters extrusion width = 0.45mm
; infill extrusion width = 0.45mm
; solid infill extrusion width = 0.45mm
; top infill extrusion width = 0.40mm
; first layer extrusion width = 0.42mm

M73 P0 R27
M73 Q0 S28
M201 X1000 Y1000 Z200 E5000 ; sets maximum accelerations, mm/sec^2
M203 X200 Y200 Z12 E120 ; sets maximum feedrates, mm/sec
M204 P1250 R1250 T1250 ; sets acceleration (P, T) and retract acceleration (R), mm/sec^2
M205 X8.00 Y8.00 Z0.40 E4.50 ; sets the jerk limits, mm/sec
M205 S0 T0 ; sets the minimum extruding and travel feed rate, mm/sec
M107
M862.3 P "MK3S" ; printer model check
M862.1 P0.4 ; nozzle diameter check
M115 U3.9.0 ; tell printer latest fw version
G90 ; use absolute coordinates
M83 ; extruder relative mode
M104 S215 ; set extruder temp
M140 S60 ; set bed temp
M190 S60 ; wait for bed temp
M109 S215 ; wait for extruder temp
G28 W ; home all without mesh bed level
G80 ; mesh bed leveling
G1 Y-3.0 F1000.0 ; go outside print area
G92 E0.0
G1 X60.0 E9.0 F1000.0 ; intro line
M73 Q0 S27
M73 P0 R27
G1 X100.0 E12.5 F1000.0 ; intro line
G92 E0.0
M221 S95
G21 ; set units to millimeters
G90 ; use absolute coordinates
M83 ; use relative distances for extrusion
M900 K0.06 ; Filament gcode LA 1.5
M900 K30 ; Filament gcode LA 1.0
;BEFORE_LAYER_CHANGE
G92 E0.0
;0.2


G1 E-0.80000 F2100.00000
G1 Z0.600 F10800.000
;AFTER_LAYER_CHANGE
;0.2
G1 X147.071 Y102.085
G1 Z0.200
G1 E0.80000 F2100.00000
M204 S1000
G1 F1200.000
G1 X147.227 Y102.881 E0.02543
G1 X147.170 Y106.451 E0.11195
G1 X143.822 Y118.088 E0.37967
G1 X143.205 Y119.429 E0.04630
G1 X142.512 Y120.412 E0.03770
G1 X141.739 Y121.200 E0.03459
G1 X140.563 Y122.057 E0.04564
G1 X139.204 Y122.670 E0.04673
G1 X138.133 Y122.948 E0.03471
G1 X137.031 Y123.053 E0.03472
G1 X112.698 Y123.058 E0.76292
G1 X111.301 Y122.832 E0.04437
G1 X110.327 Y122.513 E0.03213
G1 X109.294 Y121.988 E0.03634
G1 X108.339 Y121.291 E0.03708
G1 X107.424 Y120.349 E0.04118
G1 X106.841 Y119.532 E0.03145
G1 X106.395 Y118.667 E0.03052
G1 X105.995 Y117.518 E0.03816
G1 X102.811 Y106.358 E0.36388
G1 X102.778 Y102.773 E0.11239
G1 X102.886 Y102.210 E0.01799
G1 X103.125 Y101.688 E0.01799
G1 X103.447 Y101.274 E0.01645
G1 X106.510 Y98.212 E0.13579
G1 X117.084 Y88.174 E0.45715
G1 X117.906 Y87.592 E0.03158
G1 X119.125 Y87.130 E0.04087
G1 X120.033 Y87.013 E0.02872
G1 X130.806 Y87.010 E0.33776
G1 X131.615 Y87.082 E0.02548
G1 X132.409 Y87.298 E0.02581
G1 X133.142 Y87.646 E0.02542
G1 X133.854 Y88.163 E0.02760
G1 X146.574 Y101.297 E0.57329
G1 X147.039 Y102.034 E0.02731
G1 F8640.000
G1 X147.227 Y102.881 E-0.20028
G1 X147.188 Y105.305 E-0.55972
G1 E-0.04000 F2100.00000
G1 Z0.800 F10800.000
G1 X112.361 Y102.146
G1 Z0.200
G1 E0.80000 F2100.00000
G1 F1200.000
G1 X137.639 Y102.146 E0.79255
G1 X137.615 Y107.967 E0.18251
G1 X137.835 Y107.790 E0.00885
G1 X138.121 Y107.640 E0.01012
G1 X138.431 Y107.550 E0.01012
G1 X138.746 Y107.519 E0.00992
G1 X139.059 Y107.545 E0.00986
G1 X139.362 Y107.626 E0.00982
G1 X139.645 Y107.758 E0.00979
G1 X139.901 Y107.937 E0.00979
G1 X140.121 Y108.157 E0.00978
G1 X140.300 Y108.413 E0.00978
G1 X140.432 Y108.696 E0.00978
G1 X140.513 Y108.997 E0.00978
G1 X140.540 Y109.308 E0.00978
G1 X140.513 Y109.619 E0.00978
G1 X140.432 Y109.920 E0.00978
G1 X140.300 Y110.203 E0.00978
G1 X140.121 Y110.459 E0.00978
G1 X139.901 Y110.679 E0.00978
G1 X139.645 Y110.858 E0.00979
G1 X139.362 Y110.990 E0.00979
G1 X139.059 Y111.071 E0.00982
G1 X138.746 Y111.097 E0.00986
G1 X138.431 Y111.066 E0.00992
G1 X138.121 Y110.976 E0.01012
G1 X137.835 Y110.826 E0.01012
G1 X137.615 Y110.649 E0.00885
G1 X137.639 Y116.470 E0.18251
G1 X112.361 Y116.470 E0.79255
G1 X112.385 Y110.649 E0.18251
G1 X112.165 Y110.826 E0.00885
G1 X111.879 Y110.976 E0.01012
G1 X111.569 Y111.066 E0.01012
G1 X111.254 Y111.097 E0.00992
G1 X110.941 Y111.071 E0.00986
G1 X110.638 Y110.990 E0.00982
G1 X110.355 Y110.858 E0.00979
G1 X110.099 Y110.679 E0.00979
G1 X109.879 Y110.459 E0.00978
G1 X109.700 Y110.203 E0.00978
G1 X109.568 Y109.920 E0.00978
G1 X109.487 Y109.619 E0.00978
G1 X109.460 Y109.308 E0.00978
G1 X109.487 Y108.997 E0.00978
G1 X109.568 Y108.696 E0.00978
G1 X109.700 Y108.413 E0.00978
G1 X109.879 Y108.157 E0.00978
G1 X110.099 Y107.937 E0.00978
G1 X110.355 Y107.758 E0.00979
G1 X110.638 Y107.626 E0.00979
G1 X110.941 Y107.545 E0.00982
G1 X111.254 Y107.519 E0.00986
G1 X111.569 Y107.550 E0.00992
G1 X111.879 Y107.640 E0.01012
G1 X112.165 Y107.790 E0.01012
G1 X112.385 Y107.967 E0.00885
G1 X112.362 Y102.206 E0.18063
G1 F8640.000
G1 X115.653 Y102.198 E-0.76000
G1 E-0.04000 F2100.00000
G1 Z0.800 F10800.000
G1 X137.581 Y108.679
G1 Z0.200
G1 E0.80000 F2100.00000
G1 F1200.000
G1 X137.694 Y108.457 E0.00783
G1 X137.848 Y108.263 E0.00777
G1 X138.043 Y108.107 E0.00781
G1 X138.263 Y107.991 E0.00780
G1 X138.502 Y107.922 E0.00782
G1 X138.749 Y107.898 E0.00776
G1 X138.994 Y107.918 E0.00774
G1 X139.233 Y107.982 E0.00773
G1 X139.456 Y108.086 E0.00772
G1 X139.657 Y108.227 E0.00772
G1 X139.831 Y108.401 E0.00772
G1 X139.972 Y108.602 E0.00771
G1 X140.076 Y108.825 E0.00772
G1 X140.140 Y109.063 E0.00771
G1 X140.162 Y109.308 E0.00771
G1 X140.140 Y109.553 E0.00771
G1 X140.076 Y109.791 E0.00771
G1 X139.972 Y110.014 E0.00772
G1 X139.831 Y110.215 E0.00771
G1 X139.657 Y110.389 E0.00771
G1 X139.456 Y110.531 E0.00772
G1 X139.233 Y110.635 E0.00772
G1 X138.994 Y110.698 E0.00773
G1 X138.749 Y110.718 E0.00774
G1 X138.502 Y110.694 E0.00776
G1 X138.263 Y110.625 E0.00782
G1 X138.043 Y110.509 E0.00780
G1 X137.848 Y110.353 E0.00781
G1 X137.694 Y110.159 E0.00777
G1 X137.583 Y109.942 E0.00765
G1 X137.497 Y109.507 E0.01390
G1 X137.497 Y109.104 E0.01265
G1 X137.569 Y108.738 E0.01168
G1 X137.420 Y108.488 F10800.000
G1 F8640.000
G1 X137.694 Y108.457 E-0.07108
G1 X137.848 Y108.263 E-0.05724
G1 X138.043 Y108.107 E-0.05751
G1 X138.263 Y107.991 E-0.05742
G1 X138.502 Y107.922 E-0.05756
G1 X138.749 Y107.898 E-0.05712
G1 X138.994 Y107.918 E-0.05698
G1 X139.233 Y107.982 E-0.05691
G1 X139.456 Y108.086 E-0.05684
G1 X139.657 Y108.227 E-0.05682
G1 X139.831 Y108.401 E-0.05682
G1 X139.972 Y108.602 E-0.05681
G1 X140.076 Y108.825 E-0.05682
G1 X140.081 Y108.842 E-0.00408
G1 E-0.04000 F2100.00000
G1 Z0.800 F10800.000
G1 X112.739 Y102.523
G1 Z0.200
G1 E0.80000 F2100.00000
G1 F1200.000
G1 X137.261 Y102.523 E0.76884
G1 X137.247 Y107.847 E0.16692
G1 X137.112 Y109.308 E0.04601
G1 X137.247 Y110.769 E0.04601
G1 X137.261 Y116.093 E0.16692
G1 X112.739 Y116.093 E0.76884
G1 X112.753 Y110.769 E0.16692
G1 X112.888 Y109.308 E0.04601
G1 X112.753 Y107.847 E0.04601
G1 X112.740 Y102.583 E0.16504
G1 X112.737 Y102.123 F10800.000
G1 F8640.000
G1 X116.031 Y102.575 E-0.76000
G1 E-0.04000 F2100.00000
G1 Z0.800 F10800.000
G1 X111.498 Y107.922
G1 Z0.200
G1 E0.80000 F2100.00000
G1 F1200.000
G1 X111.737 Y107.991 E0.00782
G1 X111.957 Y108.107 E0.00780
G1 X112.152 Y108.263 E0.00781
G1 X112.306 Y108.457 E0.00777
G1 X112.417 Y108.674 E0.00765
G1 X112.473 Y108.897 E0.00721
G1 X112.503 Y109.109 E0.00671
G1 X112.503 Y109.513 E0.01265
G1 X112.419 Y109.937 E0.01356
G1 X112.306 Y110.159 E0.00783
G1 X112.152 Y110.353 E0.00777
G1 X111.957 Y110.509 E0.00781
G1 X111.737 Y110.625 E0.00780
G1 X111.498 Y110.694 E0.00782
G1 X111.252 Y110.718 E0.00776
G1 X111.006 Y110.698 E0.00774
G1 X110.767 Y110.635 E0.00773
G1 X110.544 Y110.531 E0.00772
G1 X110.343 Y110.389 E0.00772
G1 X110.169 Y110.215 E0.00772
G1 X110.028 Y110.014 E0.00771
G1 X109.924 Y109.791 E0.00771
G1 X109.860 Y109.553 E0.00771
G1 X109.838 Y109.308 E0.00771
G1 X109.860 Y109.063 E0.00771
G1 X109.924 Y108.825 E0.00771
G1 X110.028 Y108.602 E0.00771
G1 X110.169 Y108.401 E0.00771
G1 X110.343 Y108.227 E0.00772
G1 X110.544 Y108.086 E0.00772
G1 X110.767 Y107.982 E0.00772
G1 X111.006 Y107.918 E0.00773
G1 X111.252 Y107.898 E0.00774
G1 X111.438 Y107.916 E0.00587
G1 X111.661 Y107.733 F10800.000
G1 F8640.000
G1 X111.737 Y107.991 E-0.07123
G1 X111.957 Y108.107 E-0.05742
G1 X112.152 Y108.263 E-0.05751
G1 X112.306 Y108.457 E-0.05724
G1 X112.417 Y108.674 E-0.05637
G1 X112.473 Y108.897 E-0.05313
G1 X112.503 Y109.109 E-0.04940
G1 X112.503 Y109.513 E-0.09313
G1 X112.419 Y109.937 E-0.09987
G1 X112.306 Y110.159 E-0.05765
G1 X112.152 Y110.353 E-0.05724
G1 X111.983 Y110.488 E-0.04982
G1 E-0.04000 F2100.00000
G1 Z0.800 F10800.000
G1 X141.063 Y103.720
G1 Z0.200
G1 E0.80000 F2100.00000
G1 F1200.000
G1 X144.063 Y103.720 E0.09406
G1 X144.063 Y105.628 E0.05983
G1 X143.473 Y106.276 E0.02746
G1 X142.756 Y107.270 E0.03842
G1 X142.157 Y108.338 E0.03842
G1 X141.682 Y109.468 E0.03842
G1 X141.339 Y110.644 E0.03842
G1 X141.131 Y111.851 E0.03842
G1 X141.063 Y113.052 E0.03771
G1 X141.063 Y115.649 E0.08141
G1 X140.996 Y116.414 E0.02409
G1 X140.806 Y117.123 E0.02301
G1 X140.496 Y117.788 E0.02301
G1 X140.075 Y118.389 E0.02301
G1 X139.556 Y118.908 E0.02301
G1 X138.955 Y119.329 E0.02301
G1 X138.290 Y119.639 E0.02301
G1 X137.581 Y119.829 E0.02301
G1 X136.816 Y119.896 E0.02409
G1 X112.849 Y119.896 E0.75145
G1 X112.185 Y119.795 E0.02106
G1 X111.548 Y119.591 E0.02097
G1 X110.951 Y119.289 E0.02097
G1 X110.409 Y118.897 E0.02097
G1 X109.936 Y118.424 E0.02097
G1 X109.544 Y117.882 E0.02097
G1 X109.242 Y117.285 E0.02097
G1 X109.038 Y116.648 E0.02097
G1 X108.937 Y115.984 E0.02106
G1 X108.937 Y113.052 E0.09192
G1 X108.869 Y111.851 E0.03771
G1 X108.661 Y110.644 E0.03842
G1 X108.318 Y109.468 E0.03842
G1 X107.843 Y108.338 E0.03842
G1 X107.244 Y107.270 E0.03842
G1 X106.527 Y106.276 E0.03842
G1 X105.937 Y105.628 E0.02746
G1 X105.937 Y103.720 E0.05983
G1 X108.937 Y103.720 E0.09406
G1 X108.937 Y100.720 E0.09406
G1 X141.063 Y100.720 E1.00728
G1 X141.063 Y103.660 E0.09218
G1 X141.440 Y103.343 F10800.000
G1 F1200.000
G1 X144.440 Y103.343 E0.09406
G1 X144.440 Y105.774 E0.07623
G1 X143.767 Y106.514 E0.03136
G1 X143.075 Y107.473 E0.03707
G1 X142.496 Y108.504 E0.03707
G1 X142.038 Y109.594 E0.03707
G1 X141.707 Y110.729 E0.03707
G1 X141.506 Y111.894 E0.03707
G1 X141.440 Y113.063 E0.03670
G1 X141.440 Y115.665 E0.08159
G1 X141.369 Y116.480 E0.02564
G1 X141.162 Y117.252 E0.02508
G1 X140.824 Y117.977 E0.02508
G1 X140.365 Y118.632 E0.02508
G1 X139.799 Y119.198 E0.02508
G1 X139.144 Y119.657 E0.02508
G1 X138.419 Y119.995 E0.02508
G1 X137.647 Y120.202 E0.02508
G1 X136.832 Y120.273 E0.02564
G1 X112.821 Y120.273 E0.75286
G1 X112.099 Y120.163 E0.02290
G1 X111.405 Y119.941 E0.02285
G1 X110.754 Y119.612 E0.02285
G1 X110.164 Y119.184 E0.02285
G1 X109.649 Y118.669 E0.02285
G1 X109.221 Y118.079 E0.02285
G1 X108.892 Y117.429 E0.02285
G1 X108.670 Y116.734 E0.02285
G1 X108.560 Y116.012 E0.02290
G1 X108.560 Y113.063 E0.09248
G1 X108.494 Y111.894 E0.03670
G1 X108.293 Y110.729 E0.03707
G1 X107.962 Y109.594 E0.03707
G1 X107.504 Y108.504 E0.03707
G1 X106.925 Y107.473 E0.03707
G1 X106.233 Y106.514 E0.03707
G1 X105.560 Y105.774 E0.03136
G1 X105.560 Y103.343 E0.07623
G1 X108.560 Y103.343 E0.09406
G1 X108.560 Y100.343 E0.09406
G1 X141.440 Y100.343 E1.03093
G1 X141.440 Y103.283 E0.09218
G1 X141.629 Y103.695 F10800.000
G1 F8640.000
G1 X144.440 Y103.343 E-0.69285
G1 X144.440 Y103.634 E-0.06715
G1 E-0.04000 F2100.00000
G1 Z0.800 F10800.000
G1 X140.179 Y100.833
G1 Z0.200
G1 E0.80000 F2100.00000
G1 F1200.000
G1 X140.780 Y101.434 E0.02694
G1 X140.780 Y101.973 E0.01708
G1 X139.810 Y101.003 E0.04349
G1 X139.271 Y101.003 E0.01708
G1 X140.780 Y102.512 E0.06765
G1 X140.780 Y103.051 E0.01708
G1 X138.732 Y101.003 E0.09180
G1 X138.193 Y101.003 E0.01708
G1 X140.780 Y103.590 E0.11596
G1 X140.780 Y104.003 E0.01308
G1 X141.193 Y104.003 E0.01308
G1 X143.270 Y106.080 E0.09307
G1 X143.526 Y105.798 E0.01209
G1 X141.732 Y104.003 E0.08043
G1 X142.271 Y104.003 E0.01708
G1 X143.780 Y105.512 E0.06765
G1 X143.780 Y104.973 E0.01708
G1 X142.810 Y104.003 E0.04349
G1 X143.349 Y104.003 E0.01708
G1 X143.950 Y104.604 E0.02694
G1 F8640.000
G1 X143.349 Y104.003 E-0.19630
G1 X142.810 Y104.003 E-0.12445
G1 X143.780 Y104.973 E-0.31689
G1 X143.780 Y105.503 E-0.12235
G1 E-0.04000 F2100.00000
G1 Z0.800 F10800.000
G1 X143.163 Y106.512
G1 Z0.200
G1 E0.80000 F2100.00000
G1 F1200.000
G1 X137.654 Y101.003 E0.24691
G1 X137.115 Y101.003 E0.01708
G1 X142.816 Y106.704 E0.25550
G1 X142.590 Y107.017 E0.01223
G1 X137.921 Y102.348 E0.20927
G1 X137.918 Y102.884 E0.01701
G1 X142.386 Y107.352 E0.20022
G1 X142.192 Y107.697 E0.01255
G1 X137.916 Y103.421 E0.19164
G1 X137.914 Y103.958 E0.01701
G1 X141.999 Y108.043 E0.18305
G1 X141.822 Y108.405 E0.01278
G1 X137.912 Y104.495 E0.17524
G1 X137.910 Y105.032 E0.01701
G1 X141.663 Y108.785 E0.16820
G1 X141.503 Y109.164 E0.01305
G1 X137.907 Y105.568 E0.16115
G1 X137.905 Y106.105 E0.01701
G1 X139.062 Y107.262 E0.05182
G1 X138.744 Y107.235 E0.01011
G1 X138.518 Y107.257 E0.00718
G1 X137.903 Y106.642 E0.02757
G1 X137.901 Y107.179 E0.01701
G1 X138.216 Y107.494 E0.01414
G1 F8640.000
G1 X137.901 Y107.179 E-0.10302
G1 X137.903 Y106.642 E-0.12395
G1 X138.518 Y107.257 E-0.20088
G1 X138.744 Y107.235 E-0.05232
G1 X139.062 Y107.262 E-0.07364
G1 X138.430 Y106.630 E-0.20618
G1 E-0.04000 F2100.00000
G1 Z0.800 F10800.000
G1 X137.573 Y108.271
G1 Z0.200
G1 E0.80000 F2100.00000
G1 F1200.000
G1 X137.378 Y108.480 E0.00154
G1 X137.388 Y108.598 F10800.000
G1 F1200.000
G1 X137.427 Y108.462 E0.00094
G1 X137.466 Y108.327 E0.00129
G1 F8640.000
G1 X137.427 Y108.462 E-0.03246
G1 E-0.76754 F2100.00000
G1 Z0.800 F10800.000
G1 X137.466 Y110.289
G1 Z0.200
G1 E0.80000 F2100.00000
G1 F1200.000
G1 X137.427 Y110.154 E0.00129
G1 X137.388 Y110.019 E0.00094
G1 X137.378 Y110.136 F10800.000
G1 F1200.000
G1 X137.573 Y110.345 E0.00154
G1 F8640.000
G1 X137.378 Y110.136 E-0.06597
G1 E-0.73403 F2100.00000
G1 Z0.800 F10800.000
G1 X141.498 Y109.698
G1 Z0.200
G1 E0.80000 F2100.00000
G1 F1200.000
G1 X140.797 Y108.997 E0.03141
G1 X140.824 Y109.308 E0.00990
G1 X140.803 Y109.542 E0.00745
G1 X141.239 Y109.978 E0.01951
G1 X141.117 Y110.395 E0.01377
G1 X140.707 Y109.985 E0.01836
G1 X140.539 Y110.356 E0.01289
G1 X141.019 Y110.836 E0.02153
G1 X140.940 Y111.296 E0.01479
G1 X140.312 Y110.668 E0.02814
G1 X140.035 Y110.930 E0.01208
G1 X140.861 Y111.756 E0.03699
G1 X140.825 Y112.259 E0.01598
G1 X139.707 Y111.141 E0.05008
G1 X139.459 Y111.257 E0.00870
G1 X139.321 Y111.294 E0.00451
G1 X140.796 Y112.769 E0.06609
G1 X140.780 Y113.292 E0.01659
G1 X138.859 Y111.371 E0.08608
G1 X138.744 Y111.381 E0.00368
G1 X138.377 Y111.345 E0.01167
G1 X138.261 Y111.311 E0.00385
G1 X140.780 Y113.831 E0.11292
G1 X140.780 Y114.370 E0.01708
G1 X137.901 Y111.491 E0.12903
G1 X137.903 Y112.032 E0.01715
G1 X140.780 Y114.909 E0.12893
G1 X140.780 Y115.448 E0.01708
G1 X137.906 Y112.573 E0.12883
G1 X137.908 Y113.114 E0.01715
G1 X140.752 Y115.959 E0.12747
G1 X140.696 Y116.442 E0.01541
G1 X137.910 Y113.656 E0.12485
G1 X137.912 Y114.197 E0.01715
G1 X140.582 Y116.867 E0.11965
G1 X140.539 Y117.026 E0.00523
G1 X140.432 Y117.256 E0.00804
G1 X137.914 Y114.738 E0.11284
G1 X137.917 Y115.279 E0.01715
G1 X140.261 Y117.623 E0.10506
G1 X140.042 Y117.943 E0.01229
G1 X137.919 Y115.820 E0.09515
G1 X137.921 Y116.361 E0.01715
G1 X139.812 Y118.252 E0.08474
G1 X139.542 Y118.522 E0.01208
G1 X137.773 Y116.753 E0.07928
G1 X137.234 Y116.753 E0.01708
G1 X139.255 Y118.774 E0.09056
G1 X138.938 Y118.996 E0.01226
G1 X136.695 Y116.753 E0.10051
G1 X136.156 Y116.753 E0.01708
G1 X138.590 Y119.187 E0.10908
G1 X138.223 Y119.358 E0.01285
G1 X135.617 Y116.753 E0.11676
G1 X135.079 Y116.753 E0.01708
G1 X137.802 Y119.477 E0.12208
G1 X137.532 Y119.549 E0.00888
G1 X137.352 Y119.565 E0.00572
G1 X134.540 Y116.753 E0.12603
G1 X134.001 Y116.753 E0.01708
G1 X136.856 Y119.609 E0.12798
G1 X136.322 Y119.613 E0.01693
G1 X133.462 Y116.753 E0.12819
G1 X132.923 Y116.753 E0.01708
G1 X135.783 Y119.613 E0.12819
G1 X135.244 Y119.613 E0.01708
G1 X132.384 Y116.753 E0.12819
G1 X131.845 Y116.753 E0.01708
G1 X134.705 Y119.613 E0.12819
G1 X134.166 Y119.613 E0.01708
G1 X131.306 Y116.753 E0.12819
G1 X130.767 Y116.753 E0.01708
G1 X133.627 Y119.613 E0.12819
G1 X133.088 Y119.613 E0.01708
G1 X130.228 Y116.753 E0.12819
G1 X129.689 Y116.753 E0.01708
G1 X132.549 Y119.613 E0.12819
G1 X132.010 Y119.613 E0.01708
G1 X129.150 Y116.753 E0.12819
G1 X128.611 Y116.753 E0.01708
