; generated by PrusaSlicer 2.2.0+win64 on 2020-07-28 at 20:56:20 UTC

; 

; external perimeters extrusion width = 0.45mm
; perimeters extrusion width = 0.45mm
; infill extrusion width = 0.45mm
; solid infill extrusion width = 0.45mm
; top infill extrusion width = 0.40mm
; support material extrusion width = 0.35mm
; first layer extrusion width = 0.42mm

M73 P0 R123
M73 Q0 S124
M201 X1000 Y1000 Z200 E5000 ; sets maximum accelerations, mm/sec^2
M203 X200 Y200 Z12 E120 ; sets maximum feedrates, mm/sec
M204 P1250 R1250 T1250 ; sets acceleration (P, T) and retract acceleration (R), mm/sec^2
M205 X8.00 Y8.00 Z0.40 E4.50 ; sets the jerk limits, mm/sec
M205 S0 T0 ; sets the minimum extruding and travel feed rate, mm/sec
M107
M862.3 P "MK3S" ; printer model check
M862.1 P0.4 ; nozzle diameter check
M115 U3.9.0 ; tell printer latest fw version
G90 ; use absolute coordinates
M83 ; extruder relative mode
M104 S215 ; set extruder temp
M140 S60 ; set bed temp
M190 S60 ; wait for bed temp
M109 S215 ; wait for extruder temp
G28 W ; home all without mesh bed level
G80 ; mesh bed leveling
G1 Y-3.0 F1000.0 ; go outside print area
G92 E0.0
G1 X60.0 E9.0 F1000.0 ; intro line
M73 Q0 S124
M73 P0 R123
G1 X100.0 E12.5 F1000.0 ; intro line
G92 E0.0
M221 S95
G21 ; set units to millimeters
G90 ; use absolute coordinates
M83 ; use relative distances for extrusion
M900 K0.06 ; Filament gcode LA 1.5
M900 K30 ; Filament gcode LA 1.0
;BEFORE_LAYER_CHANGE
G92 E0.0
;0.2


G1 E-0.80000 F2100.00000
G1 Z0.600 F10800.000
;AFTER_LAYER_CHANGE
;0.2
G1 X169.785 Y120.297
G1 Z0.200
G1 E0.80000 F2100.00000
M204 S1000
G1 F1200.000
G1 X169.540 Y120.811 E0.01787
G1 X168.265 Y122.688 E0.07113
G1 X166.868 Y124.351 E0.06812
G1 X165.285 Y125.888 E0.06919
G1 X163.390 Y127.368 E0.07539
G1 X161.581 Y128.502 E0.06692
G1 X159.637 Y129.462 E0.06799
G1 X157.467 Y130.270 E0.07261
G1 X155.398 Y130.801 E0.06697
G1 X152.956 Y131.160 E0.07740
G1 X102.171 Y132.496 E1.59287
G1 X99.820 Y132.352 E0.07385
G1 X97.526 Y131.956 E0.07299
G1 X95.479 Y131.386 E0.06664
G1 X93.494 Y130.611 E0.06680
G1 X91.394 Y129.534 E0.07400
G1 X89.507 Y128.293 E0.07081
G1 X87.762 Y126.863 E0.07074
G1 X86.106 Y125.178 E0.07406
G1 X84.770 Y123.508 E0.06706
G1 X83.621 Y121.731 E0.06636
G1 X82.555 Y119.649 E0.07332
G1 X81.738 Y117.512 E0.07174
G1 X81.164 Y115.358 E0.06990
G1 X80.810 Y113.123 E0.07095
G1 X80.696 Y110.990 E0.06697
G1 X80.808 Y108.638 E0.07384
G1 X81.135 Y106.537 E0.06667
G1 X81.777 Y104.117 E0.07849
G1 X82.540 Y102.124 E0.06692
G1 X83.555 Y100.117 E0.07050
G1 X84.771 Y98.230 E0.07039
G1 X86.174 Y96.483 E0.07025
G1 X87.757 Y94.881 E0.07063
G1 X89.496 Y93.455 E0.07050
G1 X91.364 Y92.224 E0.07014
G1 X93.344 Y91.195 E0.06998
G1 X95.461 Y90.360 E0.07135
G1 X97.626 Y89.759 E0.07043
G1 X99.843 Y89.386 E0.07050
G1 X101.973 Y89.249 E0.06691
G1 X150.835 Y87.996 E1.53253
G1 X153.160 Y88.103 E0.07299
G1 X155.276 Y88.415 E0.06705
G1 X157.330 Y88.935 E0.06643
G1 X159.550 Y89.743 E0.07407
G1 X161.631 Y90.770 E0.07278
G1 X163.485 Y91.939 E0.06871
G1 X165.151 Y93.243 E0.06631
G1 X166.832 Y94.854 E0.07301
G1 X168.366 Y96.690 E0.07503
G1 X169.579 Y98.497 E0.06824
G1 X169.858 Y99.214 E0.02414
G1 X169.910 Y99.702 E0.01538
G1 X169.910 Y119.545 E0.62215
G1 X169.795 Y120.237 E0.02202
G1 F8640.000
G1 X169.540 Y120.811 E-0.14497
G1 X168.265 Y122.688 E-0.52379
G1 X168.011 Y122.990 E-0.09124
G1 E-0.04000 F2100.00000
G1 Z0.800 F10800.000
G1 X110.373 Y112.214
G1 Z0.200
G1 E0.80000 F2100.00000
G1 F1200.000
G1 X110.042 Y113.522 E0.04228
G1 X109.501 Y114.756 E0.04228
G1 X108.763 Y115.885 E0.04228
G1 X107.850 Y116.877 E0.04228
G1 X106.786 Y117.706 E0.04228
G1 X105.600 Y118.347 E0.04228
G1 X104.324 Y118.785 E0.04228
G1 X102.994 Y119.007 E0.04228
G1 X101.646 Y119.007 E0.04228
G1 X100.316 Y118.785 E0.04228
G1 X99.040 Y118.347 E0.04228
G1 X97.854 Y117.706 E0.04228
G1 X96.790 Y116.877 E0.04228
G1 X95.877 Y115.885 E0.04228
G1 X95.139 Y114.756 E0.04228
G1 X94.597 Y113.522 E0.04228
G1 X94.266 Y112.214 E0.04228
G1 X94.194 Y111.340 E0.02751
G1 X94.155 Y110.870 E0.01478
G1 X94.266 Y109.527 E0.04228
G1 X94.597 Y108.219 E0.04228
G1 X95.139 Y106.984 E0.04228
G1 X95.877 Y105.855 E0.04228
G1 X96.790 Y104.863 E0.04228
G1 X97.854 Y104.035 E0.04228
G1 X99.040 Y103.393 E0.04228
G1 X100.316 Y102.955 E0.04228
G1 X101.646 Y102.734 E0.04228
G1 X102.994 Y102.734 E0.04228
G1 X104.324 Y102.955 E0.04228
G1 X105.600 Y103.393 E0.04228
G1 X106.786 Y104.035 E0.04228
G1 X107.850 Y104.863 E0.04228
G1 X108.763 Y105.855 E0.04228
G1 X109.501 Y106.984 E0.04228
G1 X110.042 Y108.219 E0.04228
G1 X110.373 Y109.527 E0.04228
G1 X110.485 Y110.870 E0.04228
G1 X110.378 Y112.154 E0.04040
G1 X110.002 Y112.123 F10800.000
G1 F1200.000
G1 X109.684 Y113.399 E0.04121
G1 X109.168 Y114.576 E0.04032
G1 X108.464 Y115.653 E0.04032
G1 X107.593 Y116.599 E0.04032
G1 X106.579 Y117.389 E0.04032
G1 X105.448 Y118.001 E0.04032
G1 X104.231 Y118.419 E0.04032
G1 X102.963 Y118.630 E0.04032
G1 X101.677 Y118.630 E0.04032
G1 X100.408 Y118.419 E0.04032
G1 X99.192 Y118.001 E0.04032
G1 X98.061 Y117.389 E0.04032
G1 X97.046 Y116.599 E0.04032
G1 X96.175 Y115.653 E0.04032
G1 X95.472 Y114.576 E0.04032
G1 X94.955 Y113.399 E0.04032
G1 X94.640 Y112.152 E0.04032
G1 X94.533 Y110.870 E0.04032
G1 X94.640 Y109.589 E0.04032
G1 X94.955 Y108.342 E0.04032
G1 X95.472 Y107.164 E0.04032
G1 X96.175 Y106.088 E0.04032
G1 X97.046 Y105.142 E0.04032
G1 X98.061 Y104.352 E0.04032
G1 X99.192 Y103.740 E0.04032
G1 X100.408 Y103.322 E0.04032
G1 X101.677 Y103.111 E0.04032
G1 X102.963 Y103.111 E0.04032
G1 X104.231 Y103.322 E0.04032
G1 X105.448 Y103.740 E0.04032
G1 X106.579 Y104.352 E0.04032
G1 X107.593 Y105.142 E0.04032
G1 X108.464 Y106.088 E0.04032
G1 X109.168 Y107.164 E0.04032
G1 X109.684 Y108.342 E0.04032
G1 X110.000 Y109.589 E0.04032
G1 X110.106 Y110.870 E0.04032
G1 X110.007 Y112.064 E0.03754
G1 X110.312 Y112.377 F10800.000
G1 F8640.000
G1 X109.684 Y113.399 E-0.31717
G1 X109.168 Y114.576 E-0.29694
G1 X108.822 Y115.105 E-0.14589
G1 E-0.04000 F2100.00000
G1 Z0.800 F10800.000
G1 X118.033 Y120.545
G1 Z0.200
G1 E0.80000 F2100.00000
G1 F1200.000
G1 X117.071 Y121.971 E0.05393
G1 X115.839 Y123.443 E0.06019
G1 X114.461 Y124.779 E0.06019
G1 X112.951 Y125.964 E0.06019
G1 X111.326 Y126.987 E0.06019
G1 X109.604 Y127.835 E0.06019
G1 X107.803 Y128.499 E0.06019
G1 X105.943 Y128.973 E0.06019
G1 X104.044 Y129.252 E0.06019
G1 X102.126 Y129.331 E0.06019
G1 X100.210 Y129.211 E0.06019
G1 X98.317 Y128.893 E0.06019
G1 X96.468 Y128.380 E0.06019
G1 X94.681 Y127.678 E0.06019
G1 X92.977 Y126.794 E0.06019
G1 X91.374 Y125.738 E0.06019
G1 X89.890 Y124.521 E0.06019
G1 X88.540 Y123.156 E0.06019
G1 X87.338 Y121.659 E0.06019
G1 X86.299 Y120.045 E0.06019
G1 X85.433 Y118.332 E0.06019
G1 X84.750 Y116.539 E0.06019
G1 X84.256 Y114.684 E0.06019
G1 X83.958 Y112.787 E0.06019
G1 X83.858 Y110.870 E0.06019
G1 X83.958 Y108.953 E0.06019
G1 X84.256 Y107.057 E0.06019
G1 X84.750 Y105.202 E0.06019
G1 X85.433 Y103.409 E0.06019
G1 X86.299 Y101.695 E0.06019
G1 X87.338 Y100.082 E0.06019
G1 X88.540 Y98.584 E0.06019
G1 X89.890 Y97.220 E0.06019
G1 X91.374 Y96.003 E0.06019
G1 X92.977 Y94.947 E0.06019
G1 X94.681 Y94.063 E0.06019
G1 X96.468 Y93.361 E0.06019
G1 X98.317 Y92.848 E0.06019
G1 X100.210 Y92.529 E0.06019
G1 X102.126 Y92.410 E0.06019
G1 X104.044 Y92.489 E0.06019
G1 X105.943 Y92.768 E0.06019
G1 X107.803 Y93.242 E0.06019
G1 X109.604 Y93.906 E0.06019
G1 X111.326 Y94.754 E0.06019
G1 X112.951 Y95.777 E0.06019
G1 X114.461 Y96.962 E0.06019
G1 X115.839 Y98.298 E0.06019
G1 X117.071 Y99.769 E0.06019
G1 X118.033 Y101.196 E0.05393
G1 X118.033 Y120.485 E0.60481
G1 X118.410 Y120.660 F10800.000
G1 F1200.000
G1 X117.373 Y122.198 E0.05816
G1 X116.116 Y123.700 E0.06142
G1 X114.709 Y125.063 E0.06142
G1 X113.168 Y126.273 E0.06142
G1 X111.510 Y127.316 E0.06142
G1 X109.753 Y128.181 E0.06142
G1 X107.915 Y128.860 E0.06142
G1 X106.017 Y129.343 E0.06142
G1 X104.079 Y129.628 E0.06142
G1 X102.122 Y129.709 E0.06142
G1 X100.167 Y129.586 E0.06142
G1 X98.235 Y129.262 E0.06142
G1 X96.348 Y128.738 E0.06142
G1 X94.525 Y128.022 E0.06142
G1 X92.786 Y127.120 E0.06142
G1 X91.151 Y126.042 E0.06142
G1 X89.636 Y124.800 E0.06142
G1 X88.258 Y123.408 E0.06142
G1 X87.032 Y121.880 E0.06142
G1 X85.972 Y120.233 E0.06142
G1 X85.088 Y118.485 E0.06142
G1 X84.390 Y116.654 E0.06142
G1 X83.887 Y114.762 E0.06142
G1 X83.582 Y112.827 E0.06142
G1 X83.480 Y110.870 E0.06142
G1 X83.582 Y108.914 E0.06142
G1 X83.887 Y106.979 E0.06142
G1 X84.390 Y105.086 E0.06142
G1 X85.088 Y103.256 E0.06142
G1 X85.972 Y101.508 E0.06142
G1 X87.032 Y99.861 E0.06142
G1 X88.258 Y98.333 E0.06142
G1 X89.636 Y96.941 E0.06142
G1 X91.151 Y95.699 E0.06142
G1 X92.786 Y94.621 E0.06142
G1 X94.525 Y93.719 E0.06142
G1 X96.348 Y93.003 E0.06142
G1 X98.235 Y92.479 E0.06142
G1 X100.167 Y92.154 E0.06142
G1 X102.122 Y92.032 E0.06142
G1 X104.079 Y92.113 E0.06142
G1 X106.017 Y92.397 E0.06142
G1 X107.915 Y92.881 E0.06142
G1 X109.753 Y93.559 E0.06142
G1 X111.510 Y94.425 E0.06142
G1 X113.168 Y95.468 E0.06142
G1 X114.709 Y96.677 E0.06142
G1 X116.116 Y98.041 E0.06142
G1 X117.373 Y99.542 E0.06142
G1 X118.410 Y101.080 E0.05816
G1 X118.410 Y120.600 E0.61203
G1 X118.014 Y120.718 F10800.000
G1 F8640.000
G1 X117.373 Y122.198 E-0.43985
G1 X116.483 Y123.261 E-0.32015
G1 E-0.04000 F2100.00000
G1 Z0.800 F10800.000
G1 X117.920 Y115.227
G1 Z0.200
G1 E0.80000 F2100.00000
G1 F1200.000
G1 X109.913 Y107.221 E0.35625
G1 X110.320 Y108.162 E0.03227
G1 X117.750 Y115.593 E0.33061
G1 X117.750 Y116.128 E0.01684
G1 X110.501 Y108.879 E0.32254
G1 X110.653 Y109.480 E0.01950
G1 X110.661 Y109.574 E0.00297
G1 X117.750 Y116.663 E0.31542
G1 X117.750 Y117.198 E0.01684
G1 X110.709 Y110.157 E0.31327
G1 X110.758 Y110.741 E0.01842
G1 X117.750 Y117.733 E0.31112
G1 X117.750 Y118.268 E0.01684
G1 X110.737 Y111.255 E0.31206
G1 X110.696 Y111.749 E0.01560
G1 X117.750 Y118.803 E0.31388
G1 X117.750 Y119.339 E0.01684
G1 X110.655 Y112.243 E0.31570
G1 X110.549 Y112.673 E0.01391
G1 X117.750 Y119.874 E0.32041
G1 X117.750 Y120.409 E0.01684
G1 X110.441 Y113.100 E0.32522
G1 X110.333 Y113.527 E0.01386
G1 X117.555 Y120.749 E0.32134
G1 X117.339 Y121.068 E0.01213
G1 X110.181 Y113.910 E0.31851
G1 X110.018 Y114.282 E0.01278
G1 X117.124 Y121.388 E0.31618
G1 X116.908 Y121.707 E0.01213
G1 X109.854 Y114.654 E0.31386
G1 X109.750 Y114.891 E0.00817
G1 X109.674 Y115.008 E0.00439
G1 X116.673 Y122.007 E0.31141
G1 X116.429 Y122.298 E0.01195
G1 X109.462 Y115.332 E0.30997
G1 X109.251 Y115.655 E0.01216
G1 X116.185 Y122.589 E0.30852
G1 X115.941 Y122.881 E0.01195
G1 X109.040 Y115.979 E0.30708
G1 X108.794 Y116.269 E0.01195
G1 X115.697 Y123.172 E0.30714
G1 X115.433 Y123.443 E0.01191
G1 X108.538 Y116.548 E0.30680
G1 X108.281 Y116.826 E0.01191
G1 X115.161 Y123.706 E0.30612
G1 X114.889 Y123.969 E0.01191
G1 X108.022 Y117.102 E0.30557
G1 X107.721 Y117.336 E0.01200
G1 X114.618 Y124.233 E0.30687
G1 X114.346 Y124.496 E0.01191
G1 X107.420 Y117.570 E0.30816
G1 X107.119 Y117.804 E0.01200
G1 X114.054 Y124.739 E0.30854
G1 X113.754 Y124.974 E0.01199
G1 X106.799 Y118.020 E0.30943
G1 X106.452 Y118.208 E0.01242
G1 X113.454 Y125.210 E0.31154
G1 X113.154 Y125.445 E0.01199
G1 X106.105 Y118.396 E0.31366
G1 X105.758 Y118.584 E0.01242
G1 X112.854 Y125.680 E0.31577
G1 X112.788 Y125.733 E0.00267
G1 X112.532 Y125.893 E0.00949
G1 X105.366 Y118.727 E0.31887
G1 X104.967 Y118.864 E0.01325
G1 X112.204 Y126.100 E0.32198
G1 X111.876 Y126.307 E0.01221
G1 X104.569 Y119.000 E0.32509
G1 X104.394 Y119.060 E0.00583
G1 X104.137 Y119.103 E0.00819
G1 X111.547 Y126.513 E0.32971
G1 X111.219 Y126.720 E0.01221
G1 X103.678 Y119.180 E0.33550
G1 X103.220 Y119.256 E0.01463
G1 X110.863 Y126.899 E0.34007
G1 X110.504 Y127.076 E0.01257
G1 X102.719 Y119.290 E0.34643
G1 X102.183 Y119.290 E0.01684
G1 X110.146 Y127.252 E0.35428
G1 X109.787 Y127.429 E0.01257
G1 X101.648 Y119.290 E0.36214
G1 X101.011 Y119.188 E0.02030
G1 X109.423 Y127.600 E0.37428
G1 X109.032 Y127.744 E0.01311
G1 X100.369 Y119.081 E0.38546
G1 X100.246 Y119.060 E0.00393
G1 X99.587 Y118.834 E0.02191
G1 X108.641 Y127.888 E0.40286
G1 X108.250 Y128.033 E0.01311
G1 X98.286 Y118.068 E0.44338
G1 F8640.000
G1 X100.613 Y120.395 E-0.76000
G1 E-0.04000 F2100.00000
G1 Z0.800 F10800.000
G1 X95.060 Y114.843
G1 Z0.200
G1 E0.80000 F2100.00000
G1 F1200.000
G1 X85.154 Y104.936 E0.44079
G1 X85.301 Y104.549 E0.01305
G1 X94.316 Y113.564 E0.40112
M73 Q0 S123
G1 X94.135 Y112.847 E0.02326
G1 X85.449 Y104.161 E0.38647
M73 P0 R122
G1 X85.597 Y103.774 E0.01305
G1 X93.978 Y112.155 E0.37291
G1 X93.929 Y111.571 E0.01842
G1 X85.756 Y103.397 E0.36369
G1 X85.935 Y103.042 E0.01253
G1 X93.881 Y110.988 E0.35354
G1 X93.871 Y110.870 E0.00370
G1 X93.904 Y110.476 E0.01246
G1 X86.115 Y102.687 E0.34657
G1 X86.295 Y102.331 E0.01253
G1 X93.945 Y109.981 E0.34039
G1 X93.986 Y109.487 E0.01560
G1 X86.474 Y101.976 E0.33422
G1 X86.672 Y101.639 E0.01230
G1 X94.093 Y109.059 E0.33018
G1 X94.201 Y108.632 E0.01386
G1 X86.882 Y101.313 E0.32567
G1 X87.091 Y100.988 E0.01218
G1 X94.309 Y108.205 E0.32115
G1 X94.462 Y107.823 E0.01295
G1 X87.301 Y100.662 E0.31864
G1 X87.511 Y100.337 E0.01218
G1 X94.626 Y107.451 E0.31657
G1 X94.789 Y107.079 E0.01278
G1 X87.741 Y100.032 E0.31358
G1 X87.979 Y99.735 E0.01198
G1 X94.970 Y106.726 E0.31106
G1 X95.182 Y106.402 E0.01216
G1 X88.217 Y99.438 E0.30987
G1 X88.456 Y99.141 E0.01198
G1 X95.393 Y106.079 E0.30868
G1 X95.605 Y105.755 E0.01216
G1 X88.694 Y98.844 E0.30749
G1 X88.751 Y98.773 E0.00288
G1 X88.953 Y98.568 E0.00905
G1 X95.851 Y105.466 E0.30690
G1 X96.107 Y105.187 E0.01191
G1 X89.219 Y98.299 E0.30647
G1 X89.486 Y98.031 E0.01190
G1 X96.364 Y104.909 E0.30604
G1 X96.624 Y104.634 E0.01191
G1 X89.752 Y97.762 E0.30579
G1 X90.018 Y97.493 E0.01190
G1 X96.925 Y104.400 E0.30733
G1 X97.226 Y104.166 E0.01200
G1 X90.305 Y97.245 E0.30793
G1 X90.599 Y97.004 E0.01196
G1 X97.527 Y103.931 E0.30823
G1 X97.699 Y103.798 E0.00686
G1 X97.848 Y103.717 E0.00532
G1 X90.894 Y96.763 E0.30942
G1 X91.188 Y96.522 E0.01196
G1 X98.195 Y103.529 E0.31179
G1 X98.542 Y103.341 E0.01242
G1 X91.482 Y96.281 E0.31415
G1 X91.542 Y96.231 E0.00247
G1 X91.798 Y96.062 E0.00965
G1 X98.889 Y103.153 E0.31551
G1 X99.282 Y103.011 E0.01315
G1 X92.121 Y95.850 E0.31864
G1 X92.443 Y95.637 E0.01215
G1 X99.681 Y102.874 E0.32201
G1 X100.079 Y102.738 E0.01325
G1 X92.766 Y95.425 E0.32538
G1 X93.089 Y95.212 E0.01215
G1 X100.512 Y102.636 E0.33031
G1 X100.971 Y102.559 E0.01463
G1 X93.438 Y95.027 E0.33517
G1 X93.790 Y94.844 E0.01249
G1 X101.429 Y102.483 E0.33990
G1 X101.622 Y102.451 E0.00615
G1 X101.932 Y102.451 E0.00976
G1 X94.143 Y94.661 E0.34660
G1 X94.495 Y94.478 E0.01249
G1 X102.468 Y102.451 E0.35473
G1 X103.003 Y102.451 E0.01684
G1 X94.852 Y94.300 E0.36267
G1 X95.236 Y94.149 E0.01299
G1 X103.642 Y102.555 E0.37403
G1 X104.284 Y102.662 E0.02049
G1 X95.620 Y93.998 E0.38551
G1 X96.004 Y93.847 E0.01299
G1 X105.070 Y102.912 E0.40337
G1 X105.714 Y103.133 E0.02142
G1 X105.958 Y103.266 E0.00875
G1 X96.388 Y93.696 E0.42581
G1 X96.792 Y93.564 E0.01335
G1 X117.750 Y114.523 E0.93253
G1 X117.750 Y113.987 E0.01684
G1 X97.211 Y93.448 E0.91389
G1 X97.630 Y93.332 E0.01368
G1 X117.750 Y113.452 E0.89525
G1 X117.750 Y112.917 E0.01684
G1 X98.048 Y93.216 E0.87661
G1 X98.476 Y93.108 E0.01386
G1 X117.750 Y112.382 E0.85760
G1 X117.750 Y111.847 E0.01684
G1 X98.934 Y93.031 E0.83722
G1 X99.392 Y92.954 E0.01462
G1 X117.750 Y111.312 E0.81683
G1 X117.750 Y110.777 E0.01684
G1 X99.850 Y92.877 E0.79645
G1 X100.315 Y92.806 E0.01479
G1 X117.750 Y110.242 E0.77578
G1 X117.750 Y109.707 E0.01684
G1 X100.818 Y92.775 E0.75337
G1 X101.322 Y92.743 E0.01588
G1 X117.750 Y109.171 E0.73096
G1 X117.750 Y108.636 E0.01684
G1 X101.825 Y92.712 E0.70856
G1 X102.129 Y92.693 E0.00957
G1 X102.351 Y92.702 E0.00698
G1 X117.750 Y108.101 E0.68518
G1 X117.750 Y107.566 E0.01684
G1 X102.909 Y92.725 E0.66034
G1 X103.467 Y92.748 E0.01758
G1 X117.750 Y107.031 E0.63550
G1 X117.750 Y106.496 E0.01684
G1 X104.027 Y92.773 E0.61062
G1 X104.654 Y92.864 E0.01994
G1 X117.750 Y105.961 E0.58272
G1 X117.750 Y105.426 E0.01684
G1 X105.281 Y92.956 E0.55482
G1 X105.911 Y93.051 E0.02004
G1 X117.750 Y104.891 E0.52679
G1 X117.750 Y104.355 E0.01684
G1 X106.629 Y93.234 E0.49484
