; generated by PrusaSlicer 2.2.0+win64 on 2020-08-03 at 18:50:04 UTC

; 

; external perimeters extrusion width = 0.45mm
; perimeters extrusion width = 0.45mm
; infill extrusion width = 0.45mm
; solid infill extrusion width = 0.45mm
; top infill extrusion width = 0.40mm
; first layer extrusion width = 0.42mm

M73 P0 R7
M73 Q0 S7
M201 X1000 Y1000 Z200 E5000 ; sets maximum accelerations, mm/sec^2
M203 X200 Y200 Z12 E120 ; sets maximum feedrates, mm/sec
M204 P1250 R1250 T1250 ; sets acceleration (P, T) and retract acceleration (R), mm/sec^2
M205 X8.00 Y8.00 Z0.40 E4.50 ; sets the jerk limits, mm/sec
M205 S0 T0 ; sets the minimum extruding and travel feed rate, mm/sec
M107
M862.3 P "MK3S" ; printer model check
M862.1 P0.4 ; nozzle diameter check
M115 U3.9.0 ; tell printer latest fw version
G90 ; use absolute coordinates
M83 ; extruder relative mode
M104 S215 ; set extruder temp
M140 S60 ; set bed temp
M190 S60 ; wait for bed temp
M109 S215 ; wait for extruder temp
G28 W ; home all without mesh bed level
G80 ; mesh bed leveling
G1 Y-3.0 F1000.0 ; go outside print area
G92 E0.0
G1 X60.0 E9.0 F1000.0 ; intro line
M73 Q0 S7
M73 P0 R7
G1 X100.0 E12.5 F1000.0 ; intro line
G92 E0.0
M221 S95
G21 ; set units to millimeters
G90 ; use absolute coordinates
M83 ; use relative distances for extrusion
M900 K0.06 ; Filament gcode LA 1.5
M900 K30 ; Filament gcode LA 1.0
;BEFORE_LAYER_CHANGE
G92 E0.0
;0.2


G1 E-0.80000 F2100.00000
G1 Z0.600 F10800.000
;AFTER_LAYER_CHANGE
;0.2
G1 X112.626 Y99.890
G1 Z0.200
G1 E0.80000 F2100.00000
M204 S1000
G1 F1200.000
G1 X113.488 Y99.746 E0.02739
G1 X136.499 Y99.746 E0.72148
G1 X137.500 Y99.936 E0.03195
G1 X138.361 Y100.474 E0.03183
G1 X138.968 Y101.288 E0.03183
G1 X139.239 Y102.270 E0.03195
G1 X139.249 Y107.529 E0.16488
G1 X139.174 Y108.138 E0.01924
G1 X138.929 Y108.788 E0.02180
G1 X138.529 Y109.357 E0.02180
G1 X137.999 Y109.807 E0.02180
G1 X137.374 Y110.110 E0.02180
G1 X136.512 Y110.254 E0.02739
G1 X113.325 Y110.248 E0.72701
G1 X112.531 Y110.076 E0.02549
G1 X111.824 Y109.682 E0.02536
G1 X111.263 Y109.099 E0.02536
G1 X110.895 Y108.379 E0.02536
G1 X110.751 Y107.538 E0.02676
G1 X110.751 Y102.471 E0.15885
G1 X110.807 Y101.950 E0.01643
G1 X111.039 Y101.274 E0.02243
G1 X111.441 Y100.677 E0.02256
G1 X111.984 Y100.204 E0.02256
G1 X112.573 Y99.916 E0.02055
G1 F8640.000
G1 X113.488 Y99.746 E-0.21505
G1 X115.848 Y99.746 E-0.54495
G1 E-0.04000 F2100.00000
G1 Z0.800 F10800.000
G1 X111.171 Y102.049
G1 Z0.200
G1 E0.80000 F2100.00000
G1 F1200.000
G1 X111.373 Y101.448 E0.01989
G1 X111.727 Y100.922 E0.01989
G1 X112.208 Y100.508 E0.01989
G1 X112.781 Y100.236 E0.01989
G1 X113.493 Y100.123 E0.02260
G1 X136.499 Y100.123 E0.72133
G1 X137.365 Y100.288 E0.02767
G1 X138.115 Y100.761 E0.02778
G1 X138.638 Y101.471 E0.02767
G1 X138.865 Y102.324 E0.02767
G1 X138.872 Y107.519 E0.16289
G1 X138.816 Y108.014 E0.01562
G1 X138.606 Y108.592 E0.01929
G1 X138.252 Y109.101 E0.01941
G1 X137.779 Y109.500 E0.01941
G1 X137.219 Y109.764 E0.01941
G1 X136.507 Y109.877 E0.02260
G1 X113.364 Y109.873 E0.72563
G1 X112.670 Y109.726 E0.02225
G1 X112.048 Y109.378 E0.02237
G1 X111.558 Y108.864 E0.02225
G1 X111.241 Y108.225 E0.02237
G1 X111.128 Y107.528 E0.02213
G1 X111.171 Y102.109 E0.16989
G1 F8640.000
G1 X111.373 Y101.448 E-0.15966
G1 X111.727 Y100.922 E-0.14644
G1 X112.208 Y100.508 E-0.14644
G1 X112.781 Y100.236 E-0.14644
G1 X113.469 Y100.127 E-0.16101
G1 E-0.04000 F2100.00000
G1 Z0.800 F10800.000
G1 X109.746 Y105.002
G1 Z0.200
G1 E0.80000 F2100.00000
G1 F1200.000
G1 X109.606 Y104.224 E0.02477
G1 X109.696 Y101.388 E0.08896
G1 X110.089 Y100.336 E0.03522
G1 X110.698 Y99.447 E0.03377
G1 X111.580 Y98.626 E0.03780
G1 X112.668 Y98.047 E0.03864
G1 X113.887 Y97.786 E0.03909
G1 X136.172 Y97.790 E0.69874
G1 X137.121 Y97.974 E0.03028
G1 X138.029 Y98.365 E0.03101
G1 X139.248 Y99.388 E0.04990
G1 X140.039 Y100.606 E0.04554
G1 X140.400 Y101.996 E0.04500
G1 X140.392 Y104.264 E0.07111
G1 X140.255 Y105.001 E0.02353
G1 X140.394 Y105.776 E0.02467
G1 X140.304 Y108.612 E0.08896
G1 X139.911 Y109.664 E0.03522
G1 X139.302 Y110.553 E0.03377
G1 X138.420 Y111.374 E0.03780
G1 X137.332 Y111.953 E0.03864
G1 X136.113 Y112.213 E0.03907
G1 X113.804 Y112.213 E0.69949
G1 X112.542 Y111.904 E0.04076
G1 X111.433 Y111.257 E0.04026
G1 X110.512 Y110.332 E0.04090
G1 X109.864 Y109.152 E0.04222
G1 X109.600 Y107.924 E0.03938
G1 X109.604 Y105.783 E0.06715
G1 X109.735 Y105.061 E0.02301
G1 X110.130 Y105.002 F10800.000
G1 F1200.000
G1 X109.983 Y104.214 E0.02512
G1 X110.061 Y101.489 E0.08549
G1 X110.414 Y100.528 E0.03209
G1 X110.970 Y99.709 E0.03105
G1 X111.818 Y98.920 E0.03632
G1 X112.820 Y98.393 E0.03547
G1 X113.906 Y98.164 E0.03482
G1 X136.154 Y98.167 E0.69755
G1 X137.027 Y98.340 E0.02791
G1 X137.852 Y98.699 E0.02823
G1 X138.983 Y99.658 E0.04647
G1 X139.682 Y100.732 E0.04020
G1 X140.023 Y102.019 E0.04174
G1 X140.015 Y104.244 E0.06976
G1 X139.871 Y105.001 E0.02413
G1 X140.017 Y105.786 E0.02505
G1 X139.939 Y108.511 E0.08549
G1 X139.586 Y109.472 E0.03209
G1 X139.030 Y110.291 E0.03105
G1 X138.182 Y111.080 E0.03632
G1 X137.180 Y111.607 E0.03547
G1 X136.094 Y111.836 E0.03481
G1 X113.828 Y111.836 E0.69814
G1 X112.660 Y111.545 E0.03772
G1 X111.647 Y110.945 E0.03694
G1 X110.800 Y110.087 E0.03779
G1 X110.208 Y108.997 E0.03889
G1 X109.978 Y107.905 E0.03499
G1 X109.981 Y105.801 E0.06598
G1 X110.119 Y105.061 E0.02361
G1 X110.514 Y105.001 F10800.000
G1 F1200.000
G1 X110.361 Y104.202 E0.02550
G1 X110.426 Y101.587 E0.08202
G1 X110.740 Y100.718 E0.02897
G1 X111.245 Y99.968 E0.02835
G1 X112.017 Y99.241 E0.03325
G1 X112.972 Y98.739 E0.03382
G1 X113.925 Y98.541 E0.03055
G1 X136.134 Y98.544 E0.69635
G1 X136.931 Y98.705 E0.02549
G1 X137.674 Y99.033 E0.02545
G1 X138.716 Y99.926 E0.04302
G1 X139.349 Y100.911 E0.03671
G1 X139.646 Y102.043 E0.03669
G1 X139.638 Y104.225 E0.06843
G1 X139.487 Y105.000 E0.02476
G1 X139.639 Y105.798 E0.02546
G1 X139.574 Y108.413 E0.08202
G1 X139.260 Y109.282 E0.02897
G1 X138.755 Y110.032 E0.02835
G1 X137.983 Y110.759 E0.03325
G1 X137.028 Y111.261 E0.03382
G1 X136.075 Y111.459 E0.03054
G1 X113.852 Y111.459 E0.69679
G1 X112.781 Y111.187 E0.03464
G1 X111.862 Y110.635 E0.03361
G1 X111.089 Y109.844 E0.03469
G1 X110.554 Y108.844 E0.03556
G1 X110.355 Y107.887 E0.03065
G1 X110.358 Y105.819 E0.06481
G1 X110.502 Y105.060 E0.02423
G1 F8640.000
G1 X110.361 Y104.202 E-0.20077
G1 X110.421 Y101.781 E-0.55923
G1 E-0.04000 F2100.00000
G1 Z0.800 F10800.000
G1 X138.843 Y100.806
G1 Z0.200
G1 E0.80000 F2100.00000
G1 F1200.000
G1 X138.448 Y100.192 E0.02287
G1 X137.494 Y99.365 E0.03960
G1 X136.834 Y99.070 E0.02266
G1 X136.115 Y98.921 E0.02304
G1 X113.944 Y98.918 E0.69514
G1 X113.121 Y99.086 E0.02634
G1 X112.256 Y99.534 E0.03054
G1 X111.519 Y100.228 E0.03172
G1 X111.312 Y100.539 E0.01174
G1 F8640.000
G1 X111.519 Y100.228 E-0.08645
G1 X112.256 Y99.534 E-0.23360
G1 X113.121 Y99.086 E-0.22492
G1 X113.944 Y98.918 E-0.19400
G1 E-0.06103 F2100.00000
G1 Z0.800 F10800.000
G1 X111.252 Y109.359
G1 Z0.200
G1 E0.80000 F2100.00000
G1 F1200.000
G1 X111.379 Y109.602 E0.00859
G1 X112.080 Y110.327 E0.03161
G1 X112.904 Y110.829 E0.03026
G1 X113.876 Y111.082 E0.03150
G1 X136.056 Y111.082 E0.69543
G1 X136.879 Y110.914 E0.02634
G1 X137.744 Y110.466 E0.03054
G1 X138.481 Y109.772 E0.03172
G1 X138.718 Y109.415 E0.01346
G1 F8640.000
G1 X138.481 Y109.772 E-0.09914
G1 X137.744 Y110.466 E-0.23360
G1 X136.879 Y110.914 E-0.22491
G1 X136.056 Y111.082 E-0.19394
G1 X136.020 Y111.082 E-0.00841
G1 E-0.04000 F2100.00000
G1 Z0.800 F10800.000
G1 X137.179 Y110.334
G1 Z0.200
G1 E0.80000 F2100.00000
G1 F1200.000
G1 X136.729 Y110.566 E0.01587
G1 X136.038 Y110.705 E0.02212
G1 X113.901 Y110.705 E0.69407
G1 X113.028 Y110.472 E0.02834
G1 X112.787 Y110.324 E0.00888
G1 F8640.000
G1 X113.028 Y110.472 E-0.06539
G1 X113.901 Y110.705 E-0.20867
G1 X116.006 Y110.705 E-0.48594
G1 E-0.04000 F2100.00000
G1 Z0.800 F10800.000
G1 X111.337 Y105.018
G1 Z0.200
G1 E0.80000 F2100.00000
G1 F1200.000
G1 X111.337 Y104.984 E0.00108
G1 F8640.000
G1 X111.337 Y105.018 E-0.00793
G1 E-0.79207 F2100.00000
G1 Z0.800 F10800.000
G1 X112.821 Y99.666
G1 Z0.200
G1 E0.80000 F2100.00000
G1 F1200.000
G1 X113.271 Y99.434 E0.01587
G1 X113.962 Y99.295 E0.02212
G1 X136.096 Y99.298 E0.69397
G1 X136.699 Y99.423 E0.01932
G1 X137.330 Y99.712 E0.02175
G1 F8640.000
G1 X136.699 Y99.423 E-0.16020
G1 X136.096 Y99.298 E-0.14229
G1 E-0.49750 F2100.00000
G1 Z0.800 F10800.000
G1 X138.680 Y104.945
G1 Z0.200
G1 E0.80000 F2100.00000
G1 F1200.000
G1 X138.656 Y105.000 E0.00188
G1 X138.680 Y105.055 E0.00189
G1 F8640.000
G1 X138.656 Y105.000 E-0.01394
G1 X138.680 Y104.945 E-0.01385
G1 E-0.77221 F2100.00000
G1 Z0.800 F10800.000
G1 X138.266 Y101.284
G1 Z0.200
G1 E0.80000 F2100.00000
G1 F1200.000
G1 X138.302 Y101.341 E0.00213
G1 X138.514 Y102.115 E0.02516
G1 X138.507 Y104.166 E0.06430
G1 X138.415 Y104.618 E0.01447
G1 X138.239 Y105.000 E0.01319
G1 X138.415 Y105.382 E0.01319
G1 X138.507 Y105.839 E0.01462
G1 X138.475 Y108.130 E0.07182
G1 X138.274 Y108.722 E0.01963
G1 X138.122 Y108.958 E0.00880
G1 F8640.000
G1 X138.274 Y108.722 E-0.06478
G1 X138.475 Y108.130 E-0.14453
G1 X138.507 Y105.839 E-0.52888
G1 X138.489 Y105.747 E-0.02181
G1 E-0.04000 F2100.00000
G1 Z0.800 F10800.000
G1 X111.849 Y108.895
G1 Z0.200
G1 E0.80000 F2100.00000
G1 F1200.000
G1 X111.596 Y108.397 E0.01750
G1 X111.486 Y107.833 E0.01803
G1 X111.489 Y105.874 E0.06143
G1 X111.584 Y105.387 E0.01555
G1 X111.761 Y105.000 E0.01335
G1 X111.585 Y104.618 E0.01319
G1 X111.493 Y104.161 E0.01462
G1 X111.525 Y101.870 E0.07182
G1 X111.726 Y101.278 E0.01963
G1 X111.880 Y101.040 E0.00889
G1 F8640.000
G1 X111.726 Y101.278 E-0.06546
G1 X111.525 Y101.870 E-0.14453
G1 X111.493 Y104.161 E-0.52888
G1 X111.511 Y104.250 E-0.02113
G1 E-0.04000 F2100.00000
G1 Z0.800 F10800.000
G1 X113.069 Y100.381
G1 Z0.200
G1 E0.80000 F2100.00000
G1 F1200.000
G1 X112.891 Y100.472 E0.00627
G1 X112.351 Y100.997 E0.02360
G1 X112.075 Y101.421 E0.01589
G1 X111.892 Y101.963 E0.01793
G1 X111.870 Y104.143 E0.06835
G1 X111.949 Y104.516 E0.01195
G1 X112.180 Y105.000 E0.01683
G1 X111.948 Y105.487 E0.01691
G1 X111.866 Y105.894 E0.01302
G1 X111.863 Y107.817 E0.06029
G1 X111.945 Y108.251 E0.01387
G1 X112.286 Y108.924 E0.02363
G1 X112.810 Y109.462 E0.02356
G1 X113.051 Y109.614 E0.00892
G1 F8640.000
G1 X112.810 Y109.462 E-0.06569
G1 X112.286 Y108.924 E-0.17348
G1 X111.945 Y108.251 E-0.17403
G1 X111.863 Y107.817 E-0.10214
G1 X111.865 Y106.757 E-0.24466
G1 E-0.04000 F2100.00000
G1 Z0.800 F10800.000
G1 X136.931 Y109.619
G1 Z0.200
G1 E0.80000 F2100.00000
G1 F1200.000
G1 X137.109 Y109.528 E0.00627
G1 X137.649 Y109.003 E0.02360
G1 X137.925 Y108.579 E0.01589
G1 X138.108 Y108.037 E0.01793
G1 X138.130 Y105.857 E0.06835
G1 X138.051 Y105.484 E0.01195
G1 X137.820 Y105.000 E0.01683
G1 X138.051 Y104.516 E0.01683
G1 X138.130 Y104.144 E0.01190
G1 X138.137 Y102.141 E0.06281
G1 X137.947 Y101.471 E0.02182
G1 X137.636 Y100.983 E0.01818
G1 X137.004 Y100.411 E0.02670
G1 F8640.000
G1 X137.636 Y100.983 E-0.19661
G1 X137.947 Y101.471 E-0.13386
G1 X138.137 Y102.141 E-0.16070
G1 X138.133 Y103.305 E-0.26883
G1 E-0.04000 F2100.00000
G1 Z0.800 F10800.000
G1 X137.398 Y105.000
G1 Z0.200
G1 E0.80000 F2100.00000
G1 F1200.000
G1 X137.689 Y105.590 E0.02063
G1 X137.753 Y105.878 E0.00923
G1 X137.741 Y107.949 E0.06493
G1 X137.594 Y108.398 E0.01481
G1 X137.369 Y108.749 E0.01307
G1 X136.868 Y109.237 E0.02192
G1 X136.296 Y109.519 E0.02000
G1 X135.987 Y109.574 E0.00984
G1 X113.982 Y109.574 E0.68996
G1 X113.419 Y109.408 E0.01842
G1 X113.065 Y109.183 E0.01314
G1 X112.577 Y108.683 E0.02191
G1 X112.295 Y108.110 E0.02000
G1 X112.240 Y107.801 E0.00984
G1 X112.243 Y105.915 E0.05915
G1 X112.312 Y105.589 E0.01042
G1 X112.602 Y105.000 E0.02060
G1 X112.311 Y104.410 E0.02063
G1 X112.247 Y104.122 E0.00923
G1 X112.259 Y102.051 E0.06493
G1 X112.406 Y101.602 E0.01481
G1 X112.631 Y101.251 E0.01307
G1 X113.132 Y100.763 E0.02192
G1 X113.704 Y100.481 E0.02000
G1 X114.013 Y100.426 E0.00984
G1 X136.032 Y100.430 E0.69039
G1 X136.391 Y100.513 E0.01157
G1 X136.757 Y100.685 E0.01268
G1 X137.362 Y101.243 E0.02580
G1 X137.594 Y101.605 E0.01347
G1 X137.760 Y102.168 E0.01842
G1 X137.753 Y104.122 E0.06125
G1 X137.689 Y104.410 E0.00925
G1 X137.425 Y104.946 E0.01875
G1 X136.845 Y105.000 F10800.000
G1 F1200.000
G1 X137.133 Y105.311 E0.01328
G1 X137.339 Y105.732 E0.01471
G1 X137.380 Y105.933 E0.00643
G1 X137.373 Y107.860 E0.06040
G1 X137.243 Y108.257 E0.01311
G1 X137.088 Y108.498 E0.00898
G1 X136.673 Y108.913 E0.01841
G1 X136.156 Y109.167 E0.01806
G1 X135.974 Y109.197 E0.00579
G1 X114.012 Y109.197 E0.68860
G1 X113.556 Y109.056 E0.01496
G1 X113.317 Y108.902 E0.00892
G1 X112.901 Y108.487 E0.01841
G1 X112.647 Y107.970 E0.01806
G1 X112.617 Y107.788 E0.00579
G1 X112.620 Y105.934 E0.05814
G1 X112.661 Y105.732 E0.00644
G1 X112.867 Y105.311 E0.01471
G1 X113.155 Y105.000 E0.01328
G1 X112.867 Y104.689 E0.01328
G1 X112.661 Y104.268 E0.01471
G1 X112.620 Y104.067 E0.00643
G1 X112.627 Y102.140 E0.06040
G1 X112.757 Y101.743 E0.01311
G1 X112.912 Y101.502 E0.00898
G1 X113.327 Y101.087 E0.01841
G1 X113.844 Y100.833 E0.01806
G1 X114.026 Y100.803 E0.00579
G1 X136.010 Y100.807 E0.68928
G1 X136.248 Y100.862 E0.00767
G1 X136.568 Y101.013 E0.01109
G1 X137.087 Y101.501 E0.02233
G1 X137.242 Y101.742 E0.00898
G1 X137.383 Y102.197 E0.01495
G1 X137.380 Y104.066 E0.05859
G1 X137.339 Y104.268 E0.00644
G1 X137.133 Y104.689 E0.01471
G1 X136.886 Y104.956 E0.01140
G1 X136.302 Y105.000 F10800.000
G1 F1200.000
G1 X136.809 Y105.507 E0.02249
G1 X136.987 Y105.871 E0.01270
G1 X137.006 Y105.979 E0.00345
G1 X137.006 Y107.771 E0.05616
G1 X136.893 Y108.115 E0.01136
G1 X136.808 Y108.244 E0.00484
G1 X136.429 Y108.624 E0.01682
G1 X136.065 Y108.801 E0.01270
G1 X135.956 Y108.820 E0.00345
G1 X114.043 Y108.820 E0.68706
G1 X113.699 Y108.707 E0.01136
G1 X113.570 Y108.622 E0.00484
G1 X113.191 Y108.243 E0.01682
G1 X113.013 Y107.879 E0.01270
G1 X112.994 Y107.771 E0.00345
G1 X112.994 Y105.979 E0.05616
G1 X113.013 Y105.871 E0.00345
G1 X113.191 Y105.507 E0.01270
G1 X113.698 Y105.000 E0.02249
G1 X113.191 Y104.493 E0.02249
G1 X113.013 Y104.129 E0.01270
G1 X112.994 Y104.021 E0.00345
G1 X112.994 Y102.229 E0.05616
G1 X113.107 Y101.885 E0.01136
G1 X113.192 Y101.756 E0.00484
G1 X113.571 Y101.376 E0.01682
G1 X113.935 Y101.199 E0.01270
G1 X114.044 Y101.180 E0.00345
G1 X135.988 Y101.184 E0.68804
G1 X136.105 Y101.211 E0.00377
G1 X136.378 Y101.340 E0.00947
G1 X136.809 Y101.757 E0.01880
G1 X136.893 Y101.885 E0.00479
G1 X137.006 Y102.229 E0.01136
G1 X137.006 Y104.021 E0.05616
G1 X136.987 Y104.129 E0.00345
G1 X136.809 Y104.493 E0.01270
G1 X136.345 Y104.958 E0.02061
G1 F8640.000
G1 X136.809 Y105.507 E-0.16619
G1 X136.987 Y105.871 E-0.09349
G1 X137.006 Y105.979 E-0.02538
G1 X137.006 Y107.771 E-0.41360
G1 X136.923 Y108.023 E-0.06134
G1 E-0.04000 F2100.00000
G1 Z0.800 F10800.000
G1 X129.943 Y104.693
G1 Z0.200
G1 E0.80000 F2100.00000
G1 F1200.000
G1 X129.943 Y105.307 E0.01927
G1 X135.921 Y105.307 E0.18746
G1 X136.149 Y105.389 E0.00757
G1 X136.519 Y105.750 E0.01622
G1 X136.629 Y106.000 E0.00856
G1 X136.629 Y107.736 E0.05441
G1 X136.547 Y107.963 E0.00757
G1 X136.186 Y108.333 E0.01622
G1 X135.936 Y108.443 E0.00856
G1 X114.079 Y108.443 E0.68531
G1 X113.824 Y108.343 E0.00856
G1 X113.481 Y108.000 E0.01522
G1 X113.371 Y107.750 E0.00856
G1 X113.378 Y105.968 E0.05585
G1 X113.481 Y105.750 E0.00757
G1 X113.814 Y105.417 E0.01477
G1 X114.033 Y105.314 E0.00757
G1 X120.057 Y105.307 E0.18890
G1 X120.057 Y104.693 E0.01927
G1 X114.079 Y104.693 E0.18746
G1 X113.851 Y104.611 E0.00757
G1 X113.481 Y104.250 E0.01622
G1 X113.378 Y104.032 E0.00757
G1 X113.371 Y102.264 E0.05541
G1 X113.471 Y102.010 E0.00856
G1 X113.814 Y101.667 E0.01522
G1 X114.033 Y101.564 E0.00757
G1 X135.936 Y101.557 E0.68676
G1 X136.186 Y101.667 E0.00856
G1 X136.547 Y102.037 E0.01622
G1 X136.629 Y102.264 E0.00757
G1 X136.629 Y104.000 E0.05441
G1 X136.519 Y104.250 E0.00856
G1 X136.149 Y104.611 E0.01622
G1 X135.921 Y104.693 E0.00757
G1 X130.003 Y104.693 E0.18558
G1 X129.566 Y104.316 F10800.000
G1 F1200.000
G1 X129.566 Y105.684 E0.04292
G1 X135.880 Y105.684 E0.19797
G1 X135.949 Y105.713 E0.00235
