; generated by PrusaSlicer 2.2.0+win64 on 2020-07-15 at 12:38:48 UTC

; 

; external perimeters extrusion width = 0.45mm
; perimeters extrusion width = 0.45mm
; infill extrusion width = 0.45mm
; solid infill extrusion width = 0.45mm
; top infill extrusion width = 0.40mm
; support material extrusion width = 0.35mm
; first layer extrusion width = 0.42mm

M73 P0 R29
M73 Q0 S29
M201 X1000 Y1000 Z200 E5000 ; sets maximum accelerations, mm/sec^2
M203 X200 Y200 Z12 E120 ; sets maximum feedrates, mm/sec
M204 P1250 R1250 T1250 ; sets acceleration (P, T) and retract acceleration (R), mm/sec^2
M205 X8.00 Y8.00 Z0.40 E4.50 ; sets the jerk limits, mm/sec
M205 S0 T0 ; sets the minimum extruding and travel feed rate, mm/sec
M107
M862.3 P "MK3S" ; printer model check
M862.1 P0.4 ; nozzle diameter check
M115 U3.9.0 ; tell printer latest fw version
G90 ; use absolute coordinates
M83 ; extruder relative mode
M104 S215 ; set extruder temp
M140 S60 ; set bed temp
M190 S60 ; wait for bed temp
M109 S215 ; wait for extruder temp
G28 W ; home all without mesh bed level
G80 ; mesh bed leveling
G1 Y-3.0 F1000.0 ; go outside print area
G92 E0.0
G1 X60.0 E9.0 F1000.0 ; intro line
M73 Q0 S29
M73 P0 R28
G1 X100.0 E12.5 F1000.0 ; intro line
G92 E0.0
M221 S95
G21 ; set units to millimeters
G90 ; use absolute coordinates
M83 ; use relative distances for extrusion
M900 K0.06 ; Filament gcode LA 1.5
M900 K30 ; Filament gcode LA 1.0
;BEFORE_LAYER_CHANGE
G92 E0.0
;0.2


G1 E-0.80000 F2100.00000
G1 Z0.600 F10800.000
;AFTER_LAYER_CHANGE
;0.2
G1 X97.957 Y49.516
G1 Z0.200
G1 E0.80000 F2100.00000
M204 S1000
G1 F1200.000
G1 X107.163 Y49.473 E0.28863
G1 X166.306 Y49.624 E1.85439
G1 X166.921 Y49.720 E0.01953
G1 X167.487 Y49.970 E0.01941
G1 X167.972 Y50.361 E0.01953
G1 X168.339 Y50.865 E0.01953
G1 X168.553 Y51.409 E0.01835
G1 X168.627 Y51.994 E0.01846
G1 X168.627 Y158.019 E3.32435
G1 X168.538 Y158.643 E0.01977
G1 X168.289 Y159.222 E0.01977
G1 X167.896 Y159.715 E0.01977
G1 X167.387 Y160.087 E0.01977
G1 X166.843 Y160.302 E0.01835
G1 X166.259 Y160.377 E0.01846
G1 X98.470 Y160.377 E2.12548
G1 X97.849 Y160.286 E0.01965
G1 X97.271 Y160.035 E0.01977
G1 X96.782 Y159.643 E0.01965
G1 X96.413 Y159.137 E0.01965
G1 X96.198 Y158.593 E0.01835
G1 X96.123 Y158.009 E0.01846
G1 X96.043 Y51.618 E3.33581
G1 X96.237 Y50.884 E0.02378
G1 X96.651 Y50.249 E0.02378
G1 X97.245 Y49.777 E0.02378
G1 X97.901 Y49.537 E0.02190
G1 F8640.000
G1 X101.192 Y49.514 E-0.76000
G1 E-0.04000 F2100.00000
G1 Z0.800 F10800.000
G1 X158.287 Y52.787
G1 Z0.200
G1 E0.80000 F2100.00000
G1 F1200.000
G1 X158.313 Y52.787 E0.00081
G1 X158.313 Y56.287 E0.10974
G1 X165.437 Y56.287 E0.22337
G1 X165.437 Y52.787 E0.10974
G1 X165.463 Y52.787 E0.00081
G1 X165.463 Y59.213 E0.20148
G1 X165.437 Y59.213 E0.00081
G1 X165.437 Y56.713 E0.07839
G1 X158.313 Y56.713 E0.22337
G1 X158.313 Y59.213 E0.07839
G1 X158.287 Y59.213 E0.00081
G1 X158.287 Y52.847 E0.19960
G1 F8640.000
G1 X158.313 Y52.787 E-0.01508
G1 X158.313 Y56.013 E-0.74492
G1 E-0.04000 F2100.00000
G1 Z0.800 F10800.000
G1 X158.690 Y55.910
G1 Z0.200
G1 E0.80000 F2100.00000
G1 F1200.000
G1 X165.060 Y55.910 E0.19973
G1 X165.060 Y52.410 E0.10974
G1 X165.840 Y52.410 E0.02446
G1 X165.840 Y59.590 E0.22512
G1 X165.060 Y59.590 E0.02446
G1 X165.060 Y57.090 E0.07839
G1 X158.690 Y57.090 E0.19973
G1 X158.690 Y59.590 E0.07839
G1 X157.910 Y59.590 E0.02446
G1 X157.910 Y52.410 E0.22512
G1 X158.690 Y52.410 E0.02446
G1 X158.690 Y55.850 E0.10786
G1 X158.719 Y56.309 F10800.000
G1 F8640.000
G1 X161.981 Y55.881 E-0.76000
G1 E-0.04000 F2100.00000
G1 Z0.800 F10800.000
G1 X158.313 Y66.787
G1 Z0.200
G1 E0.80000 F2100.00000
G1 F1200.000
G1 X158.313 Y70.287 E0.10974
G1 X165.437 Y70.287 E0.22337
G1 X165.437 Y66.787 E0.10974
G1 X165.463 Y66.787 E0.00081
G1 X165.463 Y73.213 E0.20148
G1 X165.437 Y73.213 E0.00081
G1 X165.437 Y70.713 E0.07839
G1 X158.313 Y70.713 E0.22337
G1 X158.313 Y73.213 E0.07839
G1 X158.287 Y73.213 E0.00081
G1 X158.287 Y66.821 E0.20041
G1 F8640.000
G1 X158.312 Y70.113 E-0.76000
G1 E-0.04000 F2100.00000
G1 Z0.800 F10800.000
G1 X158.690 Y69.910
G1 Z0.200
G1 E0.80000 F2100.00000
G1 F1200.000
G1 X165.060 Y69.910 E0.19973
G1 X165.060 Y66.410 E0.10974
G1 X165.840 Y66.410 E0.02446
G1 X165.840 Y73.590 E0.22512
G1 X165.060 Y73.590 E0.02446
G1 X165.060 Y71.090 E0.07839
G1 X158.690 Y71.090 E0.19973
G1 X158.690 Y73.590 E0.07839
G1 X157.910 Y73.590 E0.02446
G1 X157.910 Y66.410 E0.22512
G1 X158.690 Y66.410 E0.02446
G1 X158.690 Y69.850 E0.10786
G1 X158.719 Y70.309 F10800.000
G1 F8640.000
G1 X161.981 Y69.881 E-0.76000
G1 E-0.04000 F2100.00000
G1 Z0.800 F10800.000
G1 X158.313 Y80.787
G1 Z0.200
G1 E0.80000 F2100.00000
G1 F1200.000
G1 X158.313 Y84.287 E0.10974
G1 X165.437 Y84.287 E0.22337
G1 X165.437 Y80.787 E0.10974
G1 X165.463 Y80.787 E0.00081
G1 X165.463 Y87.213 E0.20148
G1 X165.437 Y87.213 E0.00081
G1 X165.437 Y84.713 E0.07839
G1 X158.313 Y84.713 E0.22337
G1 X158.313 Y87.213 E0.07839
G1 X158.287 Y87.213 E0.00081
G1 X158.287 Y80.821 E0.20041
G1 F8640.000
G1 X158.312 Y84.113 E-0.76000
G1 E-0.04000 F2100.00000
G1 Z0.800 F10800.000
G1 X158.690 Y83.910
G1 Z0.200
G1 E0.80000 F2100.00000
G1 F1200.000
G1 X165.060 Y83.910 E0.19973
G1 X165.060 Y80.410 E0.10974
G1 X165.840 Y80.410 E0.02446
G1 X165.840 Y87.590 E0.22512
G1 X165.060 Y87.590 E0.02446
G1 X165.060 Y85.090 E0.07839
G1 X158.690 Y85.090 E0.19973
G1 X158.690 Y87.590 E0.07839
G1 X157.910 Y87.590 E0.02446
G1 X157.910 Y80.410 E0.22512
G1 X158.690 Y80.410 E0.02446
G1 X158.690 Y83.850 E0.10786
G1 X158.719 Y84.309 F10800.000
G1 F8640.000
G1 X161.981 Y83.881 E-0.76000
G1 E-0.04000 F2100.00000
G1 Z0.800 F10800.000
G1 X158.313 Y94.787
G1 Z0.200
G1 E0.80000 F2100.00000
G1 F1200.000
G1 X158.313 Y98.287 E0.10974
G1 X165.437 Y98.287 E0.22337
G1 X165.437 Y94.787 E0.10974
G1 X165.463 Y94.787 E0.00081
G1 X165.463 Y101.213 E0.20148
G1 X165.437 Y101.213 E0.00081
G1 X165.437 Y98.713 E0.07839
G1 X158.313 Y98.713 E0.22337
G1 X158.313 Y101.213 E0.07839
G1 X158.287 Y101.213 E0.00081
G1 X158.287 Y94.821 E0.20041
G1 F8640.000
G1 X158.312 Y98.113 E-0.76000
G1 E-0.04000 F2100.00000
G1 Z0.800 F10800.000
G1 X158.690 Y97.910
G1 Z0.200
G1 E0.80000 F2100.00000
G1 F1200.000
G1 X165.060 Y97.910 E0.19973
G1 X165.060 Y94.410 E0.10974
G1 X165.840 Y94.410 E0.02446
G1 X165.840 Y101.590 E0.22512
G1 X165.060 Y101.590 E0.02446
G1 X165.060 Y99.090 E0.07839
G1 X158.690 Y99.090 E0.19973
G1 X158.690 Y101.590 E0.07839
G1 X157.910 Y101.590 E0.02446
G1 X157.910 Y94.410 E0.22512
G1 X158.690 Y94.410 E0.02446
G1 X158.690 Y97.850 E0.10786
G1 X158.719 Y98.309 F10800.000
G1 F8640.000
G1 X161.981 Y97.881 E-0.76000
G1 E-0.04000 F2100.00000
G1 Z0.800 F10800.000
G1 X158.313 Y108.787
G1 Z0.200
G1 E0.80000 F2100.00000
G1 F1200.000
G1 X158.313 Y112.287 E0.10974
G1 X165.437 Y112.287 E0.22337
G1 X165.437 Y108.787 E0.10974
G1 X165.463 Y108.787 E0.00081
G1 X165.463 Y115.213 E0.20148
G1 X165.437 Y115.213 E0.00081
G1 X165.437 Y112.713 E0.07839
G1 X158.313 Y112.713 E0.22337
G1 X158.313 Y115.213 E0.07839
G1 X158.287 Y115.213 E0.00081
G1 X158.287 Y108.821 E0.20041
G1 F8640.000
G1 X158.312 Y112.113 E-0.76000
G1 E-0.04000 F2100.00000
G1 Z0.800 F10800.000
G1 X158.690 Y111.910
G1 Z0.200
G1 E0.80000 F2100.00000
G1 F1200.000
G1 X165.060 Y111.910 E0.19973
G1 X165.060 Y108.410 E0.10974
G1 X165.840 Y108.410 E0.02446
G1 X165.840 Y115.590 E0.22512
G1 X165.060 Y115.590 E0.02446
G1 X165.060 Y113.090 E0.07839
G1 X158.690 Y113.090 E0.19973
G1 X158.690 Y115.590 E0.07839
G1 X157.910 Y115.590 E0.02446
G1 X157.910 Y108.410 E0.22512
G1 X158.690 Y108.410 E0.02446
G1 X158.690 Y111.850 E0.10786
G1 X158.719 Y112.309 F10800.000
G1 F8640.000
G1 X161.981 Y111.881 E-0.76000
G1 E-0.04000 F2100.00000
G1 Z0.800 F10800.000
G1 X158.313 Y122.787
G1 Z0.200
G1 E0.80000 F2100.00000
G1 F1200.000
G1 X158.313 Y126.287 E0.10974
G1 X165.437 Y126.287 E0.22337
G1 X165.437 Y122.787 E0.10974
G1 X165.463 Y122.787 E0.00081
G1 X165.463 Y129.213 E0.20148
G1 X165.437 Y129.213 E0.00081
G1 X165.437 Y126.713 E0.07839
G1 X158.313 Y126.713 E0.22337
G1 X158.313 Y129.213 E0.07839
G1 X158.287 Y129.213 E0.00081
G1 X158.287 Y122.821 E0.20041
G1 F8640.000
G1 X158.312 Y126.113 E-0.76000
G1 E-0.04000 F2100.00000
G1 Z0.800 F10800.000
G1 X158.690 Y125.910
G1 Z0.200
G1 E0.80000 F2100.00000
G1 F1200.000
G1 X165.060 Y125.910 E0.19973
G1 X165.060 Y122.410 E0.10974
G1 X165.840 Y122.410 E0.02446
G1 X165.840 Y129.590 E0.22512
G1 X165.060 Y129.590 E0.02446
G1 X165.060 Y127.090 E0.07839
G1 X158.690 Y127.090 E0.19973
G1 X158.690 Y129.590 E0.07839
G1 X157.910 Y129.590 E0.02446
G1 X157.910 Y122.410 E0.22512
G1 X158.690 Y122.410 E0.02446
G1 X158.690 Y125.850 E0.10786
G1 X158.719 Y126.309 F10800.000
G1 F8640.000
G1 X161.981 Y125.881 E-0.76000
G1 E-0.04000 F2100.00000
G1 Z0.800 F10800.000
G1 X158.313 Y136.787
G1 Z0.200
G1 E0.80000 F2100.00000
G1 F1200.000
G1 X158.313 Y140.287 E0.10974
G1 X165.437 Y140.287 E0.22337
G1 X165.437 Y136.787 E0.10974
G1 X165.463 Y136.787 E0.00081
G1 X165.463 Y143.213 E0.20148
G1 X165.437 Y143.213 E0.00081
G1 X165.437 Y140.713 E0.07839
G1 X158.313 Y140.713 E0.22337
G1 X158.313 Y143.213 E0.07839
G1 X158.287 Y143.213 E0.00081
G1 X158.287 Y136.821 E0.20041
G1 F8640.000
G1 X158.312 Y140.113 E-0.76000
G1 E-0.04000 F2100.00000
G1 Z0.800 F10800.000
G1 X158.690 Y139.910
G1 Z0.200
G1 E0.80000 F2100.00000
G1 F1200.000
G1 X165.060 Y139.910 E0.19973
G1 X165.060 Y136.410 E0.10974
G1 X165.840 Y136.410 E0.02446
G1 X165.840 Y143.590 E0.22512
G1 X165.060 Y143.590 E0.02446
G1 X165.060 Y141.090 E0.07839
G1 X158.690 Y141.090 E0.19973
G1 X158.690 Y143.590 E0.07839
G1 X157.910 Y143.590 E0.02446
G1 X157.910 Y136.410 E0.22512
G1 X158.690 Y136.410 E0.02446
G1 X158.690 Y139.850 E0.10786
G1 X158.719 Y140.309 F10800.000
G1 F8640.000
G1 X161.981 Y139.881 E-0.76000
G1 E-0.04000 F2100.00000
G1 Z0.800 F10800.000
G1 X158.313 Y150.787
G1 Z0.200
G1 E0.80000 F2100.00000
G1 F1200.000
G1 X158.313 Y154.287 E0.10974
G1 X165.437 Y154.287 E0.22337
G1 X165.437 Y150.787 E0.10974
G1 X165.463 Y150.787 E0.00081
G1 X165.463 Y157.213 E0.20148
G1 X165.437 Y157.213 E0.00081
G1 X165.437 Y154.713 E0.07839
G1 X158.313 Y154.713 E0.22337
M73 Q3 S28
G1 X158.313 Y157.213 E0.07839
G1 X158.287 Y157.213 E0.00081
G1 X158.287 Y150.821 E0.20041
M73 P3 R27
G1 F8640.000
G1 X158.312 Y154.113 E-0.76000
G1 E-0.04000 F2100.00000
G1 Z0.800 F10800.000
G1 X158.690 Y153.910
G1 Z0.200
G1 E0.80000 F2100.00000
G1 F1200.000
G1 X165.060 Y153.910 E0.19973
G1 X165.060 Y150.410 E0.10974
G1 X165.840 Y150.410 E0.02446
G1 X165.840 Y157.590 E0.22512
G1 X165.060 Y157.590 E0.02446
G1 X165.060 Y155.090 E0.07839
G1 X158.690 Y155.090 E0.19973
G1 X158.690 Y157.590 E0.07839
G1 X157.910 Y157.590 E0.02446
G1 X157.910 Y150.410 E0.22512
G1 X158.690 Y150.410 E0.02446
G1 X158.690 Y153.850 E0.10786
G1 X158.719 Y154.309 F10800.000
G1 F8640.000
G1 X161.981 Y153.881 E-0.76000
G1 E-0.04000 F2100.00000
G1 Z0.800 F10800.000
G1 X143.563 Y154.287
G1 Z0.200
G1 E0.80000 F2100.00000
G1 F1200.000
G1 X150.687 Y154.287 E0.22337
G1 X150.687 Y150.787 E0.10974
G1 X150.713 Y150.787 E0.00081
G1 X150.713 Y157.213 E0.20148
G1 X150.687 Y157.213 E0.00081
G1 X150.687 Y154.713 E0.07839
G1 X143.563 Y154.713 E0.22337
G1 X143.563 Y157.213 E0.07839
G1 X143.537 Y157.213 E0.00081
G1 X143.537 Y150.787 E0.20148
G1 X143.563 Y150.787 E0.00081
G1 X143.563 Y154.227 E0.10786
G1 X143.940 Y153.910 F10800.000
G1 F1200.000
G1 X150.310 Y153.910 E0.19973
G1 X150.310 Y150.410 E0.10974
G1 X151.090 Y150.410 E0.02446
G1 X151.090 Y157.590 E0.22512
G1 X150.310 Y157.590 E0.02446
G1 X150.310 Y155.090 E0.07839
G1 X143.940 Y155.090 E0.19973
G1 X143.940 Y157.590 E0.07839
G1 X143.160 Y157.590 E0.02446
G1 X143.160 Y150.410 E0.22512
G1 X143.940 Y150.410 E0.02446
G1 X143.940 Y153.850 E0.10786
G1 X143.969 Y154.309 F10800.000
G1 F8640.000
G1 X147.231 Y153.881 E-0.76000
G1 E-0.04000 F2100.00000
G1 Z0.800 F10800.000
G1 X143.563 Y143.213
G1 Z0.200
G1 E0.80000 F2100.00000
G1 F1200.000
G1 X143.537 Y143.213 E0.00081
G1 X143.537 Y136.787 E0.20148
G1 X143.563 Y136.787 E0.00081
G1 X143.563 Y140.287 E0.10974
G1 X150.687 Y140.287 E0.22337
G1 X150.687 Y136.787 E0.10974
G1 X150.713 Y136.787 E0.00081
G1 X150.713 Y143.213 E0.20148
G1 X150.687 Y143.213 E0.00081
G1 X150.687 Y140.713 E0.07839
G1 X143.563 Y140.713 E0.22337
G1 X143.563 Y143.153 E0.07650
G1 F8640.000
G1 X143.537 Y143.213 E-0.01508
G1 X143.537 Y139.987 E-0.74492
G1 E-0.04000 F2100.00000
G1 Z0.800 F10800.000
G1 X143.940 Y139.910
G1 Z0.200
G1 E0.80000 F2100.00000
G1 F1200.000
G1 X150.310 Y139.910 E0.19973
G1 X150.310 Y136.410 E0.10974
G1 X151.090 Y136.410 E0.02446
G1 X151.090 Y143.590 E0.22512
G1 X150.310 Y143.590 E0.02446
G1 X150.310 Y141.090 E0.07839
G1 X143.940 Y141.090 E0.19973
G1 X143.940 Y143.590 E0.07839
G1 X143.160 Y143.590 E0.02446
G1 X143.160 Y136.410 E0.22512
G1 X143.940 Y136.410 E0.02446
G1 X143.940 Y139.850 E0.10786
G1 X143.969 Y140.309 F10800.000
G1 F8640.000
G1 X147.231 Y139.881 E-0.76000
G1 E-0.04000 F2100.00000
G1 Z0.800 F10800.000
G1 X143.563 Y129.213
G1 Z0.200
G1 E0.80000 F2100.00000
G1 F1200.000
G1 X143.537 Y129.213 E0.00081
G1 X143.537 Y122.787 E0.20148
G1 X143.563 Y122.787 E0.00081
G1 X143.563 Y126.287 E0.10974
G1 X150.687 Y126.287 E0.22337
G1 X150.687 Y122.787 E0.10974
G1 X150.713 Y122.787 E0.00081
G1 X150.713 Y129.213 E0.20148
G1 X150.687 Y129.213 E0.00081
G1 X150.687 Y126.713 E0.07839
G1 X143.563 Y126.713 E0.22337
G1 X143.563 Y129.153 E0.07650
G1 F8640.000
G1 X143.537 Y129.213 E-0.01508
G1 X143.537 Y125.987 E-0.74492
G1 E-0.04000 F2100.00000
G1 Z0.800 F10800.000
G1 X143.940 Y125.910
G1 Z0.200
G1 E0.80000 F2100.00000
G1 F1200.000
G1 X150.310 Y125.910 E0.19973
G1 X150.310 Y122.410 E0.10974
G1 X151.090 Y122.410 E0.02446
G1 X151.090 Y129.590 E0.22512
G1 X150.310 Y129.590 E0.02446
G1 X150.310 Y127.090 E0.07839
G1 X143.940 Y127.090 E0.19973
G1 X143.940 Y129.590 E0.07839
G1 X143.160 Y129.590 E0.02446
G1 X143.160 Y122.410 E0.22512
G1 X143.940 Y122.410 E0.02446
G1 X143.940 Y125.850 E0.10786
G1 X143.969 Y126.309 F10800.000
G1 F8640.000
G1 X147.231 Y125.881 E-0.76000
G1 E-0.04000 F2100.00000
G1 Z0.800 F10800.000
G1 X143.563 Y115.213
G1 Z0.200
G1 E0.80000 F2100.00000
G1 F1200.000
G1 X143.537 Y115.213 E0.00081
G1 X143.537 Y108.787 E0.20148
G1 X143.563 Y108.787 E0.00081
G1 X143.563 Y112.287 E0.10974
G1 X150.687 Y112.287 E0.22337
G1 X150.687 Y108.787 E0.10974
G1 X150.713 Y108.787 E0.00081
G1 X150.713 Y115.213 E0.20148
G1 X150.687 Y115.213 E0.00081
G1 X150.687 Y112.713 E0.07839
G1 X143.563 Y112.713 E0.22337
G1 X143.563 Y115.153 E0.07650
G1 F8640.000
G1 X143.537 Y115.213 E-0.01508
G1 X143.537 Y111.987 E-0.74492
G1 E-0.04000 F2100.00000
G1 Z0.800 F10800.000
G1 X143.940 Y111.910
G1 Z0.200
G1 E0.80000 F2100.00000
G1 F1200.000
G1 X150.310 Y111.910 E0.19973
G1 X150.310 Y108.410 E0.10974
G1 X151.090 Y108.410 E0.02446
G1 X151.090 Y115.590 E0.22512
G1 X150.310 Y115.590 E0.02446
G1 X150.310 Y113.090 E0.07839
G1 X143.940 Y113.090 E0.19973
G1 X143.940 Y115.590 E0.07839
G1 X143.160 Y115.590 E0.02446
G1 X143.160 Y108.410 E0.22512
G1 X143.940 Y108.410 E0.02446
G1 X143.940 Y111.850 E0.10786
G1 X143.969 Y112.309 F10800.000
G1 F8640.000
G1 X147.231 Y111.881 E-0.76000
G1 E-0.04000 F2100.00000
G1 Z0.800 F10800.000
G1 X143.563 Y101.213
G1 Z0.200
G1 E0.80000 F2100.00000
G1 F1200.000
G1 X143.537 Y101.213 E0.00081
G1 X143.537 Y94.787 E0.20148
G1 X143.563 Y94.787 E0.00081
G1 X143.563 Y98.287 E0.10974
G1 X150.687 Y98.287 E0.22337
G1 X150.687 Y94.787 E0.10974
G1 X150.713 Y94.787 E0.00081
G1 X150.713 Y101.213 E0.20148
G1 X150.687 Y101.213 E0.00081
G1 X150.687 Y98.713 E0.07839
G1 X143.563 Y98.713 E0.22337
G1 X143.563 Y101.153 E0.07650
G1 F8640.000
G1 X143.537 Y101.213 E-0.01508
G1 X143.537 Y97.987 E-0.74492
G1 E-0.04000 F2100.00000
G1 Z0.800 F10800.000
G1 X143.940 Y97.910
G1 Z0.200
G1 E0.80000 F2100.00000
G1 F1200.000
G1 X150.310 Y97.910 E0.19973
G1 X150.310 Y94.410 E0.10974
G1 X151.090 Y94.410 E0.02446
G1 X151.090 Y101.590 E0.22512
G1 X150.310 Y101.590 E0.02446
G1 X150.310 Y99.090 E0.07839
G1 X143.940 Y99.090 E0.19973
G1 X143.940 Y101.590 E0.07839
G1 X143.160 Y101.590 E0.02446
G1 X143.160 Y94.410 E0.22512
G1 X143.940 Y94.410 E0.02446
G1 X143.940 Y97.850 E0.10786
