; generated by PrusaSlicer 2.2.0+win64 on 2020-07-15 at 21:29:10 UTC

; 

; external perimeters extrusion width = 0.45mm
; perimeters extrusion width = 0.45mm
; infill extrusion width = 0.45mm
; solid infill extrusion width = 0.45mm
; top infill extrusion width = 0.40mm
; first layer extrusion width = 0.42mm

M73 P0 R97
M73 Q0 S98
M201 X1000 Y1000 Z200 E5000 ; sets maximum accelerations, mm/sec^2
M203 X200 Y200 Z12 E120 ; sets maximum feedrates, mm/sec
M204 P1250 R1250 T1250 ; sets acceleration (P, T) and retract acceleration (R), mm/sec^2
M205 X8.00 Y8.00 Z0.40 E4.50 ; sets the jerk limits, mm/sec
M205 S0 T0 ; sets the minimum extruding and travel feed rate, mm/sec
M107
M862.3 P "MK3S" ; printer model check
M862.1 P0.4 ; nozzle diameter check
M115 U3.9.0 ; tell printer latest fw version
G90 ; use absolute coordinates
M83 ; extruder relative mode
M104 S215 ; set extruder temp
M140 S60 ; set bed temp
M190 S60 ; wait for bed temp
M109 S215 ; wait for extruder temp
G28 W ; home all without mesh bed level
G80 ; mesh bed leveling
G1 Y-3.0 F1000.0 ; go outside print area
G92 E0.0
G1 X60.0 E9.0 F1000.0 ; intro line
M73 Q0 S98
M73 P0 R97
G1 X100.0 E12.5 F1000.0 ; intro line
G92 E0.0
M221 S95
G21 ; set units to millimeters
G90 ; use absolute coordinates
M83 ; use relative distances for extrusion
M900 K0.06 ; Filament gcode LA 1.5
M900 K30 ; Filament gcode LA 1.0
;BEFORE_LAYER_CHANGE
G92 E0.0
;0.2


G1 E-0.80000 F2100.00000
G1 Z0.600 F10800.000
;AFTER_LAYER_CHANGE
;0.2
G1 X60.709 Y77.762
G1 Z0.200
G1 E0.80000 F2100.00000
M204 S1000
G1 F1200.000
G1 X61.389 Y77.461 E0.02331
G1 X63.992 Y76.995 E0.08292
G1 X186.004 Y76.995 E3.82560
G1 X188.511 Y77.437 E0.07982
G1 X189.177 Y77.693 E0.02237
G1 X189.623 Y78.022 E0.01740
G1 X189.982 Y78.445 E0.01740
G1 X190.232 Y78.941 E0.01740
G1 X190.360 Y79.477 E0.01728
G1 X190.377 Y110.019 E0.95764
G1 X190.300 Y110.599 E0.01835
G1 X190.084 Y111.143 E0.01835
G1 X189.726 Y111.634 E0.01906
G1 X189.252 Y112.020 E0.01917
G1 X156.240 Y132.270 E1.21430
G1 X155.611 Y132.539 E0.02142
G1 X155.000 Y132.619 E0.01934
G1 X94.996 Y132.619 E1.88138
G1 X94.471 Y132.559 E0.01657
G1 X93.765 Y132.273 E0.02390
G1 X60.731 Y112.010 E1.21507
G1 X60.085 Y111.409 E0.02767
G1 X59.702 Y110.610 E0.02778
G1 X59.623 Y110.007 E0.01906
G1 X59.626 Y79.636 E0.95226
G1 X59.781 Y78.905 E0.02343
G1 X60.153 Y78.262 E0.02331
G1 X60.664 Y77.802 E0.02155
G1 F8640.000
G1 X61.389 Y77.461 E-0.18490
G1 X63.840 Y77.022 E-0.57510
G1 E-0.04000 F2100.00000
G1 Z0.800 F10800.000
G1 X62.787 Y80.545
G1 Z0.200
G1 E0.80000 F2100.00000
G1 F1200.000
G1 X64.787 Y80.545 E0.06271
G1 X64.787 Y80.468 E0.00242
G1 X69.213 Y80.468 E0.13877
G1 X69.213 Y80.496 E0.00088
G1 X66.223 Y80.496 E0.09373
G1 X66.223 Y88.971 E0.26573
G1 X62.787 Y88.971 E0.10774
G1 X62.787 Y80.605 E0.26231
G1 F8640.000
G1 X64.787 Y80.545 E-0.46201
G1 X64.787 Y80.468 E-0.01785
G1 X66.000 Y80.468 E-0.28014
G1 E-0.04000 F2100.00000
G1 Z0.800 F10800.000
G1 X66.601 Y80.873
G1 Z0.200
G1 E0.80000 F2100.00000
G1 F1200.000
G1 X66.601 Y88.643 E0.24362
G1 X69.590 Y88.643 E0.09373
G1 X69.590 Y89.348 E0.02210
G1 X62.410 Y89.348 E0.22512
G1 X62.410 Y80.168 E0.28783
G1 X64.410 Y80.168 E0.06271
G1 X64.410 Y80.091 E0.00242
G1 X69.590 Y80.091 E0.16242
G1 X69.590 Y80.873 E0.02453
G1 X66.661 Y80.873 E0.09185
G1 X66.202 Y80.907 F10800.000
G1 X66.110 Y81.369
G1 F1200.000
G1 X65.492 Y80.751 E0.02832
G1 X65.070 Y80.751 E0.01366
G1 X65.070 Y80.828 E0.00250
G1 X65.018 Y80.828 E0.00166
G1 X65.941 Y81.750 E0.04222
G1 X65.941 Y82.301 E0.01782
G1 X64.468 Y80.828 E0.06743
G1 X63.917 Y80.828 E0.01782
G1 X65.941 Y82.852 E0.09263
G1 X65.941 Y83.402 E0.01782
G1 X63.367 Y80.828 E0.11784
G1 X63.070 Y80.828 E0.00961
G1 X63.070 Y81.082 E0.00822
G1 X65.941 Y83.953 E0.13143
G1 X65.941 Y84.503 E0.01782
G1 X63.070 Y81.633 E0.13143
G1 X63.070 Y82.183 E0.01782
G1 X65.941 Y85.054 E0.13143
G1 X65.941 Y85.604 E0.01782
G1 X63.070 Y82.734 E0.13143
G1 X63.070 Y83.284 E0.01782
G1 X65.941 Y86.155 E0.13143
G1 X65.941 Y86.706 E0.01782
G1 X63.070 Y83.835 E0.13143
G1 X63.070 Y84.385 E0.01782
G1 X65.941 Y87.256 E0.13143
G1 X65.941 Y87.807 E0.01782
G1 X63.070 Y84.936 E0.13143
G1 X63.070 Y85.487 E0.01782
G1 X65.941 Y88.357 E0.13143
G1 X65.941 Y88.688 E0.01071
G1 X65.721 Y88.688 E0.00711
G1 X63.070 Y86.037 E0.12137
G1 X63.070 Y86.588 E0.01782
G1 X65.170 Y88.688 E0.09617
G1 X64.620 Y88.688 E0.01782
G1 X63.070 Y87.138 E0.07096
G1 X63.070 Y87.689 E0.01782
G1 X64.069 Y88.688 E0.04575
G1 X63.519 Y88.688 E0.01782
G1 X62.900 Y88.070 E0.02831
G1 F8640.000
G1 X63.519 Y88.688 E-0.20195
G1 X64.069 Y88.688 E-0.12713
G1 X63.070 Y87.689 E-0.32633
G1 X63.070 Y87.236 E-0.10458
G1 E-0.04000 F2100.00000
G1 Z0.800 F10800.000
G1 X66.412 Y88.996
G1 Z0.200
G1 E0.80000 F2100.00000
G1 F1200.000
G1 X69.401 Y88.996 E0.08151
G1 F8640.000
G1 X66.412 Y88.996 E-0.69028
G1 E-0.10972 F2100.00000
G1 Z0.800 F10800.000
G1 X76.277 Y82.721
G1 Z0.200
G1 E0.80000 F2100.00000
G1 F1200.000
G1 X76.277 Y80.545 E0.06822
G1 X79.213 Y80.545 E0.09207
G1 X79.213 Y82.721 E0.06822
G1 X76.337 Y82.721 E0.09019
G1 F8640.000
G1 X76.277 Y80.545 E-0.50260
G1 X77.391 Y80.545 E-0.25740
G1 E-0.04000 F2100.00000
G1 Z0.800 F10800.000
G1 X76.337 Y86.795
G1 Z0.200
G1 E0.80000 F2100.00000
G1 F1200.000
G1 X79.213 Y86.795 E0.09019
G1 X79.213 Y88.971 E0.06822
G1 X76.277 Y88.971 E0.09207
G1 X76.277 Y86.795 E0.06822
G1 F8640.000
G1 X79.213 Y86.795 E-0.67801
G1 X79.213 Y87.150 E-0.08199
G1 E-0.04000 F2100.00000
G1 Z0.800 F10800.000
G1 X76.590 Y83.098
G1 Z0.200
G1 E0.80000 F2100.00000
G1 F1200.000
G1 X76.590 Y86.418 E0.10410
G1 X79.590 Y86.418 E0.09406
G1 X79.590 Y89.348 E0.09187
G1 X75.899 Y89.348 E0.11571
G1 X75.899 Y80.168 E0.28783
G1 X79.590 Y80.168 E0.11571
G1 X79.590 Y83.098 E0.09187
G1 X76.650 Y83.098 E0.09218
G1 X76.203 Y83.200 F10800.000
G1 X76.245 Y82.910
G1 F1200.000
G1 X76.245 Y86.607 E0.09635
G1 F8640.000
G1 X76.245 Y83.315 E-0.76000
G1 E-0.04000 F2100.00000
G1 Z0.800 F10800.000
G1 X77.240 Y88.858
G1 Z0.200
G1 E0.80000 F2100.00000
G1 F1200.000
G1 X76.559 Y88.178 E0.03349
G1 X76.559 Y87.586 E0.02060
G1 X77.662 Y88.688 E0.05427
G1 X78.254 Y88.688 E0.02060
G1 X76.644 Y87.078 E0.07925
G1 X77.235 Y87.078 E0.02060
G1 X78.846 Y88.688 E0.07925
G1 X78.930 Y88.688 E0.00294
G1 X78.930 Y88.181 E0.01766
G1 X77.827 Y87.078 E0.05427
G1 X78.419 Y87.078 E0.02060
G1 X79.100 Y87.759 E0.03349
G1 F8640.000
G1 X78.419 Y87.078 E-0.22222
G1 X77.827 Y87.078 E-0.13667
G1 X78.930 Y88.181 E-0.36009
G1 X78.930 Y88.359 E-0.04101
G1 E-0.04000 F2100.00000
G1 Z0.800 F10800.000
G1 X77.240 Y82.608
G1 Z0.200
G1 E0.80000 F2100.00000
G1 F1200.000
G1 X76.559 Y81.928 E0.03349
G1 X76.559 Y81.336 E0.02060
G1 X77.662 Y82.438 E0.05427
G1 X78.254 Y82.438 E0.02060
G1 X76.644 Y80.828 E0.07925
G1 X77.235 Y80.828 E0.02060
G1 X78.846 Y82.438 E0.07925
G1 X78.930 Y82.438 E0.00294
G1 X78.930 Y81.931 E0.01766
G1 X77.827 Y80.828 E0.05427
G1 X78.419 Y80.828 E0.02060
G1 X79.100 Y81.509 E0.03349
G1 F8640.000
G1 X78.419 Y80.828 E-0.22222
G1 X77.827 Y80.828 E-0.13667
G1 X78.930 Y81.931 E-0.36009
G1 X78.930 Y82.109 E-0.04101
G1 E-0.04000 F2100.00000
G1 Z0.800 F10800.000
G1 X96.213 Y82.721
G1 Z0.200
G1 E0.80000 F2100.00000
G1 F1200.000
G1 X96.213 Y86.795 E0.12774
G1 X100.213 Y86.795 E0.12542
G1 X100.213 Y88.971 E0.06822
G1 X83.787 Y88.971 E0.51502
G1 X83.787 Y86.795 E0.06822
G1 X87.787 Y86.795 E0.12542
G1 X87.787 Y82.721 E0.12774
G1 X83.787 Y82.721 E0.12542
G1 X83.787 Y80.545 E0.06822
G1 X100.213 Y80.545 E0.51502
G1 X100.213 Y82.721 E0.06822
G1 X96.273 Y82.721 E0.12354
G1 X96.590 Y83.098 F10800.000
G1 F1200.000
G1 X96.590 Y86.418 E0.10410
G1 X100.590 Y86.418 E0.12542
G1 X100.590 Y89.348 E0.09187
G1 X83.410 Y89.348 E0.53867
G1 X83.410 Y86.418 E0.09187
G1 X87.410 Y86.418 E0.12542
G1 X87.410 Y83.098 E0.10410
G1 X83.410 Y83.098 E0.12542
G1 X83.410 Y80.168 E0.09187
G1 X100.590 Y80.168 E0.53867
G1 X100.590 Y83.098 E0.09187
G1 X96.650 Y83.098 E0.12354
G1 X96.199 Y83.182 F10800.000
G1 F8640.000
G1 X96.591 Y86.389 E-0.76000
G1 E-0.04000 F2100.00000
G1 Z0.800 F10800.000
G1 X96.100 Y86.683
G1 Z0.200
G1 E0.80000 F2100.00000
G1 F1200.000
G1 X90.245 Y80.828 E0.26476
G1 X90.789 Y80.828 E0.01739
G1 X95.930 Y85.969 E0.23249
G1 X95.930 Y85.425 E0.01739
G1 X91.333 Y80.828 E0.20790
G1 X91.877 Y80.828 E0.01739
G1 X95.930 Y84.881 E0.18330
G1 X95.930 Y84.337 E0.01739
G1 X92.421 Y80.828 E0.15870
G1 X92.965 Y80.828 E0.01739
G1 X95.930 Y83.794 E0.13411
G1 X95.930 Y83.250 E0.01739
G1 X93.509 Y80.828 E0.10951
G1 X94.053 Y80.828 E0.01739
G1 X95.930 Y82.706 E0.08491
G1 X95.930 Y82.438 E0.00855
G1 X96.207 Y82.438 E0.00884
G1 X94.596 Y80.828 E0.07282
G1 X95.140 Y80.828 E0.01739
G1 X96.751 Y82.438 E0.07282
G1 X97.294 Y82.438 E0.01739
G1 X95.684 Y80.828 E0.07282
G1 X96.228 Y80.828 E0.01739
G1 X97.838 Y82.438 E0.07282
G1 X98.382 Y82.438 E0.01739
G1 X96.772 Y80.828 E0.07282
G1 X97.316 Y80.828 E0.01739
G1 X98.926 Y82.438 E0.07282
G1 X99.470 Y82.438 E0.01739
G1 X97.860 Y80.828 E0.07282
G1 X98.404 Y80.828 E0.01739
G1 X99.930 Y82.355 E0.06904
G1 X99.930 Y81.811 E0.01739
G1 X98.947 Y80.828 E0.04444
G1 X99.491 Y80.828 E0.01739
G1 X100.100 Y81.437 E0.02752
G1 F8640.000
G1 X99.491 Y80.828 E-0.19870
G1 X98.947 Y80.828 E-0.12558
G1 X99.930 Y81.811 E-0.32090
G1 X99.930 Y82.308 E-0.11482
G1 E-0.04000 F2100.00000
G1 Z0.800 F10800.000
G1 X100.100 Y87.419
G1 Z0.200
G1 E0.80000 F2100.00000
G1 F1200.000
G1 X99.759 Y87.078 E0.01543
G1 X99.215 Y87.078 E0.01739
G1 X99.930 Y87.794 E0.03235
G1 X99.930 Y88.337 E0.01739
G1 X98.671 Y87.078 E0.05695
G1 X98.127 Y87.078 E0.01739
G1 X99.737 Y88.688 E0.07282
G1 X99.193 Y88.688 E0.01739
G1 X97.583 Y87.078 E0.07282
G1 X97.039 Y87.078 E0.01739
G1 X98.649 Y88.688 E0.07282
G1 X98.106 Y88.688 E0.01739
G1 X96.326 Y86.908 E0.08050
G1 F8640.000
G1 X98.106 Y88.688 E-0.58124
G1 X98.649 Y88.688 E-0.12558
G1 X98.487 Y88.526 E-0.05318
G1 E-0.04000 F2100.00000
G1 Z0.800 F10800.000
G1 X97.731 Y88.858
G1 Z0.200
G1 E0.80000 F2100.00000
G1 F1200.000
G1 X89.701 Y80.828 E0.36315
G1 X89.158 Y80.828 E0.01739
G1 X97.018 Y88.688 E0.35547
G1 X96.474 Y88.688 E0.01739
G1 X88.614 Y80.828 E0.35547
G1 X88.070 Y80.828 E0.01739
G1 X95.930 Y88.688 E0.35547
G1 X95.386 Y88.688 E0.01739
G1 X87.526 Y80.828 E0.35547
G1 X86.982 Y80.828 E0.01739
G1 X94.842 Y88.688 E0.35547
G1 X94.298 Y88.688 E0.01739
G1 X86.438 Y80.828 E0.35547
G1 X85.894 Y80.828 E0.01739
G1 X87.505 Y82.438 E0.07282
G1 X86.961 Y82.438 E0.01739
G1 X85.350 Y80.828 E0.07282
G1 X84.807 Y80.828 E0.01739
G1 X86.417 Y82.438 E0.07282
G1 X85.873 Y82.438 E0.01739
G1 X84.263 Y80.828 E0.07282
G1 X84.070 Y80.828 E0.00616
G1 X84.070 Y81.179 E0.01123
G1 X85.329 Y82.438 E0.05694
G1 X84.785 Y82.438 E0.01739
G1 X84.070 Y81.723 E0.03235
G1 X84.070 Y82.267 E0.01739
G1 X84.411 Y82.608 E0.01543
G1 F8640.000
G1 X84.070 Y82.267 E-0.11138
G1 X84.070 Y81.723 E-0.12558
G1 X84.785 Y82.438 E-0.23357
G1 X85.329 Y82.438 E-0.12558
G1 X84.827 Y81.937 E-0.16388
G1 E-0.04000 F2100.00000
G1 Z0.800 F10800.000
G1 X84.678 Y88.858
G1 Z0.200
G1 E0.80000 F2100.00000
G1 F1200.000
G1 X84.070 Y88.250 E0.02751
G1 X84.070 Y87.706 E0.01739
G1 X85.052 Y88.688 E0.04444
G1 X85.596 Y88.688 E0.01739
G1 X84.070 Y87.162 E0.06903
G1 X84.070 Y87.078 E0.00268
G1 X84.530 Y87.078 E0.01471
G1 X86.140 Y88.688 E0.07282
G1 X86.684 Y88.688 E0.01739
G1 X85.074 Y87.078 E0.07282
G1 X85.618 Y87.078 E0.01739
G1 X87.228 Y88.688 E0.07282
G1 X87.772 Y88.688 E0.01739
G1 X86.162 Y87.078 E0.07282
G1 X86.705 Y87.078 E0.01739
G1 X88.316 Y88.688 E0.07282
G1 X88.860 Y88.688 E0.01739
G1 X87.249 Y87.078 E0.07282
G1 X87.793 Y87.078 E0.01739
G1 X89.404 Y88.688 E0.07282
G1 X89.947 Y88.688 E0.01739
G1 X88.070 Y86.811 E0.08491
G1 X88.070 Y86.267 E0.01739
G1 X90.491 Y88.688 E0.10951
G1 X91.035 Y88.688 E0.01739
G1 X88.070 Y85.723 E0.13410
G1 X88.070 Y85.179 E0.01739
G1 X91.579 Y88.688 E0.15870
G1 X92.123 Y88.688 E0.01739
G1 X88.070 Y84.635 E0.18329
G1 X88.070 Y84.091 E0.01739
G1 X92.667 Y88.688 E0.20789
G1 X93.211 Y88.688 E0.01739
G1 X88.070 Y83.548 E0.23249
G1 X88.070 Y83.004 E0.01739
G1 X93.924 Y88.858 E0.26476
G1 F8640.000
G1 X91.597 Y86.531 E-0.76000
G1 E-0.04000 F2100.00000
G1 Z0.800 F10800.000
G1 X104.787 Y82.721
G1 Z0.200
G1 E0.80000 F2100.00000
G1 F1200.000
G1 X104.787 Y80.545 E0.06822
G1 X107.723 Y80.545 E0.09207
M73 Q1 S97
G1 X107.723 Y82.721 E0.06822
G1 X104.847 Y82.721 E0.09019
M73 P1 R96
G1 F8640.000
G1 X104.787 Y80.545 E-0.50260
G1 X105.902 Y80.545 E-0.25740
G1 E-0.04000 F2100.00000
G1 Z0.800 F10800.000
G1 X104.847 Y86.795
G1 Z0.200
G1 E0.80000 F2100.00000
G1 F1200.000
G1 X107.723 Y86.795 E0.09019
G1 X107.723 Y88.971 E0.06822
G1 X104.787 Y88.971 E0.09207
G1 X104.787 Y86.795 E0.06822
G1 F8640.000
G1 X107.723 Y86.795 E-0.67801
G1 X107.723 Y87.150 E-0.08199
G1 E-0.04000 F2100.00000
G1 Z0.800 F10800.000
G1 X107.410 Y86.418
G1 Z0.200
G1 E0.80000 F2100.00000
G1 F1200.000
G1 X107.410 Y83.098 E0.10410
G1 X104.410 Y83.098 E0.09406
G1 X104.410 Y80.168 E0.09187
G1 X108.101 Y80.168 E0.11571
G1 X108.101 Y89.348 E0.28783
G1 X104.410 Y89.348 E0.11571
G1 X104.410 Y86.418 E0.09187
G1 X107.350 Y86.418 E0.09218
G1 X107.797 Y86.316 F10800.000
G1 X107.755 Y86.607
G1 F1200.000
G1 X107.755 Y82.910 E0.09635
G1 F8640.000
G1 X107.755 Y86.201 E-0.76000
G1 E-0.04000 F2100.00000
G1 Z0.800 F10800.000
G1 X107.610 Y81.509
G1 Z0.200
G1 E0.80000 F2100.00000
G1 F1200.000
G1 X106.930 Y80.828 E0.03349
G1 X106.338 Y80.828 E0.02060
G1 X107.441 Y81.931 E0.05427
G1 X107.441 Y82.438 E0.01766
G1 X107.356 Y82.438 E0.00294
G1 X105.746 Y80.828 E0.07925
G1 X105.154 Y80.828 E0.02060
G1 X106.764 Y82.438 E0.07925
G1 X106.172 Y82.438 E0.02060
G1 X105.070 Y81.336 E0.05427
G1 X105.070 Y81.928 E0.02060
G1 X105.750 Y82.608 E0.03349
G1 F8640.000
G1 X105.070 Y81.928 E-0.22218
G1 X105.070 Y81.336 E-0.13667
G1 X106.172 Y82.438 E-0.36005
G1 X106.350 Y82.438 E-0.04110
G1 E-0.04000 F2100.00000
G1 Z0.800 F10800.000
G1 X107.610 Y87.759
G1 Z0.200
G1 E0.80000 F2100.00000
G1 F1200.000
G1 X106.930 Y87.078 E0.03349
G1 X106.338 Y87.078 E0.02060
G1 X107.441 Y88.181 E0.05427
G1 X107.441 Y88.688 E0.01766
G1 X107.356 Y88.688 E0.00294
G1 X105.746 Y87.078 E0.07925
G1 X105.154 Y87.078 E0.02060
G1 X106.764 Y88.688 E0.07925
G1 X106.172 Y88.688 E0.02060
G1 X105.070 Y87.586 E0.05427
G1 X105.070 Y88.178 E0.02060
G1 X105.750 Y88.858 E0.03349
G1 F8640.000
G1 X105.070 Y88.178 E-0.22218
G1 X105.070 Y87.586 E-0.13667
G1 X106.172 Y88.688 E-0.36005
G1 X106.350 Y88.688 E-0.04110
G1 E-0.04000 F2100.00000
G1 Z0.800 F10800.000
G1 X117.777 Y88.858
G1 Z0.200
G1 E0.80000 F2100.00000
G1 F1200.000
G1 X117.777 Y80.496 E0.26218
G1 X114.787 Y80.496 E0.09373
G1 X114.787 Y80.468 E0.00088
G1 X119.213 Y80.468 E0.13877
G1 X119.213 Y80.545 E0.00242
G1 X121.213 Y80.545 E0.06271
G1 X121.213 Y88.971 E0.26419
G1 X117.777 Y88.971 E0.10774
G1 X117.777 Y88.918 E0.00166
G1 X117.399 Y88.643 F10800.000
G1 F1200.000
G1 X117.399 Y80.873 E0.24362
G1 X114.410 Y80.873 E0.09373
G1 X114.410 Y80.091 E0.02453
G1 X119.590 Y80.091 E0.16242
G1 X119.590 Y80.168 E0.00242
G1 X121.590 Y80.168 E0.06271
G1 X121.590 Y89.348 E0.28783
G1 X114.716 Y89.348 E0.21552
G1 X114.716 Y88.643 E0.02210
G1 X117.339 Y88.643 E0.08225
G1 X117.798 Y88.609 F10800.000
G1 X117.588 Y88.996
G1 F1200.000
G1 X114.905 Y88.996 E0.07316
G1 F8640.000
G1 X117.588 Y88.996 E-0.61958
G1 E-0.18042 F2100.00000
G1 Z0.800 F10800.000
G1 X117.890 Y88.075
G1 Z0.200
G1 E0.80000 F2100.00000
G1 F1200.000
G1 X118.503 Y88.688 E0.02787
G1 X119.050 Y88.688 E0.01759
G1 X118.059 Y87.698 E0.04503
G1 X118.059 Y87.151 E0.01759
G1 X119.596 Y88.688 E0.06990
G1 X120.143 Y88.688 E0.01759
G1 X118.059 Y86.604 E0.09477
G1 X118.059 Y86.058 E0.01759
G1 X120.690 Y88.688 E0.11964
G1 X120.930 Y88.688 E0.00771
G1 X120.930 Y88.381 E0.00987
G1 X118.059 Y85.511 E0.13055
G1 X118.059 Y84.964 E0.01759
G1 X120.930 Y87.834 E0.13055
G1 X120.930 Y87.288 E0.01759
G1 X118.059 Y84.417 E0.13055
G1 X118.059 Y83.870 E0.01759
G1 X120.930 Y86.741 E0.13055
G1 X120.930 Y86.194 E0.01759
G1 X118.059 Y83.323 E0.13055
G1 X118.059 Y82.776 E0.01759
G1 X120.930 Y85.647 E0.13055
G1 X120.930 Y85.100 E0.01759
G1 X118.059 Y82.229 E0.13055
G1 X118.059 Y81.682 E0.01759
G1 X120.930 Y84.553 E0.13055
G1 X120.930 Y84.006 E0.01759
