; generated by PrusaSlicer 2.2.0+win64 on 2020-07-15 at 12:32:15 UTC

; 

; external perimeters extrusion width = 0.45mm
; perimeters extrusion width = 0.45mm
; infill extrusion width = 0.45mm
; solid infill extrusion width = 0.45mm
; top infill extrusion width = 0.40mm
; support material extrusion width = 0.35mm
; first layer extrusion width = 0.42mm

M73 P0 R26
M73 Q0 S26
M201 X1000 Y1000 Z200 E5000 ; sets maximum accelerations, mm/sec^2
M203 X200 Y200 Z12 E120 ; sets maximum feedrates, mm/sec
M204 P1250 R1250 T1250 ; sets acceleration (P, T) and retract acceleration (R), mm/sec^2
M205 X8.00 Y8.00 Z0.40 E4.50 ; sets the jerk limits, mm/sec
M205 S0 T0 ; sets the minimum extruding and travel feed rate, mm/sec
M107
M862.3 P "MK3S" ; printer model check
M862.1 P0.4 ; nozzle diameter check
M115 U3.9.0 ; tell printer latest fw version
G90 ; use absolute coordinates
M83 ; extruder relative mode
M104 S215 ; set extruder temp
M140 S60 ; set bed temp
M190 S60 ; wait for bed temp
M109 S215 ; wait for extruder temp
G28 W ; home all without mesh bed level
G80 ; mesh bed leveling
G1 Y-3.0 F1000.0 ; go outside print area
G92 E0.0
G1 X60.0 E9.0 F1000.0 ; intro line
M73 Q0 S26
M73 P0 R26
G1 X100.0 E12.5 F1000.0 ; intro line
G92 E0.0
M221 S95
G21 ; set units to millimeters
G90 ; use absolute coordinates
M83 ; use relative distances for extrusion
M900 K0.06 ; Filament gcode LA 1.5
M900 K30 ; Filament gcode LA 1.0
;BEFORE_LAYER_CHANGE
G92 E0.0
;0.2


G1 E-0.80000 F2100.00000
G1 Z0.600 F10800.000
;AFTER_LAYER_CHANGE
;0.2
G1 X102.470 Y108.426
G1 Z0.200
G1 E0.80000 F2100.00000
M204 S1000
G1 F1200.000
G1 X102.977 Y108.240 E0.01692
G1 X103.508 Y108.172 E0.01680
G1 X117.102 Y108.002 E0.42625
G1 X133.712 Y108.002 E0.52079
G1 X154.885 Y108.172 E0.66391
G1 X155.559 Y108.288 E0.02142
G1 X156.168 Y108.588 E0.02130
G1 X156.584 Y108.950 E0.01728
G1 X160.992 Y113.893 E0.20765
G1 X161.284 Y114.324 E0.01633
G1 X161.476 Y114.808 E0.01633
G1 X161.560 Y115.417 E0.01929
G1 X161.559 Y125.499 E0.31612
G1 X161.444 Y126.169 E0.02130
G1 X161.143 Y126.779 E0.02130
G1 X156.505 Y132.171 E0.22301
G1 X155.849 Y132.635 E0.02520
G1 X155.072 Y132.855 E0.02532
G1 X103.530 Y132.868 E1.61608
G1 X102.635 Y132.688 E0.02860
G1 X101.874 Y132.185 E0.02860
G1 X97.370 Y126.972 E0.21601
G1 X97.061 Y126.507 E0.01752
G1 X96.874 Y126.001 E0.01692
G1 X96.806 Y125.465 E0.01692
G1 X96.806 Y115.412 E0.31522
G1 X96.905 Y114.755 E0.02083
G1 X97.104 Y114.282 E0.01609
G1 X97.397 Y113.865 E0.01597
G1 X101.803 Y108.927 E0.20752
G1 X102.422 Y108.462 E0.02426
G1 F8640.000
G1 X102.977 Y108.240 E-0.13795
G1 X103.508 Y108.172 E-0.12375
G1 X105.666 Y108.145 E-0.49830
G1 E-0.04000 F2100.00000
G1 Z0.800 F10800.000
G1 X103.541 Y115.114
G1 Z0.200
G1 E0.80000 F2100.00000
G1 F1200.000
G1 X103.541 Y110.549 E0.14313
G1 X104.296 Y110.549 E0.02365
G1 X104.296 Y114.944 E0.13781
G1 X105.050 Y114.944 E0.02365
G1 X105.050 Y110.549 E0.13781
G1 X105.804 Y110.549 E0.02365
G1 X105.804 Y114.944 E0.13781
G1 X106.558 Y114.944 E0.02365
G1 X106.558 Y110.549 E0.13781
G1 X107.312 Y110.549 E0.02365
G1 X107.312 Y115.142 E0.14402
G1 X117.116 Y110.379 F10800.000
G1 F1200.000
G1 X117.116 Y115.021 E0.14556
G1 X116.362 Y115.021 E0.02365
G1 X116.362 Y110.549 E0.14024
G1 X115.608 Y110.549 E0.02365
G1 X115.608 Y115.021 E0.14024
G1 X114.854 Y115.021 E0.02365
G1 X114.854 Y110.549 E0.14024
G1 X114.100 Y110.549 E0.02365
G1 X114.100 Y115.021 E0.14024
G1 X113.345 Y115.021 E0.02365
G1 X113.345 Y110.549 E0.14024
G1 X112.591 Y110.549 E0.02365
G1 X112.591 Y115.021 E0.14024
G1 X112.501 Y115.021 E0.00283
G1 X112.259 Y115.263 E0.01074
G1 X112.259 Y125.606 E0.32428
G1 X112.501 Y125.848 E0.01074
G1 X112.591 Y125.848 E0.00283
G1 X112.591 Y130.321 E0.14024
G1 X113.345 Y130.321 E0.02365
G1 X113.345 Y125.848 E0.14024
G1 X114.100 Y125.848 E0.02365
G1 X114.100 Y130.321 E0.14024
G1 X114.854 Y130.321 E0.02365
G1 X114.854 Y125.848 E0.14024
G1 X115.608 Y125.848 E0.02365
G1 X115.608 Y130.321 E0.14024
G1 X116.362 Y130.321 E0.02365
G1 X116.362 Y125.848 E0.14024
G1 X117.116 Y125.848 E0.02365
G1 X117.116 Y130.321 E0.14024
G1 X117.870 Y130.321 E0.02365
G1 X117.870 Y110.549 E0.61995
G1 X118.625 Y110.549 E0.02365
G1 X118.625 Y130.321 E0.61995
G1 X119.379 Y130.321 E0.02365
G1 X119.379 Y110.549 E0.61995
G1 X120.133 Y110.549 E0.02365
G1 X120.133 Y115.021 E0.14024
G1 X120.887 Y115.021 E0.02365
G1 X120.887 Y110.549 E0.14024
G1 X121.641 Y110.549 E0.02365
G1 X121.641 Y115.021 E0.14024
G1 X122.395 Y115.021 E0.02365
G1 X122.395 Y110.549 E0.14024
G1 X123.149 Y110.549 E0.02365
G1 X123.149 Y115.021 E0.14024
G1 X123.904 Y115.021 E0.02365
G1 X123.904 Y110.549 E0.14024
G1 X124.658 Y110.549 E0.02365
G1 X124.658 Y115.191 E0.14556
G1 F8640.000
G1 X124.658 Y111.899 E-0.76000
G1 E-0.04000 F2100.00000
G1 Z0.800 F10800.000
G1 X133.708 Y110.379
G1 Z0.200
G1 E0.80000 F2100.00000
G1 F1200.000
G1 X133.708 Y115.021 E0.14556
G1 X134.462 Y115.021 E0.02365
G1 X134.462 Y110.549 E0.14024
G1 X135.216 Y110.549 E0.02365
G1 X135.216 Y115.021 E0.14024
G1 X135.970 Y115.021 E0.02365
G1 X135.970 Y110.549 E0.14024
G1 X136.724 Y110.549 E0.02365
G1 X136.724 Y115.021 E0.14024
G1 X137.478 Y115.021 E0.02365
G1 X137.478 Y110.549 E0.14024
G1 X138.233 Y110.549 E0.02365
G1 X138.233 Y115.191 E0.14556
G1 X145.774 Y115.191 F10800.000
G1 F1200.000
G1 X145.774 Y110.549 E0.14556
G1 X145.020 Y110.549 E0.02365
G1 X145.020 Y115.021 E0.14024
G1 X144.266 Y115.021 E0.02365
G1 X144.266 Y110.549 E0.14024
G1 X143.512 Y110.549 E0.02365
G1 X143.512 Y115.021 E0.14024
G1 X142.758 Y115.021 E0.02365
G1 X142.758 Y110.549 E0.14024
G1 X142.003 Y110.549 E0.02365
G1 X142.003 Y115.021 E0.14024
G1 X141.249 Y115.021 E0.02365
G1 X141.249 Y110.549 E0.14024
G1 X140.495 Y110.549 E0.02365
G1 X140.495 Y130.321 E0.61995
G1 X139.741 Y130.321 E0.02365
G1 X139.741 Y110.549 E0.61995
G1 X138.987 Y110.549 E0.02365
G1 X138.987 Y130.321 E0.61995
G1 X138.233 Y130.321 E0.02365
G1 X138.233 Y125.848 E0.14024
G1 X137.478 Y125.848 E0.02365
G1 X137.478 Y130.321 E0.14024
G1 X136.724 Y130.321 E0.02365
G1 X136.724 Y125.848 E0.14024
G1 X135.970 Y125.848 E0.02365
G1 X135.970 Y130.321 E0.14024
G1 X135.216 Y130.321 E0.02365
G1 X135.216 Y125.848 E0.14024
G1 X134.462 Y125.848 E0.02365
G1 X134.462 Y130.321 E0.14024
G1 X133.708 Y130.321 E0.02365
G1 X133.708 Y125.679 E0.14556
G1 F8640.000
G1 X133.708 Y128.970 E-0.76000
G1 E-0.04000 F2100.00000
G1 Z0.800 F10800.000
G1 X135.970 Y121.441
G1 Z0.200
G1 E0.80000 F2100.00000
G1 F1200.000
G1 X135.970 Y119.598 E0.05777
G1 X136.724 Y119.598 E0.02365
G1 X136.724 Y121.271 E0.05245
G1 X137.478 Y121.271 E0.02365
G1 X137.478 Y119.598 E0.05245
G1 X138.233 Y119.598 E0.02365
G1 X138.233 Y121.441 E0.05777
G1 X143.512 Y121.441 F10800.000
G1 F1200.000
G1 X143.512 Y119.598 E0.05777
G1 X142.758 Y119.598 E0.02365
G1 X142.758 Y121.271 E0.05245
G1 X142.003 Y121.271 E0.02365
G1 X142.003 Y119.598 E0.05245
G1 X141.249 Y119.598 E0.02365
G1 X141.249 Y121.271 E0.05245
G1 X141.011 Y121.271 E0.00746
G1 X140.769 Y121.513 E0.01074
G1 X140.769 Y125.606 E0.12832
G1 X141.011 Y125.848 E0.01074
G1 X141.249 Y125.848 E0.00746
G1 X141.249 Y130.321 E0.14024
G1 X142.003 Y130.321 E0.02365
G1 X142.003 Y125.848 E0.14024
G1 X142.758 Y125.848 E0.02365
G1 X142.758 Y130.321 E0.14024
G1 X143.512 Y130.321 E0.02365
G1 X143.512 Y125.848 E0.14024
G1 X144.266 Y125.848 E0.02365
G1 X144.266 Y130.321 E0.14024
G1 X145.020 Y130.321 E0.02365
G1 X145.020 Y125.848 E0.14024
G1 X145.774 Y125.848 E0.02365
G1 X145.774 Y130.321 E0.14024
G1 X146.528 Y130.321 E0.02365
G1 X146.528 Y110.549 E0.61995
G1 X147.283 Y110.549 E0.02365
G1 X147.283 Y130.321 E0.61995
G1 X148.037 Y130.321 E0.02365
G1 X148.037 Y110.549 E0.61995
G1 X148.791 Y110.549 E0.02365
G1 X148.791 Y130.321 E0.61995
G1 X149.545 Y130.321 E0.02365
G1 X149.545 Y110.549 E0.61995
G1 X150.299 Y110.549 E0.02365
G1 X150.299 Y130.321 E0.61995
G1 X151.053 Y130.321 E0.02365
G1 X151.053 Y117.373 E0.40596
G1 X151.011 Y117.373 E0.00131
G1 X150.769 Y117.131 E0.01074
G1 X150.769 Y115.186 E0.06098
G1 X151.011 Y114.944 E0.01074
G1 X151.053 Y114.944 E0.00131
G1 X151.053 Y110.549 E0.13781
G1 X151.808 Y110.549 E0.02365
G1 X151.808 Y114.944 E0.13781
G1 X152.562 Y114.944 E0.02365
G1 X152.562 Y110.549 E0.13781
G1 X153.316 Y110.549 E0.02365
G1 X153.316 Y114.944 E0.13781
G1 X154.070 Y114.944 E0.02365
G1 X154.070 Y110.549 E0.13781
G1 X154.824 Y110.549 E0.02365
G1 X154.824 Y115.114 E0.14313
G1 F8640.000
G1 X154.824 Y111.822 E-0.76000
G1 E-0.04000 F2100.00000
G1 Z0.800 F10800.000
G1 X153.316 Y117.204
G1 Z0.200
G1 E0.80000 F2100.00000
G1 F1200.000
G1 X153.316 Y123.496 E0.19730
G1 X152.562 Y123.496 E0.02365
G1 X152.562 Y117.373 E0.19198
G1 X151.808 Y117.373 E0.02365
G1 X151.808 Y123.496 E0.19198
G1 X151.318 Y123.496 E0.01536
G1 X151.075 Y123.738 E0.01074
G1 X151.075 Y125.606 E0.05856
G1 X151.318 Y125.848 E0.01074
G1 X151.808 Y125.848 E0.01536
G1 X151.808 Y130.321 E0.14024
G1 X152.562 Y130.321 E0.02365
G1 X152.562 Y125.848 E0.14024
G1 X153.316 Y125.848 E0.02365
G1 X153.316 Y130.321 E0.14024
G1 X154.070 Y130.321 E0.02365
G1 X154.070 Y125.848 E0.14024
G1 X154.824 Y125.848 E0.02365
G1 X154.824 Y130.491 E0.14556
G1 F8640.000
G1 X154.824 Y127.199 E-0.76000
G1 E-0.04000 F2100.00000
G1 Z0.800 F10800.000
G1 X124.658 Y130.491
G1 Z0.200
G1 E0.80000 F2100.00000
G1 F1200.000
G1 X124.658 Y125.848 E0.14556
G1 X123.904 Y125.848 E0.02365
G1 X123.904 Y130.321 E0.14024
G1 X123.149 Y130.321 E0.02365
G1 X123.149 Y125.848 E0.14024
G1 X122.395 Y125.848 E0.02365
G1 X122.395 Y130.321 E0.14024
G1 X121.641 Y130.321 E0.02365
G1 X121.641 Y125.848 E0.14024
G1 X120.887 Y125.848 E0.02365
G1 X120.887 Y130.321 E0.14024
G1 X120.133 Y130.321 E0.02365
G1 X120.133 Y125.848 E0.14024
G1 X120.011 Y125.848 E0.00381
G1 X119.769 Y125.606 E0.01074
G1 X119.769 Y121.513 E0.12832
G1 X120.011 Y121.271 E0.01074
G1 X120.133 Y121.271 E0.00381
G1 X120.133 Y119.598 E0.05245
G1 X120.887 Y119.598 E0.02365
G1 X120.887 Y121.271 E0.05245
G1 X121.641 Y121.271 E0.02365
G1 X121.641 Y119.598 E0.05245
G1 X122.395 Y119.598 E0.02365
G1 X122.395 Y121.441 E0.05777
G1 X117.116 Y121.441 F10800.000
G1 F1200.000
G1 X117.116 Y119.598 E0.05777
G1 X116.362 Y119.598 E0.02365
G1 X116.362 Y121.271 E0.05245
G1 X115.608 Y121.271 E0.02365
G1 X115.608 Y119.598 E0.05245
G1 X114.854 Y119.598 E0.02365
G1 X114.854 Y121.441 E0.05777
G1 F8640.000
G1 X114.854 Y119.598 E-0.42546
G1 X115.608 Y119.598 E-0.17414
G1 X115.608 Y120.293 E-0.16040
G1 E-0.04000 F2100.00000
G1 Z0.800 F10800.000
G1 X107.312 Y123.694
G1 Z0.200
G1 E0.80000 F2100.00000
G1 F1200.000
G1 X107.312 Y117.373 E0.19819
G1 X106.558 Y117.373 E0.02365
G1 X106.558 Y123.496 E0.19198
G1 X105.804 Y123.496 E0.02365
G1 X105.804 Y117.373 E0.19198
G1 X105.050 Y117.373 E0.02365
G1 X105.050 Y123.666 E0.19730
G1 F8640.000
G1 X105.050 Y120.374 E-0.76000
G1 E-0.04000 F2100.00000
G1 Z0.800 F10800.000
G1 X103.541 Y130.491
G1 Z0.200
G1 E0.80000 F2100.00000
G1 F1200.000
G1 X103.541 Y125.848 E0.14556
G1 X104.296 Y125.848 E0.02365
G1 X104.295 Y130.321 E0.14024
G1 X105.050 Y130.321 E0.02365
G1 X105.050 Y125.848 E0.14024
G1 X105.804 Y125.848 E0.02365
G1 X105.804 Y130.321 E0.14024
G1 X106.558 Y130.321 E0.02365
G1 X106.558 Y125.848 E0.14024
G1 X107.312 Y125.848 E0.02365
G1 X107.312 Y130.321 E0.14024
G1 X108.066 Y130.321 E0.02365
G1 X108.066 Y110.549 E0.61995
G1 X108.820 Y110.549 E0.02365
G1 X108.820 Y130.321 E0.61995
G1 X109.575 Y130.321 E0.02365
G1 X109.575 Y110.549 E0.61995
M73 Q4 S25
G1 X110.329 Y110.549 E0.02365
G1 X110.329 Y130.321 E0.61995
M73 P4 R25
G1 X111.083 Y130.321 E0.02365
G1 X111.083 Y110.549 E0.61995
G1 X111.837 Y110.549 E0.02365
G1 X111.837 Y130.491 E0.62527
G1 F8640.000
G1 X111.837 Y127.199 E-0.76000
G1 E-0.04000 F2100.00000
G1 Z0.800 F10800.000
G1 X103.406 Y124.648
G1 Z0.200
G1 E0.80000 F2100.00000
G1 F1200.000
G1 X99.970 Y124.648 E0.10774
G1 X99.970 Y116.222 E0.26419
G1 X101.970 Y116.222 E0.06271
G1 X101.970 Y116.144 E0.00242
G1 X106.396 Y116.144 E0.13877
G1 X106.396 Y116.173 E0.00088
G1 X103.406 Y116.173 E0.09373
G1 X103.406 Y124.588 E0.26385
G1 F8640.000
G1 X100.115 Y124.645 E-0.76000
G1 E-0.04000 F2100.00000
G1 Z0.800 F10800.000
G1 X103.783 Y116.550
G1 Z0.200
G1 E0.80000 F2100.00000
G1 F1200.000
G1 X103.783 Y124.320 E0.24362
G1 X106.773 Y124.320 E0.09373
G1 X106.773 Y125.025 E0.02210
G1 X99.593 Y125.025 E0.22512
G1 X99.593 Y115.845 E0.28783
G1 X101.593 Y115.845 E0.06271
G1 X101.593 Y115.767 E0.00242
G1 X106.773 Y115.767 E0.16242
G1 X106.773 Y116.550 E0.02453
G1 X103.843 Y116.550 E0.09185
G1 X103.385 Y116.584 F10800.000
G1 X103.293 Y117.046
G1 F1200.000
G1 X102.675 Y116.427 E0.02832
G1 X102.253 Y116.427 E0.01366
G1 X102.253 Y116.505 E0.00250
G1 X102.201 Y116.505 E0.00166
G1 X103.123 Y117.427 E0.04222
G1 X103.123 Y117.977 E0.01782
G1 X101.651 Y116.505 E0.06743
G1 X101.100 Y116.505 E0.01782
G1 X103.123 Y118.528 E0.09263
G1 X103.123 Y119.079 E0.01782
G1 X100.549 Y116.505 E0.11784
G1 X100.253 Y116.505 E0.00961
G1 X100.253 Y116.758 E0.00822
G1 X103.123 Y119.629 E0.13143
G1 X103.123 Y120.180 E0.01782
G1 X100.253 Y117.309 E0.13143
G1 X100.253 Y117.860 E0.01782
G1 X103.123 Y120.730 E0.13143
G1 X103.123 Y121.281 E0.01782
G1 X100.253 Y118.410 E0.13143
G1 X100.253 Y118.961 E0.01782
G1 X103.123 Y121.832 E0.13143
G1 X103.123 Y122.382 E0.01782
G1 X100.253 Y119.511 E0.13143
G1 X100.253 Y120.062 E0.01782
G1 X103.123 Y122.933 E0.13143
G1 X103.123 Y123.483 E0.01782
G1 X100.253 Y120.613 E0.13143
G1 X100.253 Y121.163 E0.01782
G1 X103.123 Y124.034 E0.13143
G1 X103.123 Y124.365 E0.01071
G1 X102.904 Y124.365 E0.00711
G1 X100.253 Y121.714 E0.12137
G1 X100.253 Y122.264 E0.01782
G1 X102.353 Y124.365 E0.09617
G1 X101.803 Y124.365 E0.01782
G1 X100.253 Y122.815 E0.07096
G1 X100.253 Y123.365 E0.01782
G1 X101.252 Y124.365 E0.04575
G1 X100.701 Y124.365 E0.01782
G1 X100.083 Y123.746 E0.02831
G1 F8640.000
G1 X100.701 Y124.365 E-0.20195
G1 X101.252 Y124.365 E-0.12713
G1 X100.253 Y123.365 E-0.32633
G1 X100.253 Y122.913 E-0.10458
G1 E-0.04000 F2100.00000
G1 Z0.800 F10800.000
G1 X103.595 Y124.672
G1 Z0.200
G1 E0.80000 F2100.00000
G1 F1200.000
G1 X106.584 Y124.672 E0.08151
G1 F8640.000
G1 X103.595 Y124.672 E-0.69028
G1 E-0.10972 F2100.00000
G1 Z0.800 F10800.000
G1 X113.459 Y118.398
G1 Z0.200
G1 E0.80000 F2100.00000
G1 F1200.000
G1 X113.459 Y116.222 E0.06822
G1 X116.396 Y116.222 E0.09207
G1 X116.396 Y118.398 E0.06822
G1 X113.519 Y118.398 E0.09019
G1 F8640.000
G1 X113.459 Y116.222 E-0.50260
G1 X114.574 Y116.222 E-0.25740
G1 E-0.04000 F2100.00000
G1 Z0.800 F10800.000
G1 X113.519 Y122.472
G1 Z0.200
G1 E0.80000 F2100.00000
G1 F1200.000
G1 X116.396 Y122.472 E0.09019
G1 X116.396 Y124.648 E0.06822
G1 X113.459 Y124.648 E0.09207
G1 X113.459 Y122.472 E0.06822
G1 F8640.000
G1 X116.396 Y122.472 E-0.67801
G1 X116.396 Y122.827 E-0.08199
G1 E-0.04000 F2100.00000
G1 Z0.800 F10800.000
G1 X113.773 Y118.775
G1 Z0.200
G1 E0.80000 F2100.00000
G1 F1200.000
G1 X113.773 Y122.095 E0.10410
G1 X116.773 Y122.095 E0.09406
G1 X116.773 Y125.025 E0.09187
G1 X113.082 Y125.025 E0.11571
G1 X113.082 Y115.845 E0.28783
G1 X116.773 Y115.845 E0.11571
G1 X116.773 Y118.775 E0.09187
G1 X113.833 Y118.775 E0.09218
G1 X113.386 Y118.877 F10800.000
G1 X113.427 Y118.586
G1 F1200.000
G1 X113.427 Y122.283 E0.09635
G1 F8640.000
G1 X113.427 Y118.992 E-0.76000
G1 E-0.04000 F2100.00000
G1 Z0.800 F10800.000
G1 X114.422 Y124.535
G1 Z0.200
G1 E0.80000 F2100.00000
G1 F1200.000
G1 X113.742 Y123.854 E0.03349
G1 X113.742 Y123.262 E0.02060
G1 X114.845 Y124.365 E0.05427
G1 X115.437 Y124.365 E0.02060
G1 X113.826 Y122.755 E0.07925
G1 X114.418 Y122.755 E0.02060
G1 X116.029 Y124.365 E0.07925
G1 X116.113 Y124.365 E0.00294
G1 X116.113 Y123.857 E0.01766
G1 X115.010 Y122.755 E0.05427
G1 X115.602 Y122.755 E0.02060
G1 X116.283 Y123.435 E0.03349
G1 F8640.000
G1 X115.602 Y122.755 E-0.22222
G1 X115.010 Y122.755 E-0.13667
G1 X116.113 Y123.857 E-0.36009
G1 X116.113 Y124.035 E-0.04101
G1 E-0.04000 F2100.00000
G1 Z0.800 F10800.000
G1 X114.422 Y118.285
G1 Z0.200
G1 E0.80000 F2100.00000
G1 F1200.000
G1 X113.742 Y117.604 E0.03349
G1 X113.742 Y117.012 E0.02060
G1 X114.845 Y118.115 E0.05427
G1 X115.437 Y118.115 E0.02060
G1 X113.826 Y116.505 E0.07925
G1 X114.418 Y116.505 E0.02060
