; generated by PrusaSlicer 2.2.0+win64 on 2020-07-19 at 19:28:04 UTC

; 

; external perimeters extrusion width = 0.45mm
; perimeters extrusion width = 0.45mm
; infill extrusion width = 0.45mm
; solid infill extrusion width = 0.45mm
; top infill extrusion width = 0.40mm
; first layer extrusion width = 0.42mm

M73 P0 R61
M73 Q0 S61
M201 X1000 Y1000 Z200 E5000 ; sets maximum accelerations, mm/sec^2
M203 X200 Y200 Z12 E120 ; sets maximum feedrates, mm/sec
M204 P1250 R1250 T1250 ; sets acceleration (P, T) and retract acceleration (R), mm/sec^2
M205 X8.00 Y8.00 Z0.40 E4.50 ; sets the jerk limits, mm/sec
M205 S0 T0 ; sets the minimum extruding and travel feed rate, mm/sec
M107
M862.3 P "MK3S" ; printer model check
M862.1 P0.4 ; nozzle diameter check
M115 U3.9.0 ; tell printer latest fw version
G90 ; use absolute coordinates
M83 ; extruder relative mode
M104 S215 ; set extruder temp
M140 S60 ; set bed temp
M190 S60 ; wait for bed temp
M109 S215 ; wait for extruder temp
G28 W ; home all without mesh bed level
G80 ; mesh bed leveling
G1 Y-3.0 F1000.0 ; go outside print area
G92 E0.0
G1 X60.0 E9.0 F1000.0 ; intro line
M73 Q0 S61
M73 P0 R61
G1 X100.0 E12.5 F1000.0 ; intro line
G92 E0.0
M221 S95
G21 ; set units to millimeters
G90 ; use absolute coordinates
M83 ; use relative distances for extrusion
M900 K0.06 ; Filament gcode LA 1.5
M900 K30 ; Filament gcode LA 1.0
;BEFORE_LAYER_CHANGE
G92 E0.0
;0.2


G1 E-0.80000 F2100.00000
G1 Z0.600 F10800.000
;AFTER_LAYER_CHANGE
;0.2
G1 X93.930 Y96.409
G1 Z0.200
G1 E0.80000 F2100.00000
M204 S1000
G1 F1200.000
G1 X95.316 Y95.520 E0.05163
G1 X139.366 Y77.276 E1.49495
G1 X141.019 Y76.947 E0.05283
G1 X147.208 Y76.945 E0.19407
G1 X149.045 Y77.310 E0.05871
G1 X154.766 Y79.682 E0.19419
G1 X156.172 Y80.624 E0.05306
G1 X160.589 Y85.040 E0.19586
G1 X161.371 Y86.152 E0.04261
G1 X164.027 Y92.526 E0.21651
G1 X164.279 Y93.942 E0.04511
G1 X164.280 Y100.128 E0.19395
G1 X163.941 Y101.882 E0.05601
G1 X161.556 Y107.639 E0.19538
G1 X160.830 Y108.783 E0.04249
G1 X156.070 Y113.591 E0.21212
G1 X154.674 Y114.484 E0.05199
G1 X110.715 Y132.693 E1.49184
G1 X109.276 Y133.022 E0.04628
G1 X102.700 Y133.053 E0.20620
G1 X100.959 Y132.692 E0.05577
G1 X95.262 Y130.331 E0.19335
G1 X94.117 Y129.606 E0.04248
G1 X89.310 Y124.845 E0.21213
G1 X88.445 Y123.515 E0.04975
G1 X85.967 Y117.452 E0.20536
G1 X85.721 Y116.046 E0.04475
G1 X85.750 Y109.516 E0.20477
G1 X86.062 Y108.111 E0.04511
G1 X88.595 Y102.079 E0.20512
G1 X89.412 Y100.914 E0.04463
G1 X93.887 Y96.452 E0.19815
G1 F8640.000
G1 X95.316 Y95.520 E-0.39381
G1 X96.781 Y94.913 E-0.36619
G1 E-0.04000 F2100.00000
G1 Z0.800 F10800.000
G1 X143.297 Y100.700
G1 Z0.200
G1 E0.80000 F2100.00000
G1 F1200.000
G1 X142.740 Y100.520 E0.01834
G1 X142.400 Y100.359 E0.01179
G1 X142.085 Y100.171 E0.01150
G1 X141.791 Y99.952 E0.01150
G1 X141.519 Y99.706 E0.01150
G1 X141.273 Y99.434 E0.01150
G1 X141.054 Y99.139 E0.01150
G1 X140.866 Y98.825 E0.01150
G1 X140.709 Y98.493 E0.01150
G1 X140.590 Y98.161 E0.01105
G1 X140.496 Y97.793 E0.01192
G1 X140.442 Y97.429 E0.01154
G1 X140.424 Y97.063 E0.01150
G1 X140.442 Y96.696 E0.01150
G1 X140.496 Y96.333 E0.01150
G1 X140.585 Y95.978 E0.01150
G1 X140.709 Y95.632 E0.01150
G1 X140.866 Y95.301 E0.01150
G1 X141.054 Y94.986 E0.01150
G1 X141.273 Y94.691 E0.01150
G1 X141.519 Y94.420 E0.01150
G1 X141.791 Y94.173 E0.01150
G1 X142.085 Y93.955 E0.01150
G1 X142.400 Y93.766 E0.01150
G1 X142.732 Y93.609 E0.01150
G1 X143.077 Y93.486 E0.01150
G1 X143.433 Y93.397 E0.01150
G1 X143.796 Y93.343 E0.01150
G1 X144.148 Y93.325 E0.01105
G1 X144.527 Y93.343 E0.01192
G1 X144.891 Y93.397 E0.01154
G1 X145.247 Y93.486 E0.01150
G1 X145.593 Y93.609 E0.01150
G1 X145.924 Y93.766 E0.01150
G1 X146.239 Y93.955 E0.01150
G1 X146.534 Y94.173 E0.01150
G1 X146.805 Y94.420 E0.01150
G1 X147.052 Y94.691 E0.01150
G1 X147.270 Y94.986 E0.01150
G1 X147.459 Y95.301 E0.01150
G1 X147.616 Y95.632 E0.01150
G1 X147.739 Y95.978 E0.01150
G1 X147.828 Y96.333 E0.01150
G1 X147.882 Y96.696 E0.01150
G1 X147.900 Y97.063 E0.01150
G1 X147.882 Y97.429 E0.01150
G1 X147.828 Y97.792 E0.01150
G1 X147.739 Y98.148 E0.01150
G1 X147.616 Y98.493 E0.01150
G1 X147.459 Y98.825 E0.01150
G1 X147.270 Y99.139 E0.01150
G1 X147.052 Y99.434 E0.01150
G1 X146.805 Y99.706 E0.01150
G1 X146.534 Y99.952 E0.01150
G1 X146.239 Y100.171 E0.01150
G1 X145.924 Y100.359 E0.01150
G1 X145.584 Y100.520 E0.01179
G1 X145.028 Y100.700 E0.01834
G1 X143.357 Y100.700 E0.05239
G1 X143.357 Y100.323 F10800.000
G1 F1200.000
G1 X142.879 Y100.169 E0.01573
G1 X142.578 Y100.026 E0.01044
G1 X142.295 Y99.857 E0.01034
G1 X142.030 Y99.660 E0.01034
G1 X141.786 Y99.439 E0.01034
G1 X141.565 Y99.195 E0.01034
G1 X141.368 Y98.930 E0.01034
G1 X141.199 Y98.647 E0.01034
G1 X141.058 Y98.349 E0.01034
G1 X140.951 Y98.051 E0.00991
G1 X140.866 Y97.719 E0.01076
G1 X140.818 Y97.392 E0.01035
G1 X140.802 Y97.063 E0.01034
G1 X140.818 Y96.733 E0.01034
G1 X140.866 Y96.407 E0.01034
G1 X140.946 Y96.087 E0.01034
G1 X141.058 Y95.777 E0.01034
G1 X141.199 Y95.479 E0.01034
G1 X141.368 Y95.196 E0.01034
G1 X141.564 Y94.931 E0.01034
G1 X141.786 Y94.686 E0.01034
G1 X142.030 Y94.465 E0.01034
G1 X142.295 Y94.269 E0.01034
G1 X142.578 Y94.099 E0.01034
G1 X142.876 Y93.958 E0.01034
G1 X143.187 Y93.847 E0.01034
G1 X143.507 Y93.767 E0.01034
G1 X143.833 Y93.718 E0.01034
G1 X144.148 Y93.703 E0.00991
G1 X144.491 Y93.718 E0.01076
G1 X144.818 Y93.767 E0.01035
G1 X145.138 Y93.847 E0.01034
G1 X145.448 Y93.958 E0.01034
G1 X145.746 Y94.099 E0.01034
G1 X146.029 Y94.269 E0.01034
G1 X146.294 Y94.465 E0.01034
G1 X146.538 Y94.686 E0.01034
G1 X146.760 Y94.931 E0.01034
G1 X146.956 Y95.196 E0.01034
G1 X147.126 Y95.479 E0.01034
G1 X147.267 Y95.777 E0.01034
G1 X147.378 Y96.087 E0.01034
G1 X147.458 Y96.407 E0.01034
G1 X147.506 Y96.733 E0.01034
G1 X147.523 Y97.063 E0.01034
G1 X147.506 Y97.392 E0.01034
G1 X147.458 Y97.718 E0.01034
G1 X147.378 Y98.038 E0.01034
G1 X147.267 Y98.349 E0.01034
G1 X147.126 Y98.647 E0.01034
G1 X146.956 Y98.930 E0.01034
G1 X146.760 Y99.195 E0.01034
G1 X146.538 Y99.439 E0.01034
G1 X146.294 Y99.660 E0.01034
G1 X146.029 Y99.857 E0.01034
G1 X145.746 Y100.026 E0.01034
G1 X145.445 Y100.169 E0.01044
G1 X144.968 Y100.323 E0.01571
G1 X143.417 Y100.323 E0.04865
G1 X143.097 Y100.627 F10800.000
G1 F8640.000
G1 X142.879 Y100.169 E-0.12910
G1 X142.578 Y100.026 E-0.07691
G1 X142.295 Y99.857 E-0.07615
G1 X142.030 Y99.660 E-0.07615
G1 X141.786 Y99.439 E-0.07615
G1 X141.565 Y99.195 E-0.07615
G1 X141.368 Y98.930 E-0.07615
G1 X141.199 Y98.647 E-0.07615
G1 X141.058 Y98.349 E-0.07615
G1 X141.027 Y98.263 E-0.02095
G1 E-0.04000 F2100.00000
G1 Z0.800 F10800.000
G1 X147.415 Y84.723
G1 Z0.200
G1 E0.80000 F2100.00000
G1 F1200.000
G1 X149.027 Y85.319 E0.05389
G1 X150.588 Y86.037 E0.05389
G1 X151.406 Y84.636 E0.05086
G1 X151.939 Y83.976 E0.02660
G1 X152.566 Y83.405 E0.02660
G1 X153.272 Y82.934 E0.02660
G1 X153.693 Y82.737 E0.01458
G1 X153.750 Y82.775 E0.00213
G1 X153.729 Y83.239 E0.01458
G1 X153.565 Y84.072 E0.02660
G1 X153.276 Y84.870 E0.02660
G1 X152.871 Y85.615 E0.02660
G1 X151.889 Y86.907 E0.05086
G1 X153.150 Y88.074 E0.05389
G1 X154.318 Y89.336 E0.05389
G1 X155.610 Y88.354 E0.05086
G1 X156.355 Y87.949 E0.02660
G1 X157.153 Y87.660 E0.02660
G1 X157.986 Y87.496 E0.02660
G1 X158.450 Y87.475 E0.01458
G1 X158.488 Y87.531 E0.00213
G1 X158.291 Y87.953 E0.01458
G1 X157.820 Y88.659 E0.02660
G1 X157.248 Y89.285 E0.02660
G1 X156.589 Y89.819 E0.02660
G1 X155.188 Y90.637 E0.05086
G1 X155.906 Y92.198 E0.05389
G1 X156.502 Y93.810 E0.05389
G1 X158.071 Y93.398 E0.05086
G1 X158.915 Y93.309 E0.02660
G1 X159.763 Y93.348 E0.02660
G1 X160.595 Y93.514 E0.02660
G1 X161.032 Y93.673 E0.01458
G1 X161.045 Y93.739 E0.00213
G1 X160.702 Y94.053 E0.01458
G1 X159.997 Y94.525 E0.02660
G1 X159.229 Y94.885 E0.02660
G1 X158.415 Y95.126 E0.02660
G1 X156.808 Y95.345 E0.05086
G1 X156.874 Y97.063 E0.05389
G1 X156.808 Y98.780 E0.05389
G1 X158.415 Y99.000 E0.05086
G1 X159.229 Y99.240 E0.02660
G1 X159.997 Y99.600 E0.02660
G1 X160.702 Y100.072 E0.02660
G1 X161.045 Y100.386 E0.01458
G1 X161.032 Y100.453 E0.00213
G1 X160.595 Y100.612 E0.01458
G1 X159.763 Y100.778 E0.02660
G1 X158.915 Y100.817 E0.02660
G1 X158.071 Y100.727 E0.02660
G1 X156.502 Y100.315 E0.05086
G1 X155.906 Y101.927 E0.05389
G1 X155.188 Y103.489 E0.05389
G1 X156.589 Y104.307 E0.05086
G1 X157.248 Y104.840 E0.02660
G1 X157.820 Y105.467 E0.02660
G1 X158.291 Y106.173 E0.02660
G1 X158.488 Y106.594 E0.01458
G1 X158.450 Y106.650 E0.00213
G1 X157.986 Y106.630 E0.01458
G1 X157.153 Y106.465 E0.02660
G1 X156.355 Y106.177 E0.02660
G1 X155.610 Y105.771 E0.02660
G1 X154.318 Y104.790 E0.05086
G1 X153.150 Y106.051 E0.05389
G1 X151.889 Y107.219 E0.05389
G1 X152.871 Y108.511 E0.05086
G1 X153.276 Y109.256 E0.02660
G1 X153.565 Y110.054 E0.02660
G1 X153.729 Y110.886 E0.02660
G1 X153.750 Y111.351 E0.01458
G1 X153.693 Y111.388 E0.00213
G1 X153.272 Y111.192 E0.01458
G1 X152.566 Y110.721 E0.02660
G1 X151.939 Y110.149 E0.02660
G1 X151.406 Y109.489 E0.02660
G1 X150.588 Y108.088 E0.05086
G1 X149.027 Y108.806 E0.05389
G1 X147.415 Y109.403 E0.05389
G1 X147.827 Y110.972 E0.05086
G1 X147.916 Y111.815 E0.02660
G1 X147.877 Y112.663 E0.02660
G1 X147.711 Y113.495 E0.02660
G1 X147.552 Y113.932 E0.01458
G1 X147.486 Y113.945 E0.00213
G1 X147.172 Y113.602 E0.01458
G1 X146.700 Y112.897 E0.02660
G1 X146.340 Y112.129 E0.02660
G1 X146.099 Y111.315 E0.02660
G1 X145.880 Y109.708 E0.05086
G1 X144.162 Y109.774 E0.05389
G1 X142.445 Y109.708 E0.05389
G1 X142.225 Y111.315 E0.05086
G1 X141.985 Y112.129 E0.02660
G1 X141.625 Y112.897 E0.02660
G1 X141.153 Y113.602 E0.02660
G1 X140.839 Y113.945 E0.01458
G1 X140.772 Y113.932 E0.00213
G1 X140.613 Y113.495 E0.01458
G1 X140.447 Y112.663 E0.02660
G1 X140.408 Y111.815 E0.02660
G1 X140.498 Y110.972 E0.02660
G1 X140.910 Y109.403 E0.05086
G1 X139.298 Y108.806 E0.05389
G1 X137.736 Y108.088 E0.05389
G1 X136.918 Y109.489 E0.05086
G1 X136.385 Y110.149 E0.02660
G1 X135.758 Y110.721 E0.02660
G1 X135.052 Y111.192 E0.02660
G1 X134.631 Y111.388 E0.01458
G1 X134.575 Y111.351 E0.00213
G1 X134.595 Y110.886 E0.01458
G1 X134.760 Y110.054 E0.02660
G1 X135.048 Y109.256 E0.02660
G1 X135.454 Y108.511 E0.02660
G1 X136.435 Y107.219 E0.05086
G1 X135.174 Y106.051 E0.05389
G1 X134.006 Y104.790 E0.05389
G1 X132.714 Y105.771 E0.05086
G1 X131.969 Y106.177 E0.02660
G1 X131.171 Y106.465 E0.02660
G1 X130.339 Y106.630 E0.02660
G1 X129.874 Y106.650 E0.01458
G1 X129.837 Y106.594 E0.00213
G1 X130.033 Y106.173 E0.01458
G1 X130.504 Y105.467 E0.02660
G1 X131.076 Y104.840 E0.02660
G1 X131.736 Y104.307 E0.02660
G1 X133.137 Y103.489 E0.05086
G1 X132.418 Y101.927 E0.05389
G1 X131.822 Y100.315 E0.05389
G1 X130.253 Y100.727 E0.05086
G1 X129.409 Y100.817 E0.02660
G1 X128.562 Y100.778 E0.02660
G1 X127.730 Y100.612 E0.02660
G1 X127.293 Y100.453 E0.01458
G1 X127.280 Y100.386 E0.00213
G1 X127.623 Y100.072 E0.01458
G1 X128.328 Y99.600 E0.02660
G1 X129.096 Y99.240 E0.02660
G1 X129.910 Y99.000 E0.02660
G1 X131.517 Y98.780 E0.05086
G1 X131.451 Y97.063 E0.05389
G1 X131.517 Y95.345 E0.05389
G1 X129.910 Y95.126 E0.05086
G1 X129.096 Y94.885 E0.02660
G1 X128.328 Y94.525 E0.02660
G1 X127.622 Y94.053 E0.02660
G1 X127.280 Y93.739 E0.01458
G1 X127.293 Y93.673 E0.00213
G1 X127.730 Y93.514 E0.01458
G1 X128.562 Y93.348 E0.02660
G1 X129.409 Y93.309 E0.02660
G1 X130.253 Y93.398 E0.02660
G1 X131.822 Y93.810 E0.05086
G1 X132.418 Y92.198 E0.05389
G1 X133.137 Y90.637 E0.05389
G1 X131.736 Y89.819 E0.05086
G1 X131.076 Y89.285 E0.02660
G1 X130.504 Y88.659 E0.02660
G1 X130.033 Y87.953 E0.02660
G1 X129.837 Y87.531 E0.01458
G1 X129.874 Y87.475 E0.00213
G1 X130.339 Y87.496 E0.01458
G1 X131.171 Y87.660 E0.02660
G1 X131.969 Y87.949 E0.02660
G1 X132.714 Y88.354 E0.02660
G1 X134.006 Y89.336 E0.05086
G1 X135.174 Y88.074 E0.05389
G1 X136.435 Y86.907 E0.05389
G1 X135.454 Y85.615 E0.05086
G1 X135.048 Y84.870 E0.02660
G1 X134.760 Y84.072 E0.02660
G1 X134.595 Y83.239 E0.02660
G1 X134.575 Y82.775 E0.01458
G1 X134.631 Y82.737 E0.00213
G1 X135.052 Y82.934 E0.01458
G1 X135.758 Y83.405 E0.02660
G1 X136.385 Y83.976 E0.02660
G1 X136.918 Y84.636 E0.02660
G1 X137.736 Y86.037 E0.05086
G1 X139.298 Y85.319 E0.05389
G1 X140.910 Y84.723 E0.05389
G1 X140.498 Y83.154 E0.05086
G1 X140.408 Y82.310 E0.02660
G1 X140.447 Y81.462 E0.02660
G1 X140.613 Y80.630 E0.02660
G1 X140.772 Y80.193 E0.01458
G1 X140.839 Y80.180 E0.00213
G1 X141.153 Y80.523 E0.01458
G1 X141.625 Y81.228 E0.02660
G1 X141.985 Y81.996 E0.02660
G1 X142.225 Y82.810 E0.02660
G1 X142.445 Y84.417 E0.05086
G1 X144.162 Y84.351 E0.05389
G1 X145.880 Y84.417 E0.05389
G1 X146.099 Y82.810 E0.05086
G1 X146.340 Y81.996 E0.02660
G1 X146.700 Y81.228 E0.02660
G1 X147.172 Y80.523 E0.02660
G1 X147.486 Y80.180 E0.01458
G1 X147.552 Y80.193 E0.00213
G1 X147.711 Y80.630 E0.01458
G1 X147.877 Y81.462 E0.02660
G1 X147.916 Y82.310 E0.02660
G1 X147.827 Y83.154 E0.02660
G1 X147.430 Y84.665 E0.04898
G1 X147.866 Y84.488 F10800.000
G1 F1200.000
G1 X149.171 Y84.970 E0.04362
G1 X150.435 Y85.552 E0.04362
G1 X151.095 Y84.421 E0.04103
G1 X151.664 Y83.717 E0.02840
G1 X152.333 Y83.107 E0.02840
G1 X153.087 Y82.604 E0.02840
G1 X153.726 Y82.306 E0.02213
G1 X154.136 Y82.579 E0.01544
G1 X154.105 Y83.284 E0.02213
G1 X153.929 Y84.173 E0.02840
G1 X153.621 Y85.025 E0.02840
G1 X153.188 Y85.820 E0.02840
G1 X152.397 Y86.862 E0.04103
G1 X153.417 Y87.808 E0.04362
G1 X154.363 Y88.828 E0.04362
G1 X155.405 Y88.037 E0.04103
G1 X156.200 Y87.604 E0.02840
G1 X157.052 Y87.296 E0.02840
G1 X157.940 Y87.120 E0.02840
G1 X158.646 Y87.089 E0.02213
G1 X158.919 Y87.499 E0.01544
G1 X158.621 Y88.138 E0.02213
G1 X158.118 Y88.892 E0.02840
G1 X157.508 Y89.561 E0.02840
G1 X156.803 Y90.130 E0.02840
G1 X155.673 Y90.790 E0.04103
G1 X156.255 Y92.054 E0.04362
G1 X156.737 Y93.359 E0.04362
G1 X158.003 Y93.026 E0.04103
G1 X158.904 Y92.931 E0.02840
G1 X159.808 Y92.972 E0.02840
G1 X160.697 Y93.150 E0.02840
G1 X161.360 Y93.391 E0.02213
G1 X161.456 Y93.874 E0.01544
G1 X160.935 Y94.350 E0.02213
G1 X160.183 Y94.854 E0.02840
G1 X159.363 Y95.239 E0.02840
G1 X158.494 Y95.495 E0.02840
G1 X157.198 Y95.672 E0.04103
G1 X157.251 Y97.063 E0.04362
G1 X157.198 Y98.453 E0.04362
G1 X158.494 Y98.630 E0.04103
G1 X159.363 Y98.887 E0.02840
G1 X160.183 Y99.271 E0.02840
G1 X160.935 Y99.775 E0.02840
G1 X161.456 Y100.252 E0.02213
G1 X161.360 Y100.735 E0.01544
G1 X160.697 Y100.976 E0.02213
G1 X159.808 Y101.153 E0.02840
G1 X158.904 Y101.195 E0.02840
G1 X158.003 Y101.099 E0.02840
G1 X156.737 Y100.767 E0.04103
G1 X156.255 Y102.072 E0.04362
G1 X155.673 Y103.336 E0.04362
G1 X156.803 Y103.995 E0.04103
G1 X157.508 Y104.565 E0.02840
G1 X158.118 Y105.234 E0.02840
G1 X158.621 Y105.987 E0.02840
G1 X158.919 Y106.627 E0.02213
G1 X158.646 Y107.036 E0.01544
G1 X157.940 Y107.005 E0.02213
G1 X157.052 Y106.829 E0.02840
G1 X156.200 Y106.521 E0.02840
G1 X155.405 Y106.089 E0.02840
G1 X154.363 Y105.297 E0.04103
G1 X153.417 Y106.318 E0.04362
G1 X152.397 Y107.263 E0.04362
G1 X153.188 Y108.305 E0.04103
G1 X153.621 Y109.101 E0.02840
G1 X153.929 Y109.953 E0.02840
G1 X154.105 Y110.841 E0.02840
G1 X154.136 Y111.546 E0.02213
G1 X153.726 Y111.820 E0.01544
G1 X153.087 Y111.521 E0.02213
G1 X152.333 Y111.019 E0.02840
G1 X151.664 Y110.408 E0.02840
G1 X151.095 Y109.704 E0.02840
G1 X150.435 Y108.574 E0.04103
G1 X149.171 Y109.155 E0.04362
G1 X147.866 Y109.638 E0.04362
G1 X148.199 Y110.904 E0.04103
G1 X148.294 Y111.804 E0.02840
G1 X148.253 Y112.709 E0.02840
G1 X148.075 Y113.597 E0.02840
G1 X147.834 Y114.260 E0.02213
G1 X147.351 Y114.357 E0.01544
G1 X146.874 Y113.836 E0.02213
G1 X146.371 Y113.083 E0.02840
G1 X145.986 Y112.263 E0.02840
G1 X145.730 Y111.395 E0.02840
G1 X145.552 Y110.098 E0.04103
G1 X144.162 Y110.151 E0.04362
G1 X142.772 Y110.098 E0.04362
G1 X142.595 Y111.395 E0.04103
G1 X142.338 Y112.263 E0.02840
G1 X141.954 Y113.083 E0.02840
G1 X141.450 Y113.836 E0.02840
G1 X140.973 Y114.357 E0.02213
G1 X140.490 Y114.260 E0.01544
G1 X140.249 Y113.597 E0.02213
G1 X140.072 Y112.709 E0.02840
G1 X140.030 Y111.804 E0.02840
G1 X140.126 Y110.904 E0.02840
G1 X140.458 Y109.638 E0.04103
G1 X139.153 Y109.155 E0.04362
G1 X137.889 Y108.574 E0.04362
G1 X137.230 Y109.704 E0.04103
G1 X136.660 Y110.408 E0.02840
