; generated by PrusaSlicer 2.2.0+win64 on 2020-07-19 at 07:07:23 UTC

; 

; external perimeters extrusion width = 0.45mm
; perimeters extrusion width = 0.45mm
; infill extrusion width = 0.45mm
; solid infill extrusion width = 0.45mm
; top infill extrusion width = 0.40mm
; first layer extrusion width = 0.42mm

M73 P0 R51
M73 Q0 S52
M201 X1000 Y1000 Z200 E5000 ; sets maximum accelerations, mm/sec^2
M203 X200 Y200 Z12 E120 ; sets maximum feedrates, mm/sec
M204 P1250 R1250 T1250 ; sets acceleration (P, T) and retract acceleration (R), mm/sec^2
M205 X8.00 Y8.00 Z0.40 E4.50 ; sets the jerk limits, mm/sec
M205 S0 T0 ; sets the minimum extruding and travel feed rate, mm/sec
M107
M862.3 P "MK3S" ; printer model check
M862.1 P0.4 ; nozzle diameter check
M115 U3.9.0 ; tell printer latest fw version
G90 ; use absolute coordinates
M83 ; extruder relative mode
M104 S215 ; set extruder temp
M140 S60 ; set bed temp
M190 S60 ; wait for bed temp
M109 S215 ; wait for extruder temp
G28 W ; home all without mesh bed level
G80 ; mesh bed leveling
G1 Y-3.0 F1000.0 ; go outside print area
G92 E0.0
G1 X60.0 E9.0 F1000.0 ; intro line
M73 Q0 S51
M73 P0 R51
G1 X100.0 E12.5 F1000.0 ; intro line
G92 E0.0
M221 S95
G21 ; set units to millimeters
G90 ; use absolute coordinates
M83 ; use relative distances for extrusion
M900 K0.06 ; Filament gcode LA 1.5
M900 K30 ; Filament gcode LA 1.0
;BEFORE_LAYER_CHANGE
G92 E0.0
;0.2


G1 E-0.80000 F2100.00000
G1 Z0.600 F10800.000
;AFTER_LAYER_CHANGE
;0.2
G1 X79.279 Y94.243
G1 Z0.200
G1 E0.80000 F2100.00000
M204 S1000
G1 F1200.000
G1 X79.517 Y93.177 E0.03424
G1 X79.829 Y92.495 E0.02352
G1 X80.488 Y91.613 E0.03453
G1 X80.963 Y91.184 E0.02008
G1 X81.625 Y90.764 E0.02458
G1 X82.987 Y90.189 E0.04636
G1 X84.167 Y89.894 E0.03813
G1 X85.378 Y89.784 E0.03813
G1 X114.100 Y89.776 E0.90054
G1 X159.555 Y91.008 E1.42575
G1 X160.793 Y91.110 E0.03893
G1 X162.220 Y91.465 E0.04611
G1 X163.397 Y91.979 E0.04028
G1 X164.097 Y92.420 E0.02594
G1 X164.642 Y92.921 E0.02321
G1 X165.145 Y93.585 E0.02613
G1 X165.532 Y94.393 E0.02811
G1 X165.779 Y95.506 E0.03573
G1 X165.764 Y96.415 E0.02850
G1 X165.625 Y97.093 E0.02169
G1 X162.976 Y106.139 E0.29554
G1 X160.770 Y111.342 E0.17721
G1 X151.979 Y123.425 E0.46851
G1 X150.536 Y124.773 E0.06192
G1 X149.468 Y125.508 E0.04065
G1 X148.265 Y126.125 E0.04240
G1 X146.966 Y126.549 E0.04285
G1 X145.940 Y126.726 E0.03263
G1 X144.886 Y126.751 E0.03304
G1 X99.452 Y125.520 E1.42508
G1 X98.065 Y125.314 E0.04396
G1 X97.072 Y125.008 E0.03260
G1 X96.016 Y124.523 E0.03641
G1 X94.433 Y123.478 E0.05949
G1 X93.025 Y122.135 E0.06100
G1 X84.209 Y109.975 E0.47094
G1 X82.080 Y104.915 E0.17211
G1 X79.409 Y95.792 E0.29805
G1 X79.278 Y95.080 E0.02271
G1 X79.279 Y94.303 E0.02436
G1 F8640.000
G1 X79.517 Y93.177 E-0.26572
G1 X79.829 Y92.495 E-0.17318
G1 X80.488 Y91.613 E-0.25427
G1 X80.703 Y91.419 E-0.06683
G1 E-0.04000 F2100.00000
G1 Z0.800 F10800.000
G1 X139.312 Y113.474
G1 Z0.200
G1 E0.80000 F2100.00000
G1 F1200.000
G1 X151.132 Y113.474 E0.37061
G1 X151.132 Y119.294 E0.18248
G1 X139.312 Y119.294 E0.37061
G1 X139.312 Y113.534 E0.18060
G1 X139.167 Y113.101 F10800.000
G1 F8640.000
G1 X142.604 Y113.517 E-0.76000
G1 E-0.04000 F2100.00000
G1 Z0.800 F10800.000
G1 X139.593 Y119.671
G1 Z0.200
G1 E0.80000 F2100.00000
G1 F1200.000
G1 X150.852 Y119.671 E0.35301
G1 X150.063 Y120.762 E0.04221
G1 X149.416 Y121.539 E0.03172
G1 X148.648 Y122.233 E0.03244
G1 X147.846 Y122.790 E0.03063
G1 X147.063 Y123.195 E0.02762
G1 X146.331 Y123.449 E0.02431
G1 X145.634 Y123.574 E0.02218
G1 X144.964 Y123.586 E0.02104
G1 X144.289 Y123.491 E0.02136
G1 X143.600 Y123.284 E0.02256
G1 X142.882 Y122.953 E0.02477
G1 X142.117 Y122.473 E0.02832
G1 X141.807 Y122.242 E0.01212
G1 X141.030 Y121.540 E0.03283
G1 X140.862 Y121.357 E0.00778
G1 X140.383 Y120.763 E0.02392
G1 X139.628 Y119.719 E0.04039
G1 F8640.000
G1 X142.920 Y119.705 E-0.76000
G1 E-0.04000 F2100.00000
G1 Z0.800 F10800.000
G1 X149.321 Y104.171
G1 Z0.200
G1 E0.80000 F2100.00000
G1 F1200.000
G1 X149.321 Y99.097 E0.15910
G1 X150.643 Y99.097 E0.04147
G1 X150.643 Y98.597 E0.01568
G1 X151.165 Y98.597 E0.01634
G1 X151.165 Y97.597 E0.03135
G1 X154.509 Y97.597 E0.10487
G1 X154.509 Y104.171 E0.20613
G1 X149.381 Y104.171 E0.16080
G1 X149.698 Y103.794 F10800.000
G1 F1200.000
G1 X149.698 Y99.474 E0.13545
G1 X151.021 Y99.474 E0.04147
G1 X151.021 Y98.974 E0.01568
G1 X151.542 Y98.974 E0.01634
G1 X151.542 Y97.974 E0.03135
G1 X154.132 Y97.974 E0.08123
G1 X154.132 Y103.794 E0.18248
G1 X149.758 Y103.794 E0.13715
G1 X149.317 Y103.914 F10800.000
G1 F8640.000
G1 X149.712 Y100.503 E-0.76000
G1 E-0.04000 F2100.00000
G1 Z0.800 F10800.000
G1 X135.935 Y97.597
G1 Z0.200
G1 E0.80000 F2100.00000
G1 F1200.000
G1 X139.280 Y97.597 E0.10487
G1 X139.280 Y98.597 E0.03135
G1 X139.801 Y98.597 E0.01634
G1 X139.801 Y99.097 E0.01568
G1 X141.124 Y99.097 E0.04147
G1 X141.124 Y104.171 E0.15910
G1 X135.935 Y104.171 E0.16268
G1 X135.935 Y97.657 E0.20425
G1 X136.312 Y97.974 F10800.000
G1 F1200.000
G1 X138.903 Y97.974 E0.08123
G1 X138.903 Y98.974 E0.03135
G1 X139.424 Y98.974 E0.01634
G1 X139.424 Y99.474 E0.01568
G1 X140.747 Y99.474 E0.04147
G1 X140.747 Y103.794 E0.13545
G1 X136.312 Y103.794 E0.13904
G1 X136.312 Y98.034 E0.18060
G1 X136.226 Y97.583 F10800.000
G1 F8640.000
G1 X138.903 Y97.974 E-0.59833
G1 X138.903 Y98.674 E-0.16167
G1 E-0.04000 F2100.00000
G1 Z0.800 F10800.000
G1 X151.165 Y105.597
G1 Z0.200
G1 E0.80000 F2100.00000
G1 F1200.000
G1 X151.165 Y108.171 E0.08071
G1 X157.935 Y108.171 E0.21229
G1 X157.935 Y109.879 E0.05356
G1 X151.509 Y118.762 E0.34375
G1 X151.509 Y113.097 E0.17762
G1 X138.935 Y113.097 E0.39425
G1 X138.935 Y118.762 E0.17762
G1 X132.509 Y109.879 E0.34375
G1 X132.509 Y108.171 E0.05356
G1 X139.280 Y108.171 E0.21229
G1 X139.280 Y105.597 E0.08071
G1 X136.461 Y105.597 E0.08840
G1 X134.961 Y104.597 E0.05652
G1 X130.312 Y104.597 E0.14575
G1 X127.870 Y96.254 E0.27255
G1 X127.823 Y96.021 E0.00745
G1 X127.817 Y95.817 E0.00640
G1 X127.845 Y95.615 E0.00640
G1 X127.906 Y95.420 E0.00640
G1 X128.000 Y95.239 E0.00640
G1 X128.122 Y95.076 E0.00640
G1 X128.271 Y94.935 E0.00640
G1 X128.441 Y94.822 E0.00641
G1 X129.239 Y94.465 E0.02742
G1 X130.086 Y94.247 E0.02742
G1 X130.991 Y94.171 E0.02847
G1 X159.454 Y94.171 E0.89245
G1 X160.359 Y94.247 E0.02847
G1 X161.206 Y94.465 E0.02742
G1 X162.004 Y94.822 E0.02742
G1 X162.174 Y94.935 E0.00641
G1 X162.322 Y95.076 E0.00640
G1 X162.445 Y95.239 E0.00640
G1 X162.538 Y95.420 E0.00640
G1 X162.600 Y95.615 E0.00640
G1 X162.628 Y95.817 E0.00640
G1 X162.622 Y96.021 E0.00640
G1 X162.574 Y96.254 E0.00745
G1 X160.133 Y104.597 E0.27255
G1 X155.484 Y104.597 E0.14575
G1 X153.984 Y105.597 E0.05652
G1 X151.225 Y105.597 E0.08652
G1 X151.542 Y105.974 F10800.000
G1 F1200.000
G1 X151.542 Y107.794 E0.05706
G1 X158.312 Y107.794 E0.21229
G1 X158.312 Y110.001 E0.06921
G1 X150.362 Y120.990 E0.42528
G1 X149.855 Y121.621 E0.02538
G1 X149.681 Y121.808 E0.00800
G1 X148.883 Y122.529 E0.03372
G1 X148.041 Y123.113 E0.03214
G1 X147.213 Y123.543 E0.02925
G1 X146.426 Y123.815 E0.02609
G1 X145.671 Y123.950 E0.02405
G1 X144.941 Y123.964 E0.02292
G1 X144.208 Y123.860 E0.02320
G1 X143.466 Y123.637 E0.02430
G1 X142.702 Y123.285 E0.02636
G1 X141.904 Y122.784 E0.02956
G1 X141.567 Y122.533 E0.01316
G1 X140.764 Y121.808 E0.03393
G1 X140.576 Y121.604 E0.00872
G1 X140.083 Y120.992 E0.02462
G1 X132.132 Y110.001 E0.42534
G1 X132.132 Y107.794 E0.06921
G1 X138.903 Y107.794 E0.21229
G1 X138.903 Y105.974 E0.05706
G1 X136.347 Y105.974 E0.08016
G1 X134.847 Y104.974 E0.05652
G1 X130.030 Y104.974 E0.15103
G1 X127.504 Y96.345 E0.28191
G1 X127.447 Y96.065 E0.00895
G1 X127.439 Y95.797 E0.00840
G1 X127.476 Y95.532 E0.00840
G1 X127.556 Y95.276 E0.00840
G1 X127.679 Y95.038 E0.00840
G1 X127.840 Y94.824 E0.00840
G1 X128.035 Y94.639 E0.00840
G1 X128.258 Y94.491 E0.00841
G1 X129.114 Y94.108 E0.02941
G1 X130.023 Y93.874 E0.02942
G1 X130.975 Y93.794 E0.02996
G1 X159.470 Y93.794 E0.89344
G1 X160.422 Y93.874 E0.02996
G1 X161.331 Y94.108 E0.02942
G1 X162.187 Y94.491 E0.02941
G1 X162.410 Y94.639 E0.00841
G1 X162.605 Y94.824 E0.00840
G1 X162.766 Y95.038 E0.00840
G1 X162.888 Y95.276 E0.00840
G1 X162.969 Y95.532 E0.00840
G1 X163.006 Y95.797 E0.00840
G1 X162.998 Y96.065 E0.00840
G1 X162.941 Y96.345 E0.00895
G1 X160.415 Y104.974 E0.28191
G1 X155.598 Y104.974 E0.15103
G1 X154.098 Y105.974 E0.05652
G1 X151.602 Y105.974 E0.07827
G1 X151.143 Y106.006 F10800.000
G1 X151.052 Y106.743
G1 F1200.000
G1 X138.762 Y94.453 E0.54833
G1 X138.225 Y94.453 E0.01693
G1 X150.882 Y107.110 E0.56470
G1 X150.882 Y107.647 E0.01693
G1 X137.689 Y94.453 E0.58864
G1 X137.152 Y94.453 E0.01693
G1 X155.484 Y112.785 E0.81791
G1 X155.709 Y112.474 E0.01212
G1 X151.689 Y108.453 E0.17938
G1 X152.225 Y108.453 E0.01693
G1 X155.934 Y112.162 E0.16548
G1 X156.160 Y111.851 E0.01212
G1 X152.762 Y108.453 E0.15159
G1 X153.298 Y108.453 E0.01693
G1 X156.385 Y111.540 E0.13770
G1 X156.610 Y111.228 E0.01212
G1 X153.835 Y108.453 E0.12381
G1 X154.372 Y108.453 E0.01693
G1 X156.835 Y110.917 E0.10992
G1 X157.060 Y110.606 E0.01212
G1 X154.908 Y108.453 E0.09603
G1 X155.445 Y108.453 E0.01693
G1 X157.286 Y110.294 E0.08213
G1 X157.511 Y109.983 E0.01212
G1 X155.981 Y108.453 E0.06824
G1 X156.518 Y108.453 E0.01693
G1 X157.653 Y109.588 E0.05062
G1 X157.653 Y109.051 E0.01693
G1 X157.055 Y108.453 E0.02668
G1 X157.591 Y108.453 E0.01693
G1 X157.822 Y108.685 E0.01031
G1 F8640.000
G1 X157.591 Y108.453 E-0.07546
G1 X157.055 Y108.453 E-0.12390
G1 X157.653 Y109.051 E-0.19527
G1 X157.653 Y109.588 E-0.12390
G1 X156.913 Y108.849 E-0.24147
G1 E-0.04000 F2100.00000
G1 Z0.800 F10800.000
G1 X160.294 Y103.644
G1 Z0.200
G1 E0.80000 F2100.00000
G1 F1200.000
G1 X154.792 Y98.142 E0.24546
G1 X154.792 Y98.679 E0.01693
G1 X160.035 Y103.922 E0.23393
G1 X159.921 Y104.314 E0.01287
G1 X159.890 Y104.314 E0.00096
G1 X154.792 Y99.216 E0.22747
G1 X154.792 Y99.752 E0.01693
G1 X159.354 Y104.314 E0.20352
G1 X158.817 Y104.314 E0.01693
G1 X154.792 Y100.289 E0.17958
G1 X154.792 Y100.825 E0.01693
G1 X158.281 Y104.314 E0.15564
G1 X157.744 Y104.314 E0.01693
G1 X154.792 Y101.362 E0.13170
G1 X154.792 Y101.899 E0.01693
G1 X157.208 Y104.314 E0.10776
G1 X156.671 Y104.314 E0.01693
G1 X154.792 Y102.435 E0.08382
G1 X154.792 Y102.972 E0.01693
G1 X156.134 Y104.314 E0.05988
G1 X155.598 Y104.314 E0.01693
G1 X154.792 Y103.508 E0.03594
G1 X154.792 Y104.045 E0.01693
G1 X155.196 Y104.449 E0.01802
G1 X154.874 Y104.663 E0.01221
G1 X154.664 Y104.453 E0.00936
G1 X154.128 Y104.453 E0.01693
G1 X154.552 Y104.878 E0.01894
G1 X154.230 Y105.093 E0.01221
G1 X153.591 Y104.453 E0.02852
G1 X153.055 Y104.453 E0.01693
G1 X153.898 Y105.314 E0.03802
G1 X153.378 Y105.314 E0.01641
G1 X152.518 Y104.453 E0.03838
G1 X151.981 Y104.453 E0.01693
G1 X152.842 Y105.314 E0.03838
G1 X152.305 Y105.314 E0.01693
G1 X151.445 Y104.453 E0.03838
G1 X150.908 Y104.453 E0.01693
G1 X151.769 Y105.314 E0.03838
G1 X151.232 Y105.314 E0.01693
G1 X150.372 Y104.453 E0.03838
G1 X149.835 Y104.453 E0.01693
G1 X150.882 Y105.500 E0.04671
G1 X150.882 Y106.037 E0.01693
G1 X139.298 Y94.453 E0.51682
G1 X139.835 Y94.453 E0.01693
G1 X149.038 Y103.657 E0.41062
G1 X149.038 Y103.120 E0.01693
G1 X140.372 Y94.453 E0.38668
G1 X140.908 Y94.453 E0.01693
G1 X149.038 Y102.583 E0.36274
G1 X149.038 Y102.047 E0.01693
G1 X141.445 Y94.453 E0.33880
G1 X141.981 Y94.453 E0.01693
G1 X149.038 Y101.510 E0.31485
G1 X149.038 Y100.974 E0.01693
G1 X142.518 Y94.453 E0.29091
G1 X143.055 Y94.453 E0.01693
G1 X149.038 Y100.437 E0.26697
G1 X149.038 Y99.901 E0.01693
G1 X143.591 Y94.453 E0.24303
G1 X144.128 Y94.453 E0.01693
G1 X149.038 Y99.364 E0.21909
G1 X149.038 Y98.827 E0.01693
G1 X144.664 Y94.453 E0.19515
G1 X145.201 Y94.453 E0.01693
G1 X149.561 Y98.814 E0.19454
G1 X150.098 Y98.814 E0.01693
G1 X145.737 Y94.453 E0.19454
G1 X146.274 Y94.453 E0.01693
G1 X150.361 Y98.540 E0.18233
G1 X150.361 Y98.314 E0.00714
G1 X150.671 Y98.314 E0.00979
G1 X146.811 Y94.453 E0.17223
G1 X147.347 Y94.453 E0.01693
G1 X150.882 Y97.988 E0.15771
G1 X150.882 Y97.452 E0.01693
G1 X147.884 Y94.453 E0.13377
G1 X148.420 Y94.453 E0.01693
G1 X151.281 Y97.314 E0.12762
G1 X151.817 Y97.314 E0.01693
G1 X148.957 Y94.453 E0.12762
G1 X149.494 Y94.453 E0.01693
G1 X152.354 Y97.314 E0.12762
G1 X152.890 Y97.314 E0.01693
G1 X150.030 Y94.453 E0.12762
G1 X150.567 Y94.453 E0.01693
G1 X153.427 Y97.314 E0.12762
G1 X153.964 Y97.314 E0.01693
G1 X151.103 Y94.453 E0.12762
M73 Q2 S50
G1 X151.640 Y94.453 E0.01693
G1 X160.278 Y103.092 E0.38542
M73 P2 R50
G1 X160.400 Y102.677 E0.01365
G1 X152.176 Y94.453 E0.36690
G1 X152.713 Y94.453 E0.01693
G1 X160.521 Y102.262 E0.34838
G1 X160.643 Y101.847 E0.01365
G1 X153.250 Y94.453 E0.32986
G1 X153.786 Y94.453 E0.01693
G1 X160.764 Y101.432 E0.31134
G1 X160.886 Y101.017 E0.01365
G1 X154.323 Y94.453 E0.29282
G1 X154.859 Y94.453 E0.01693
G1 X161.007 Y100.601 E0.27430
G1 X161.129 Y100.186 E0.01365
G1 X155.396 Y94.453 E0.25578
G1 X155.933 Y94.453 E0.01693
G1 X161.250 Y99.771 E0.23726
G1 X161.372 Y99.356 E0.01365
G1 X156.469 Y94.453 E0.21874
G1 X157.006 Y94.453 E0.01693
G1 X161.493 Y98.941 E0.20022
G1 X161.615 Y98.526 E0.01365
G1 X157.542 Y94.453 E0.18170
G1 X158.079 Y94.453 E0.01693
G1 X161.736 Y98.111 E0.16318
G1 X161.858 Y97.696 E0.01365
G1 X158.615 Y94.453 E0.14466
G1 X159.152 Y94.453 E0.01693
G1 X161.979 Y97.281 E0.12614
G1 X162.101 Y96.866 E0.01365
G1 X159.711 Y94.476 E0.10661
G1 X160.297 Y94.526 E0.01855
G1 X162.222 Y96.450 E0.08589
G1 X162.332 Y96.024 E0.01389
G1 X161.017 Y94.708 E0.05870
G1 X161.112 Y94.733 E0.00311
G1 X161.867 Y95.070 E0.02608
G1 X161.997 Y95.157 E0.00494
G1 X162.490 Y95.645 E0.02188
G1 F8640.000
G1 X161.997 Y95.157 E-0.16015
G1 X161.867 Y95.070 E-0.03614
G1 X161.112 Y94.733 E-0.19091
G1 X161.017 Y94.708 E-0.02273
G1 X162.089 Y95.780 E-0.35007
G1 E-0.04000 F2100.00000
G1 Z0.800 F10800.000
G1 X139.393 Y97.768
G1 Z0.200
G1 E0.80000 F2100.00000
G1 F1200.000
G1 X140.609 Y98.983 E0.05424
G1 X141.146 Y98.983 F10800.000
G1 F1200.000
G1 X136.616 Y94.453 E0.20211
G1 X136.079 Y94.453 E0.01693
G1 X138.939 Y97.314 E0.12762
G1 X138.403 Y97.314 E0.01693
G1 X135.542 Y94.453 E0.12762
G1 X135.006 Y94.453 E0.01693
G1 X137.866 Y97.314 E0.12762
G1 X137.329 Y97.314 E0.01693
G1 X134.469 Y94.453 E0.12762
G1 X133.933 Y94.453 E0.01693
G1 X136.793 Y97.314 E0.12762
G1 X136.256 Y97.314 E0.01693
G1 X133.396 Y94.453 E0.12762
G1 X132.859 Y94.453 E0.01693
G1 X135.720 Y97.314 E0.12762
G1 X135.653 Y97.314 E0.00212
G1 X135.653 Y97.783 E0.01481
G1 X132.323 Y94.453 E0.14856
G1 X131.786 Y94.453 E0.01693
G1 X135.653 Y98.320 E0.17250
G1 X135.653 Y98.856 E0.01693
G1 X131.250 Y94.453 E0.19644
G1 X130.736 Y94.476 E0.01623
G1 X135.653 Y99.393 E0.21938
G1 X135.653 Y99.929 E0.01693
G1 X130.241 Y94.518 E0.24146
G1 X130.134 Y94.527 E0.00339
G1 X129.799 Y94.613 E0.01089
G1 X135.653 Y100.466 E0.26116
G1 X135.653 Y101.003 E0.01693
G1 X129.373 Y94.723 E0.28019
G1 X128.997 Y94.883 E0.01290
G1 X135.653 Y101.539 E0.29697
G1 X135.653 Y102.076 E0.01693
G1 X128.626 Y95.049 E0.31352
G1 X128.448 Y95.157 E0.00657
G1 X128.322 Y95.281 E0.00559
G1 X135.653 Y102.612 E0.32709
G1 X135.653 Y103.149 E0.01693
G1 X128.136 Y95.632 E0.33537
G1 X128.100 Y95.832 E0.00641
G1 X128.105 Y95.988 E0.00493
G1 X128.143 Y96.176 E0.00604
G1 X135.822 Y103.855 E0.34262
G1 F8640.000
G1 X133.495 Y101.528 E-0.76000
G1 E-0.04000 F2100.00000
G1 Z0.800 F10800.000
G1 X139.060 Y105.483
G1 Z0.200
G1 E0.80000 F2100.00000
G1 F1200.000
G1 X138.030 Y104.453 E0.04595
G1 X137.494 Y104.453 E0.01693
G1 X138.354 Y105.314 E0.03838
G1 X137.817 Y105.314 E0.01693
G1 X136.957 Y104.453 E0.03838
G1 X136.420 Y104.453 E0.01693
G1 X137.281 Y105.314 E0.03838
G1 X136.744 Y105.314 E0.01693
G1 X128.364 Y96.934 E0.37390
G1 X128.586 Y97.692 E0.02494
G1 X135.530 Y104.636 E0.30982
G1 X135.046 Y104.314 E0.01834
G1 X134.671 Y104.314 E0.01184
G1 X128.808 Y98.451 E0.26159
G1 X129.030 Y99.209 E0.02494
G1 X134.134 Y104.314 E0.22774
G1 X133.598 Y104.314 E0.01693
G1 X129.252 Y99.968 E0.19389
G1 X129.474 Y100.727 E0.02494
G1 X133.061 Y104.314 E0.16005
G1 X132.525 Y104.314 E0.01693
G1 X129.696 Y101.485 E0.12620
G1 X129.918 Y102.244 E0.02494
G1 X131.988 Y104.314 E0.09235
G1 X131.451 Y104.314 E0.01693
