; generated by PrusaSlicer 2.2.0+win64 on 2020-07-26 at 19:54:29 UTC

; 

; external perimeters extrusion width = 0.45mm
; perimeters extrusion width = 0.45mm
; infill extrusion width = 0.45mm
; solid infill extrusion width = 0.45mm
; top infill extrusion width = 0.40mm
; first layer extrusion width = 0.42mm

M73 P0 R41
M73 Q0 S41
M201 X1000 Y1000 Z200 E5000 ; sets maximum accelerations, mm/sec^2
M203 X200 Y200 Z12 E120 ; sets maximum feedrates, mm/sec
M204 P1250 R1250 T1250 ; sets acceleration (P, T) and retract acceleration (R), mm/sec^2
M205 X8.00 Y8.00 Z0.40 E4.50 ; sets the jerk limits, mm/sec
M205 S0 T0 ; sets the minimum extruding and travel feed rate, mm/sec
M107
M862.3 P "MK3S" ; printer model check
M862.1 P0.4 ; nozzle diameter check
M115 U3.9.0 ; tell printer latest fw version
G90 ; use absolute coordinates
M83 ; extruder relative mode
M104 S215 ; set extruder temp
M140 S60 ; set bed temp
M190 S60 ; wait for bed temp
M109 S215 ; wait for extruder temp
G28 W ; home all without mesh bed level
G80 ; mesh bed leveling
G1 Y-3.0 F1000.0 ; go outside print area
G92 E0.0
G1 X60.0 E9.0 F1000.0 ; intro line
M73 Q0 S41
M73 P0 R41
G1 X100.0 E12.5 F1000.0 ; intro line
G92 E0.0
M221 S95
G21 ; set units to millimeters
G90 ; use absolute coordinates
M83 ; use relative distances for extrusion
M900 K0.06 ; Filament gcode LA 1.5
M900 K30 ; Filament gcode LA 1.0
;BEFORE_LAYER_CHANGE
G92 E0.0
;0.2


G1 E-0.80000 F2100.00000
G1 Z0.600 F10800.000
;AFTER_LAYER_CHANGE
;0.2
G1 X103.191 Y75.905
G1 Z0.200
G1 E0.80000 F2100.00000
M204 S1000
G1 F1200.000
G1 X106.614 Y72.432 E0.15290
G1 X107.220 Y72.055 E0.02237
G1 X107.911 Y71.875 E0.02237
G1 X141.862 Y71.862 E1.06452
G1 X142.754 Y72.037 E0.02849
G1 X143.517 Y72.536 E0.02860
G1 X146.700 Y75.736 E0.14151
G1 X147.071 Y76.372 E0.02308
G1 X147.231 Y77.090 E0.02308
G1 X147.234 Y80.323 E0.10136
G1 X145.575 Y123.773 E1.36333
G1 X145.456 Y124.419 E0.02060
G1 X145.168 Y125.004 E0.02048
G1 X144.796 Y125.432 E0.01775
G1 X144.331 Y125.761 E0.01787
G1 X143.801 Y125.970 E0.01787
G1 X143.240 Y126.047 E0.01775
G1 X106.679 Y126.052 E1.14634
G1 X105.997 Y125.944 E0.02166
G1 X105.371 Y125.642 E0.02178
G1 X104.954 Y125.282 E0.01728
G1 X104.631 Y124.835 E0.01728
G1 X104.419 Y124.323 E0.01740
G1 X104.331 Y123.779 E0.01728
G1 X102.782 Y80.297 E1.36420
G1 X102.791 Y77.018 E0.10280
G1 X102.921 Y76.436 E0.01870
G1 X103.164 Y75.958 E0.01682
G1 F8640.000
G1 X105.466 Y73.605 E-0.76000
G1 E-0.04000 F2100.00000
G1 Z0.800 F10800.000
G1 X112.370 Y76.452
G1 Z0.200
G1 E0.80000 F2100.00000
G1 F1200.000
G1 X137.647 Y76.452 E0.79255
G1 X137.623 Y82.273 E0.18251
G1 X137.844 Y82.096 E0.00885
G1 X138.129 Y81.946 E0.01012
G1 X138.439 Y81.856 E0.01012
G1 X138.754 Y81.825 E0.00992
G1 X139.067 Y81.851 E0.00986
G1 X139.370 Y81.932 E0.00982
G1 X139.653 Y82.064 E0.00979
G1 X139.909 Y82.243 E0.00979
G1 X140.129 Y82.463 E0.00978
G1 X140.308 Y82.719 E0.00978
G1 X140.440 Y83.002 E0.00978
G1 X140.521 Y83.303 E0.00978
G1 X140.548 Y83.614 E0.00978
G1 X140.521 Y83.925 E0.00978
G1 X140.440 Y84.226 E0.00978
G1 X140.308 Y84.509 E0.00978
G1 X140.129 Y84.765 E0.00978
G1 X139.909 Y84.985 E0.00978
G1 X139.653 Y85.164 E0.00979
G1 X139.370 Y85.296 E0.00979
G1 X139.067 Y85.377 E0.00982
G1 X138.754 Y85.403 E0.00986
G1 X138.439 Y85.372 E0.00992
G1 X138.129 Y85.282 E0.01012
G1 X137.844 Y85.132 E0.01012
G1 X137.623 Y84.955 E0.00885
G1 X137.647 Y90.776 E0.18251
G1 X112.370 Y90.776 E0.79255
G1 X112.393 Y84.955 E0.18251
G1 X112.173 Y85.132 E0.00885
G1 X111.887 Y85.282 E0.01012
G1 X111.577 Y85.372 E0.01012
G1 X111.262 Y85.403 E0.00992
G1 X110.949 Y85.377 E0.00986
G1 X110.646 Y85.296 E0.00982
G1 X110.363 Y85.164 E0.00979
G1 X110.108 Y84.985 E0.00979
G1 X109.887 Y84.765 E0.00978
G1 X109.708 Y84.509 E0.00978
G1 X109.576 Y84.226 E0.00978
G1 X109.495 Y83.925 E0.00978
G1 X109.468 Y83.614 E0.00978
G1 X109.495 Y83.303 E0.00978
G1 X109.576 Y83.002 E0.00978
G1 X109.708 Y82.719 E0.00978
G1 X109.887 Y82.463 E0.00978
G1 X110.108 Y82.243 E0.00978
G1 X110.363 Y82.064 E0.00979
G1 X110.646 Y81.932 E0.00979
G1 X110.949 Y81.851 E0.00982
G1 X111.262 Y81.825 E0.00986
G1 X111.577 Y81.856 E0.00992
G1 X111.887 Y81.946 E0.01012
G1 X112.173 Y82.096 E0.01012
G1 X112.393 Y82.273 E0.00885
G1 X112.370 Y76.512 E0.18063
G1 F8640.000
G1 X115.661 Y76.504 E-0.76000
G1 E-0.04000 F2100.00000
G1 Z0.800 F10800.000
G1 X137.589 Y82.985
G1 Z0.200
G1 E0.80000 F2100.00000
G1 F1200.000
G1 X137.702 Y82.763 E0.00783
G1 X137.857 Y82.569 E0.00777
G1 X138.051 Y82.413 E0.00781
G1 X138.271 Y82.297 E0.00780
G1 X138.511 Y82.228 E0.00782
G1 X138.757 Y82.204 E0.00776
G1 X139.003 Y82.224 E0.00774
G1 X139.241 Y82.288 E0.00773
G1 X139.464 Y82.392 E0.00772
G1 X139.666 Y82.533 E0.00772
G1 X139.840 Y82.707 E0.00772
G1 X139.981 Y82.908 E0.00771
G1 X140.085 Y83.131 E0.00772
G1 X140.148 Y83.369 E0.00771
G1 X140.170 Y83.614 E0.00771
G1 X140.148 Y83.859 E0.00771
G1 X140.085 Y84.097 E0.00771
G1 X139.981 Y84.320 E0.00772
G1 X139.840 Y84.521 E0.00771
G1 X139.666 Y84.695 E0.00771
G1 X139.464 Y84.837 E0.00772
G1 X139.241 Y84.941 E0.00772
G1 X139.003 Y85.004 E0.00773
G1 X138.757 Y85.024 E0.00774
G1 X138.511 Y85.000 E0.00776
G1 X138.271 Y84.931 E0.00782
G1 X138.051 Y84.815 E0.00780
G1 X137.857 Y84.659 E0.00781
G1 X137.702 Y84.465 E0.00777
G1 X137.591 Y84.248 E0.00765
G1 X137.505 Y83.813 E0.01390
G1 X137.505 Y83.410 E0.01265
G1 X137.577 Y83.044 E0.01168
G1 X137.428 Y82.794 F10800.000
G1 F8640.000
G1 X137.702 Y82.763 E-0.07108
G1 X137.857 Y82.569 E-0.05724
G1 X138.051 Y82.413 E-0.05751
G1 X138.271 Y82.297 E-0.05742
G1 X138.511 Y82.228 E-0.05756
G1 X138.757 Y82.204 E-0.05712
G1 X139.003 Y82.224 E-0.05698
G1 X139.241 Y82.288 E-0.05691
G1 X139.464 Y82.392 E-0.05684
G1 X139.666 Y82.533 E-0.05682
G1 X139.840 Y82.707 E-0.05682
G1 X139.981 Y82.908 E-0.05681
G1 X140.085 Y83.131 E-0.05682
G1 X140.089 Y83.148 E-0.00408
G1 E-0.04000 F2100.00000
G1 Z0.800 F10800.000
G1 X112.748 Y76.829
G1 Z0.200
G1 E0.80000 F2100.00000
G1 F1200.000
G1 X137.269 Y76.829 E0.76884
G1 X137.255 Y82.153 E0.16692
G1 X137.121 Y83.614 E0.04601
G1 X137.255 Y85.075 E0.04601
G1 X137.269 Y90.399 E0.16692
G1 X112.748 Y90.399 E0.76884
G1 X112.761 Y85.075 E0.16692
G1 X112.896 Y83.614 E0.04601
G1 X112.761 Y82.153 E0.04601
G1 X112.748 Y76.889 E0.16504
G1 X112.745 Y76.429 F10800.000
G1 F8640.000
G1 X116.039 Y76.881 E-0.76000
G1 E-0.04000 F2100.00000
G1 Z0.800 F10800.000
G1 X111.506 Y82.228
G1 Z0.200
G1 E0.80000 F2100.00000
G1 F1200.000
G1 X111.745 Y82.297 E0.00782
G1 X111.965 Y82.413 E0.00780
G1 X112.160 Y82.569 E0.00781
G1 X112.314 Y82.763 E0.00777
G1 X112.425 Y82.980 E0.00765
G1 X112.481 Y83.203 E0.00721
G1 X112.511 Y83.415 E0.00671
G1 X112.511 Y83.819 E0.01265
G1 X112.427 Y84.243 E0.01356
G1 X112.314 Y84.465 E0.00783
G1 X112.160 Y84.659 E0.00777
G1 X111.965 Y84.815 E0.00781
G1 X111.745 Y84.931 E0.00780
G1 X111.506 Y85.000 E0.00782
G1 X111.260 Y85.024 E0.00776
G1 X111.014 Y85.004 E0.00774
G1 X110.776 Y84.941 E0.00773
G1 X110.552 Y84.837 E0.00772
G1 X110.351 Y84.695 E0.00772
G1 X110.177 Y84.521 E0.00772
G1 X110.036 Y84.320 E0.00771
G1 X109.932 Y84.097 E0.00771
G1 X109.868 Y83.859 E0.00771
G1 X109.847 Y83.614 E0.00771
G1 X109.868 Y83.369 E0.00771
G1 X109.932 Y83.131 E0.00771
G1 X110.036 Y82.908 E0.00771
G1 X110.177 Y82.707 E0.00771
G1 X110.351 Y82.533 E0.00772
G1 X110.552 Y82.392 E0.00772
G1 X110.776 Y82.288 E0.00772
G1 X111.014 Y82.224 E0.00773
G1 X111.260 Y82.204 E0.00774
G1 X111.446 Y82.222 E0.00587
G1 X111.669 Y82.039 F10800.000
G1 F8640.000
G1 X111.745 Y82.297 E-0.07123
G1 X111.965 Y82.413 E-0.05742
G1 X112.160 Y82.569 E-0.05751
G1 X112.314 Y82.763 E-0.05724
G1 X112.425 Y82.980 E-0.05637
G1 X112.481 Y83.203 E-0.05313
G1 X112.511 Y83.415 E-0.04940
G1 X112.511 Y83.819 E-0.09313
G1 X112.427 Y84.243 E-0.09987
G1 X112.314 Y84.465 E-0.05765
G1 X112.160 Y84.659 E-0.05724
G1 X111.991 Y84.794 E-0.04982
G1 E-0.04000 F2100.00000
G1 Z0.800 F10800.000
G1 X141.071 Y78.026
G1 Z0.200
G1 E0.80000 F2100.00000
G1 F1200.000
G1 X144.071 Y78.026 E0.09406
G1 X144.071 Y79.934 E0.05983
G1 X143.481 Y80.582 E0.02746
G1 X142.765 Y81.576 E0.03842
G1 X142.165 Y82.644 E0.03842
G1 X141.691 Y83.774 E0.03842
G1 X141.347 Y84.950 E0.03842
G1 X141.139 Y86.157 E0.03842
G1 X141.071 Y87.358 E0.03771
G1 X141.071 Y89.955 E0.08141
G1 X141.004 Y90.720 E0.02409
G1 X140.814 Y91.429 E0.02301
G1 X140.504 Y92.094 E0.02301
G1 X140.083 Y92.695 E0.02301
G1 X139.564 Y93.214 E0.02301
G1 X138.963 Y93.635 E0.02301
G1 X138.298 Y93.945 E0.02301
G1 X137.589 Y94.135 E0.02301
G1 X136.824 Y94.202 E0.02409
G1 X112.857 Y94.202 E0.75145
G1 X112.193 Y94.101 E0.02106
G1 X111.556 Y93.897 E0.02097
G1 X110.959 Y93.595 E0.02097
G1 X110.418 Y93.203 E0.02097
G1 X109.945 Y92.730 E0.02097
G1 X109.552 Y92.188 E0.02097
G1 X109.250 Y91.591 E0.02097
G1 X109.046 Y90.954 E0.02097
G1 X108.945 Y90.290 E0.02106
G1 X108.945 Y87.358 E0.09192
G1 X108.877 Y86.157 E0.03771
G1 X108.669 Y84.950 E0.03842
G1 X108.326 Y83.774 E0.03842
G1 X107.851 Y82.644 E0.03842
G1 X107.252 Y81.576 E0.03842
G1 X106.535 Y80.582 E0.03842
G1 X105.945 Y79.934 E0.02746
G1 X105.945 Y78.026 E0.05983
G1 X108.945 Y78.026 E0.09406
G1 X108.945 Y75.026 E0.09406
G1 X141.071 Y75.026 E1.00728
G1 X141.071 Y77.966 E0.09218
G1 X141.448 Y77.649 F10800.000
G1 F1200.000
G1 X144.448 Y77.649 E0.09406
G1 X144.448 Y80.080 E0.07623
G1 X143.775 Y80.820 E0.03136
G1 X143.083 Y81.779 E0.03707
G1 X142.504 Y82.810 E0.03707
G1 X142.047 Y83.900 E0.03707
G1 X141.715 Y85.035 E0.03707
G1 X141.515 Y86.200 E0.03707
G1 X141.448 Y87.369 E0.03670
G1 X141.448 Y89.971 E0.08159
G1 X141.377 Y90.786 E0.02564
G1 X141.170 Y91.558 E0.02508
G1 X140.832 Y92.283 E0.02508
G1 X140.373 Y92.938 E0.02508
G1 X139.808 Y93.504 E0.02508
G1 X139.152 Y93.963 E0.02508
G1 X138.428 Y94.301 E0.02508
G1 X137.655 Y94.508 E0.02508
G1 X136.840 Y94.579 E0.02564
G1 X112.829 Y94.579 E0.75286
G1 X112.107 Y94.469 E0.02290
G1 X111.413 Y94.247 E0.02285
G1 X110.762 Y93.918 E0.02285
G1 X110.172 Y93.490 E0.02285
G1 X109.657 Y92.975 E0.02285
G1 X109.229 Y92.385 E0.02285
G1 X108.900 Y91.735 E0.02285
G1 X108.678 Y91.040 E0.02285
G1 X108.568 Y90.318 E0.02290
G1 X108.568 Y87.369 E0.09248
G1 X108.502 Y86.200 E0.03670
G1 X108.301 Y85.035 E0.03707
G1 X107.970 Y83.900 E0.03707
G1 X107.512 Y82.810 E0.03707
G1 X106.933 Y81.779 E0.03707
G1 X106.242 Y80.820 E0.03707
G1 X105.568 Y80.080 E0.03136
G1 X105.568 Y77.649 E0.07623
G1 X108.568 Y77.649 E0.09406
G1 X108.568 Y74.649 E0.09406
G1 X141.448 Y74.649 E1.03093
G1 X141.448 Y77.589 E0.09218
G1 X141.638 Y78.001 F10800.000
G1 F8640.000
G1 X144.448 Y77.649 E-0.69285
G1 X144.448 Y77.940 E-0.06715
G1 E-0.04000 F2100.00000
G1 Z0.800 F10800.000
G1 X140.187 Y75.139
G1 Z0.200
G1 E0.80000 F2100.00000
G1 F1200.000
G1 X140.788 Y75.740 E0.02694
G1 X140.788 Y76.279 E0.01708
G1 X139.818 Y75.309 E0.04349
G1 X139.279 Y75.309 E0.01708
G1 X140.788 Y76.818 E0.06765
G1 X140.788 Y77.357 E0.01708
G1 X138.740 Y75.309 E0.09180
G1 X138.201 Y75.309 E0.01708
G1 X140.788 Y77.896 E0.11596
G1 X140.788 Y78.309 E0.01308
G1 X141.201 Y78.309 E0.01308
G1 X143.278 Y80.386 E0.09307
G1 X143.535 Y80.104 E0.01209
G1 X141.740 Y78.309 E0.08043
G1 X142.279 Y78.309 E0.01708
G1 X143.788 Y79.818 E0.06765
G1 X143.788 Y79.279 E0.01708
G1 X142.818 Y78.309 E0.04349
G1 X143.357 Y78.309 E0.01708
G1 X143.958 Y78.910 E0.02694
G1 F8640.000
G1 X143.357 Y78.309 E-0.19630
G1 X142.818 Y78.309 E-0.12445
G1 X143.788 Y79.279 E-0.31689
G1 X143.788 Y79.809 E-0.12235
G1 E-0.04000 F2100.00000
G1 Z0.800 F10800.000
G1 X143.171 Y80.818
G1 Z0.200
G1 E0.80000 F2100.00000
G1 F1200.000
G1 X137.662 Y75.309 E0.24691
G1 X137.123 Y75.309 E0.01708
G1 X142.824 Y81.010 E0.25550
G1 X142.598 Y81.323 E0.01223
G1 X137.929 Y76.654 E0.20927
G1 X137.927 Y77.190 E0.01701
G1 X142.394 Y81.658 E0.20022
G1 X142.200 Y82.003 E0.01255
G1 X137.924 Y77.727 E0.19164
G1 X137.922 Y78.264 E0.01701
G1 X142.007 Y82.349 E0.18305
G1 X141.830 Y82.711 E0.01278
G1 X137.920 Y78.801 E0.17524
G1 X137.918 Y79.338 E0.01701
G1 X141.671 Y83.091 E0.16820
G1 X141.511 Y83.470 E0.01305
G1 X137.916 Y79.874 E0.16115
G1 X137.913 Y80.411 E0.01701
G1 X139.070 Y81.568 E0.05182
G1 X138.752 Y81.541 E0.01011
G1 X138.526 Y81.563 E0.00718
G1 X137.911 Y80.948 E0.02757
G1 X137.909 Y81.485 E0.01701
G1 X138.225 Y81.800 E0.01414
G1 F8640.000
G1 X137.909 Y81.485 E-0.10302
G1 X137.911 Y80.948 E-0.12395
G1 X138.526 Y81.563 E-0.20088
G1 X138.752 Y81.541 E-0.05232
G1 X139.070 Y81.568 E-0.07364
G1 X138.438 Y80.936 E-0.20618
G1 E-0.04000 F2100.00000
G1 Z0.800 F10800.000
G1 X137.581 Y82.577
G1 Z0.200
G1 E0.80000 F2100.00000
G1 F1200.000
G1 X137.386 Y82.786 E0.00154
G1 X137.396 Y82.904 F10800.000
G1 F1200.000
G1 X137.435 Y82.768 E0.00094
G1 X137.474 Y82.633 E0.00129
G1 F8640.000
G1 X137.435 Y82.768 E-0.03246
G1 E-0.76754 F2100.00000
G1 Z0.800 F10800.000
G1 X137.474 Y84.595
G1 Z0.200
G1 E0.80000 F2100.00000
G1 F1200.000
G1 X137.435 Y84.460 E0.00129
G1 X137.396 Y84.325 E0.00094
G1 X137.386 Y84.442 F10800.000
G1 F1200.000
G1 X137.581 Y84.651 E0.00154
G1 F8640.000
G1 X137.386 Y84.442 E-0.06597
G1 E-0.73403 F2100.00000
G1 Z0.800 F10800.000
G1 X141.506 Y84.004
G1 Z0.200
G1 E0.80000 F2100.00000
G1 F1200.000
G1 X140.805 Y83.303 E0.03141
G1 X140.832 Y83.614 E0.00990
G1 X140.812 Y83.848 E0.00745
G1 X141.247 Y84.284 E0.01951
G1 X141.125 Y84.701 E0.01377
G1 X140.716 Y84.291 E0.01836
G1 X140.547 Y84.662 E0.01289
G1 X141.027 Y85.142 E0.02153
G1 X140.948 Y85.602 E0.01479
G1 X140.320 Y84.974 E0.02814
G1 X140.044 Y85.236 E0.01208
G1 X140.869 Y86.062 E0.03699
G1 X140.833 Y86.565 E0.01598
G1 X139.716 Y85.447 E0.05008
G1 X139.467 Y85.563 E0.00870
G1 X139.329 Y85.600 E0.00451
G1 X140.804 Y87.075 E0.06609
G1 X140.788 Y87.598 E0.01659
G1 X138.868 Y85.677 E0.08608
G1 X138.752 Y85.687 E0.00368
G1 X138.386 Y85.651 E0.01167
G1 X138.269 Y85.617 E0.00385
G1 X140.788 Y88.137 E0.11292
G1 X140.788 Y88.676 E0.01708
G1 X137.909 Y85.797 E0.12903
G1 X137.912 Y86.338 E0.01715
G1 X140.788 Y89.215 E0.12893
G1 X140.788 Y89.754 E0.01708
G1 X137.914 Y86.879 E0.12883
G1 X137.916 Y87.420 E0.01715
G1 X140.760 Y90.265 E0.12747
G1 X140.704 Y90.748 E0.01541
G1 X137.918 Y87.962 E0.12485
G1 X137.920 Y88.503 E0.01715
G1 X140.590 Y91.173 E0.11965
G1 X140.547 Y91.332 E0.00523
G1 X140.440 Y91.562 E0.00804
G1 X137.923 Y89.044 E0.11284
G1 X137.925 Y89.585 E0.01715
G1 X140.269 Y91.929 E0.10506
G1 X140.050 Y92.249 E0.01229
G1 X137.927 Y90.126 E0.09515
G1 X137.929 Y90.667 E0.01715
G1 X139.820 Y92.558 E0.08474
G1 X139.551 Y92.828 E0.01208
G1 X137.782 Y91.059 E0.07928
G1 X137.243 Y91.059 E0.01708
G1 X139.263 Y93.080 E0.09056
G1 X138.946 Y93.302 E0.01226
G1 X136.704 Y91.059 E0.10051
G1 X136.165 Y91.059 E0.01708
G1 X138.599 Y93.493 E0.10908
G1 X138.231 Y93.664 E0.01285
G1 X135.626 Y91.059 E0.11676
G1 X135.087 Y91.059 E0.01708
G1 X137.811 Y93.783 E0.12208
G1 X137.540 Y93.855 E0.00888
G1 X137.360 Y93.871 E0.00572
G1 X134.548 Y91.059 E0.12603
G1 X134.009 Y91.059 E0.01708
G1 X136.864 Y93.915 E0.12798
G1 X136.330 Y93.919 E0.01693
G1 X133.470 Y91.059 E0.12819
G1 X132.931 Y91.059 E0.01708
G1 X135.791 Y93.919 E0.12819
G1 X135.252 Y93.919 E0.01708
G1 X132.392 Y91.059 E0.12819
G1 X131.853 Y91.059 E0.01708
G1 X134.713 Y93.919 E0.12819
G1 X134.174 Y93.919 E0.01708
G1 X131.314 Y91.059 E0.12819
G1 X130.775 Y91.059 E0.01708
G1 X133.635 Y93.919 E0.12819
G1 X133.096 Y93.919 E0.01708
G1 X130.236 Y91.059 E0.12819
G1 X129.697 Y91.059 E0.01708
G1 X132.557 Y93.919 E0.12819
G1 X132.018 Y93.919 E0.01708
G1 X129.158 Y91.059 E0.12819
G1 X128.619 Y91.059 E0.01708
G1 X131.479 Y93.919 E0.12819
G1 X130.940 Y93.919 E0.01708
G1 X128.080 Y91.059 E0.12819
G1 X127.541 Y91.059 E0.01708
G1 X130.401 Y93.919 E0.12819
G1 X129.862 Y93.919 E0.01708
G1 X127.002 Y91.059 E0.12819
G1 X126.463 Y91.059 E0.01708
G1 X129.323 Y93.919 E0.12819
G1 X128.784 Y93.919 E0.01708
G1 X125.924 Y91.059 E0.12819
G1 X125.385 Y91.059 E0.01708
G1 X128.245 Y93.919 E0.12819
G1 X127.706 Y93.919 E0.01708
G1 X124.846 Y91.059 E0.12819
G1 X124.307 Y91.059 E0.01708
G1 X127.167 Y93.919 E0.12819
G1 X126.628 Y93.919 E0.01708
G1 X123.768 Y91.059 E0.12819
G1 X123.229 Y91.059 E0.01708
G1 X126.089 Y93.919 E0.12819
G1 X125.550 Y93.919 E0.01708
G1 X122.690 Y91.059 E0.12819
